Ovmem/robot-control-retargeting-framework/results/panda_control/raw/ablation_pd_gc.csv
t,mode,err_norm,tau_norm,tau_smoothness_step,q1,qd1,tau1,q2,qd2,tau2,q3,qd3,tau3,q4,qd4,tau4,q5,qd5,tau5,q6,qd6,tau6,q7,qd7,tau7
0.0,pd_gc,3.636759828731859e-12,22.74721268125129,0.0,1.5424078575759993e-12,7.712039287879996e-10,0.0,-0.6999999999999423,2.8796736914133858e-11,-6.188191757487909,1.722676169366781e-12,8.613380846833905e-10,-0.5866908431074782,-2.199999999999997,1.6050384504946408e-12,21.736176148071376,2.8059038767140384e-12,1.402951938357019e-09,0.6322073211695401,1.6000000000000392,1.9553276041616927e-11,2.4365367923063985,0.8000000000000379,1.893842997961711e-11,-0.003196257500585149
0.002,pd_gc,5.582241554178625e-12,22.7472126813643,1.7380493894620303e-08,2.5023636246796003e-12,4.799778835518005e-10,-1.0920247631638074e-08,-0.6999999999999184,1.2008174904681528e-11,-6.188191757894914,3.2156920453993692e-12,7.46507938016294e-10,-0.5866908535306414,-2.1999999999999846,6.176513063524447e-12,21.736176148053865,3.814184535577532e-12,5.041403294317467e-10,0.6322073125669898,1.600000000000052,6.4907436638927435e-12,2.4365367922061276,0.8000000000000363,-7.662304078052919e-13,-0.003196257587428484
0.004,pd_gc,6.457169656934403e-12,22.747212681373178,6.736631585945663e-09,2.964227586669451e-12,2.3093198099492532e-10,-6.919879459699576e-09,-0.6999999999999196,-6.134931315156139e-13,-6.188191757659888,4.167792922862717e-12,4.760504387316742e-10,-0.586690852212628,-2.1999999999999797,2.4154304114396738e-12,21.736176148005814,3.940484300325957e-12,6.314988237421228e-11,0.6322073178182711,1.6000000000000552,1.5504378918069259e-12,2.4365367922694983,0.8000000000000239,-6.191467592628127e-12,-0.0031962575197289917
0.006,pd_gc,6.3987096672252706e-12,22.74721268134837,5.366519388088947e-09,2.968566695820195e-12,2.1695545753720144e-12,-3.470185940862511e-09,-0.6999999999999375,-8.927643309445908e-12,-6.18819175748084,4.478880686719984e-12,1.5554388192863325e-10,-0.5866908489835624,-2.199999999999981,-6.661742712927108e-13,21.736176148041594,3.4733070775161717e-12,-2.3358861140489247e-10,0.6322073203556465,1.6000000000000503,-2.4730469102581253e-12,2.436536792292623,0.8000000000000086,-7.665245832421564e-12,-0.0031962575081917496
0.008,pd_gc,6.042035523523875e-12,22.747212681293693,5.3100467821322876e-09,2.807410138330504e-12,-8.057827874484536e-11,-2.6785909972082377e-10,-0.6999999999999562,-9.400855128715968e-12,-6.1881917573609675,4.426307131459962e-12,-2.628677763001122e-11,-0.586690845110092,-2.1999999999999855,-2.1589395118557517e-12,21.7361761480712,3.0047172969912196e-12,-2.3429489026247603e-10,0.6322073220651241,1.6000000000000447,-2.7646304993022683e-12,2.436536792311657,0.7999999999999993,-4.667101728075043e-12,-0.0031962575103927386
0.01,pd_gc,5.460138127962939e-12,22.74721268124552,2.5218494965077102e-09,2.5342450608975646e-12,-1.365825387164698e-10,9.035030913613947e-10,-0.6999999999999733,-8.542787795040398e-12,-6.188191757351222,4.129502953644359e-12,-1.484020889078014e-10,-0.5866908428775609,-2.1999999999999895,-1.9485251801688937e-12,21.73617614808529,2.5170623868395027e-12,-2.438274550758584e-10,0.6322073220122929,1.600000000000038,-3.2933456098076113e-12,2.4365367923122365,0.7999999999999932,-3.037310518226558e-12,-0.0031962575292514075
0.012,pd_gc,4.779633644737531e-12,22.747212681206666,1.7282264884028123e-09,2.2132769883380708e-12,-1.604840362797468e-10,1.709415937158772e-09,-0.6999999999999871,-6.876435058588246e-12,-6.18819175736068,3.699599945882759e-12,-2.1495150388080015e-10,-0.586690841348896,-2.1999999999999926,-1.4669649222346953e-12,21.73617614808255,2.063478046698868e-12,-2.2679217007031725e-10,0.6322073220267058,1.6000000000000316,-3.231785572532284e-12,2.4365367923142314,0.7999999999999898,-1.6797442925377962e-12,-0.0031962575413496063
0.014,pd_gc,4.088713888018558e-12,22.747212681181228,9.47824944391547e-10,1.8881687605683306e-12,-1.6255411388487e-10,2.0697143488494096e-09,-0.6999999999999972,-5.026507110847636e-12,-6.188191757382084,3.2191746467030654e-12,-2.4021264958984664e-10,-0.586690840482893,-2.1999999999999944,-9.7507682180193e-13,21.7361761480772,1.669873288937394e-12,-1.9680237888073704e-10,0.6322073218925027,1.6000000000000258,-2.8817354331299632e-12,2.4365367923134293,0.7999999999999885,-6.647570032759224e-13,-0.0031962575512502066
0.016,pd_gc,3.4382801043871134e-12,22.74721268116738,4.258768467677993e-10,1.583503059083643e-12,-1.5233285074234387e-10,2.1247040935427138e-09,-0.700000000000004,-3.370559598085368e-12,-6.188191757406655,2.7415585697340934e-12,-2.38808038484486e-10,-0.5866908401141103,-2.1999999999999957,-5.826496515348223e-13,21.736176148071838,1.340723716852471e-12,-1.6457478604246158e-10,0.6322073216884158,1.600000000000021,-2.448204499339195e-12,2.4365367923113044,0.7999999999999885,-1.974109304395803e-15,-0.0031962575588695397
0.018000000000000002,pd_gc,2.8536297091234726e-12,22.74721268116208,2.4776989487204003e-10,1.3109908639134295e-12,-1.3625609758510666e-10,2.0059796656661225e-09,-0.7000000000000081,-2.0524906111287145e-12,-6.188191757428984,2.2972169938600977e-12,-2.2217078793699777e-10,-0.5866908400705282,-2.199999999999996,-3.201503015728854e-13,21.736176148067546,1.0708954858213588e-12,-1.3491411551555614e-10,0.6322073214766565,1.600000000000017,-2.025249242507032e-12,2.436536792308846,0.7999999999999893,3.803147714238956e-13,-0.003196257564346657
0.02,pd_gc,2.344074651717783e-12,22.747212681162353,3.1606311853303373e-10,1.0745570389817056e-12,-1.18216912465862e-10,1.8027060970784188e-09,-0.7000000000000102,-1.0815307985448849e-12,-6.188191757446958,1.900897168624291e-12,-1.9815991261790334e-10,-0.5866908402165938,-2.1999999999999966,-1.720704322889739e-13,21.73617614806462,8.52179202923543e-13,-1.0935814144890787e-10,0.6322073212845907,1.6000000000000136,-1.652065631763619e-12,2.436536792306506,0.7999999999999904,5.672623055941661e-13,-0.003196257568115466
0.022,pd_gc,1.9095589068729407e-12,22.74721268116582,3.744907181254092e-10,8.737344946643259e-13,-1.0041127215868986e-10,1.5690722114035315e-09,-0.700000000000011,-4.087014433167368e-13,-6.188191757460341,1.557416930583925e-12,-1.7174011902018302e-10,-0.5866908404584716,-2.1999999999999966,-1.0556291611241168e-13,21.73617614806291,6.761159326766141e-13,-8.803163512346449e-11,0.6322073211203924,1.600000000000011,-1.3375550948006161e-12,2.4365367923044694,0.7999999999999916,6.316163585804254e-13,-0.0031962575706348385
0.024,pd_gc,1.544944050037277e-12,22.74721268117072,3.8766885468325433e-10,7.057794339474876e-13,-8.397753035841917e-11,1.335859050648512e-09,-0.7000000000000108,3.137511089905344e-14,-6.18819175746971,1.2657801226141508e-12,-1.4581840398488713e-10,-0.5866908407363431,-2.1999999999999966,-8.717380474140686e-14,21.73617614806203,5.350421675977343e-13,-7.053688253943983e-11,0.63220732098404,1.6000000000000087,-1.0805719006154908e-12,2.4365367923027583,0.7999999999999928,6.22832726698469e-13,-0.0031962575722923104
0.026000000000000002,pd_gc,1.242702608897237e-12,22.747212681176038,3.6997650933589387e-10,5.669427385107968e-13,-6.94183477183454e-11,1.1192230703020694e-09,-0.7000000000000103,2.9994138041195125e-13,-6.188191757475942,1.0218979033869731e-12,-1.2194110961358883e-10,-0.5866908410147018,-2.1999999999999966,-9.332017266889853e-14,21.736176148061706,4.223819179026132e-13,-5.633012484756056e-11,0.6322073208725685,1.600000000000007,-8.712735682120537e-13,2.4365367923013683,0.7999999999999939,5.757166201479934e-13,-0.0031962575733632077
0.028,pd_gc,9.945321856232575e-13,22.747212681181082,3.356715854330584e-10,4.5320782245725897e-13,-5.686745802676892e-11,9.265014489759718e-10,-0.7000000000000094,4.472630069002968e-13,-6.188191757479801,8.202969109079448e-13,-1.0080049623951418e-10,-0.5866908412742491,-2.1999999999999966,-1.0854907108943031e-13,21.736176148061634,3.326429654916899e-13,-4.4869476205461645e-11,0.632207320782278,1.6000000000000056,-7.020525670144461e-13,2.43653679230024,0.7999999999999949,5.113174870563169e-13,-0.0031962575740473406
0.03,pd_gc,7.922821572695774e-13,22.747212681185605,2.944321606286436e-10,3.606975476016163e-13,-4.625513742782134e-11,7.598877865781842e-10,-0.7000000000000084,5.127647690210165e-13,-6.188191757482016,6.551397126326164e-13,-8.25785991376642e-11,-0.5866908415058528,-2.199999999999997,-1.2295347707266835e-13,21.736176148061702,2.6130800671617043e-13,-3.566747938775974e-11,0.6322073207095872,1.6000000000000045,-5.652187715906545e-13,2.436536792299325,0.7999999999999958,4.4095865536645044e-13,-0.0031962575744783127
0.032,pd_gc,6.284467869003463e-13,22.74721268118948,2.5221589360166813e-10,2.858791107557931e-13,-3.74092184229116e-11,6.187161201813695e-10,-0.7000000000000074,5.252644298278395e-13,-6.188191757483099,5.207979030169267e-13,-6.717090480784487e-11,-0.586690841706567,-2.1999999999999975,-1.3315476721122532e-13,21.73617614806181,2.0469768990618195e-13,-2.8305158404994246e-11,0.6322073206513169,1.6000000000000036,-4.549483690084657e-13,2.4365367922985897,0.7999999999999966,3.7326362801444456e-13,-0.0031962575747402746
0.034,pd_gc,4.96376345901241e-13,22.74721268119267,2.123521412289958e-10,2.2564822737894995e-13,-3.011544168842156e-11,5.008587290602989e-10,-0.7000000000000064,5.048853400046611e-13,-6.18819175748342,4.1214396776131774e-13,-5.4326967627804464e-11,-0.586690841876963,-2.199999999999998,-1.3724424963398549e-13,21.73617614806188,1.5983514364459009e-13,-2.2431273130795933e-11,0.6322073206047572,1.600000000000003,-3.672861411508672e-13,2.4365367922979946,0.7999999999999973,3.118133501064917e-13,-0.0031962575748982953
0.036000000000000004,pd_gc,3.903371824545821e-13,22.747212681195258,1.7645671545470809e-10,1.7734386032330523e-13,-2.415218352782236e-11,4.0356432544758586e-10,-0.7000000000000055,4.660971420332504e-13,-6.188191757483284,3.246721032802996e-13,-4.373593224050906e-11,-0.5866908420194189,-2.1999999999999984,-1.3544365976454304e-13,21.73617614806191,1.2432403419978715e-13,-1.775555472240147e-11,0.6322073205676515,1.6000000000000023,-2.953394023133836e-13,2.436536792297525,0.7999999999999978,2.573887998003243e-13,-0.0031962575749907188
0.038,pd_gc,3.05478837029563e-13,22.74721268119731,1.451625816857833e-10,1.3872515799704734e-13,-1.9309351163128944e-11,3.2394306056364863e-10,-0.7000000000000046,4.183462346976276e-13,-6.188191757482868,2.545193879412952e-13,-3.50763576695022e-11,-0.5866908421371537,-2.199999999999999,-1.2967427955924802e-13,21.7361761480619,9.624293621164281e-14,-1.404054899407217e-11,0.6322073205381419,1.6000000000000019,-2.3807211331257603e-13,2.43653679229714,0.7999999999999983,2.1074876315408896e-13,-0.0031962575750395313
0.04,pd_gc,2.3775688586970916e-13,22.74721268119892,1.18482929009048e-10,1.0792994577857204e-13,-1.5397606109237653e-11,2.5923290364404145e-10,-0.7000000000000038,3.6769650634137e-13,-6.188191757482333,1.9843246620881114e-13,-2.804346086624204e-11,-0.5866908422335981,-2.1999999999999993,-1.2068024863383002e-13,21.736176148061848,7.405588269983432e-14,-1.1093526755904253e-11,0.6322073205147134,1.6000000000000014,-1.9138768963327283e-13,2.4365367922968364,0.7999999999999986,1.7132981783519096e-13,-0.003196257575062678
0.042,pd_gc,1.8383803457077044e-13,22.74721268120015,9.608338599743062e-11,8.34264145808985e-14,-1.225176559883677e-11,2.069320898670414e-10,-0.7000000000000032,3.1778604972292867e-13,-6.188191757481724,1.5370748727252725e-13,-2.2362489468141947e-11,-0.5866908423120281,-2.1999999999999993,-1.1051874265931369e-13,21.736176148061762,5.653835547515045e-14,-8.75876361234193e-12,0.6322073204961406,1.6000000000000012,-1.5440174117101945e-13,2.4365367922965886,0.7999999999999988,1.3793541418017234e-13,-0.0031962575750695394
0.044,pd_gc,1.4098993496400048e-13,22.747212681201077,7.753080776016735e-11,6.396452818006716e-14,-9.730943200415666e-12,1.648506052172429e-10,-0.7000000000000026,2.7182774032709267e-13,-6.1881917574811185,1.1812015808991443e-13,-1.7793664591306406e-11,-0.5866908423754589,-2.1999999999999993,-9.807010966023971e-14,21.736176148061645,4.271596044369711e-14,-6.911197515726673e-12,0.6322073204814339,1.600000000000001,-1.2406416688835282e-13,2.4365367922963905,0.799999999999999,1.1139360130761619e-13,-0.0031962575750645377
0.046,pd_gc,1.0699591772024541e-13,22.74721268120177,6.229505221898151e-11,4.8530588545685624e-14,-7.71696981719077e-12,1.3111604255141396e-10,-0.7000000000000022,2.297181522753992e-13,-6.188191757480549,8.98551228788298e-14,-1.4132517605542314e-11,-0.5866908424265175,-2.1999999999999993,-8.640397222883641e-14,21.736176148061507,3.1815064500715565e-14,-5.450447971490771e-12,0.632207320469802,1.6000000000000008,-9.888030560450443e-14,2.4365367922962258,0.7999999999999993,8.912784660938857e-14,-0.0031962575750604104
0.048,pd_gc,8.006640789277783e-14,22.7472126812023,4.988780656917956e-11,3.630680657468126e-14,-6.11189098550218e-12,1.0415513035701595e-10,-0.7000000000000018,1.9246378663989913e-13,-6.1881917574800145,6.744025109298975e-14,-1.1207435892920023e-11,-0.5866908424674696,-2.1999999999999993,-7.553429468917739e-14,21.73617614806139,2.322210135409802e-14,-4.296481573308773e-12,0.6322073204606091,1.6000000000000005,-8.038761760267019e-14,2.4365367922960957,0.7999999999999994,7.155964634697766e-14,-0.003196257575052515
0.05,pd_gc,5.87585305956973e-14,22.747212681202686,3.9829171664446346e-11,2.6636135710647977e-14,-4.835335432016643e-12,8.266192927105602e-11,-0.7000000000000015,1.6029311795399987e-13,-6.18819175747954,4.968784077038105e-14,-8.876205161304351e-12,-0.5866908425002024,-2.1999999999999993,-6.504107369755317e-14,21.73617614806127,1.6451062935918733e-14,-3.385519209089642e-12,0.6322073204533484,1.6000000000000003,-6.467248108520915e-14,2.436536792295996,0.7999999999999995,5.6785969470394366e-14,-0.003196257575044798
0.052000000000000005,pd_gc,4.1923647326566364e-14,22.74721268120298,3.173429859291469e-11,1.8992501979948614e-14,-3.821816865349683e-12,6.556380519138117e-11,-0.7000000000000013,1.3239890623555195e-13,-6.188191757479134,3.564362944220034e-14,-7.022105664090354e-12,-0.5866908425263121,-2.1999999999999993,-5.5597339342673986e-14,21.736176148061162,1.1117483389518626e-14,-2.6667897732000542e-12,0.6322073204476193,1.6000000000000003,-5.20809736160938e-14,2.4365367922959162,0.7999999999999996,4.512124160551093e-14,-0.003196257575035344
0.054,pd_gc,2.864044110077553e-14,22.74721268120319,2.5222309869891447e-11,1.2955895912430138e-14,-3.018303033759238e-12,5.198603595649966e-11,-0.7000000000000011,1.0885060429749143e-13,-6.188191757478774,2.454355318565519e-14,-5.550038128272575e-12,-0.5866908425470786,-2.1999999999999993,-4.752593198785191e-14,21.736176148061062,6.9175090267509936e-15,-2.099987181383816e-12,0.6322073204431008,1.6000000000000003,-4.090152938502606e-14,2.436536792295847,0.7999999999999997,3.558299565776921e-14,-0.0031962575750282057
0.056,pd_gc,1.8186629036182636e-14,22.74721268120336,2.0025678730908112e-11,8.191770862868495e-15,-2.3820625247808213e-12,4.121977079963492e-11,-0.7000000000000008,8.908478070415021e-14,-6.18819175747848,1.577758893145825e-14,-4.382982127098469e-12,-0.5866908425635807,-2.1999999999999993,-4.01058561398392e-14,21.73617614806099,3.611055789698016e-15,-1.6532266185264887e-12,0.6322073204395371,1.6000000000000003,-3.265513424541056e-14,2.4365367922957883,0.7999999999999998,2.865307505909944e-14,-0.0031962575750215743
0.058,pd_gc,1.0033306580211685e-14,22.74721268120347,1.5867711074363827e-11,4.434172810165105e-15,-1.878799026351695e-12,3.269353367790202e-11,-0.7000000000000007,7.274949584157753e-14,-6.18819175747823,8.859822065143313e-15,-3.458883433157468e-12,-0.5866908425766625,-2.1999999999999993,-3.368119049644676e-14,21.736176148060913,1.0086948236100935e-15,-1.3011804830439613e-12,0.6322073204367291,1.6000000000000003,-2.6650376511237617e-14,2.4365367922957435,0.7999999999999998,2.2742423756669497e-14,-0.0031962575750191366
0.06,pd_gc,4.020548058681602e-15,22.747212681203553,1.2564564005181044e-11,1.4720243918259406e-15,-1.4810742091695821e-12,2.594845254411052e-11,-0.7000000000000006,5.930928123333913e-14,-6.1881917574780205,3.4039783051486065e-15,-2.7279218799973533e-12,-0.5866908425870272,-2.1999999999999993,-2.7730477849197914e-14,21.736176148060846,-1.0390764180535667e-15,-1.0238856208318301e-12,0.6322073204345166,1.6000000000000003,-2.0572922416814626e-14,2.436536792295712,0.7999999999999998,1.7871033004740562e-14,-0.003196257575013615
0.062,pd_gc,3.1249542003435064e-15,22.747212681203607,9.933701558971004e-12,-8.619542458425805e-16,-1.1669893188342606e-12,2.0617276977028074e-11,-0.7000000000000005,4.814235832295172e-14,-6.188191757477845,-8.965155532576175e-16,-2.1502469292031118e-12,-0.5866908425952237,-2.1999999999999993,-2.2439143536859368e-14,21.736176148060782,-2.6500973917216825e-15,-8.055104868340578e-13,0.6322073204327737,1.6000000000000003,-1.6730871204184228e-14,2.4365367922956804,0.7999999999999998,1.3849812437704009e-14,-0.0031962575750083817
0.064,pd_gc,6.4867804887532605e-15,22.747212681203653,7.85385482788101e-12,-2.700175133893572e-15,-9.191104440254955e-13,1.6406806803347054e-11,-0.7000000000000004,3.8891645571347946e-14,-6.188191757477711,-4.284631384168331e-15,-1.6940579154553565e-12,-0.5866908426017086,-2.1999999999999993,-1.8117609659774456e-14,21.73617614806074,-3.917221657334916e-15,-6.335621328066169e-13,0.6322073204314018,1.6000000000000003,-1.3913012183069693e-14,2.4365367922956587,0.7999999999999998,1.1249305275210095e-14,-0.003196257575003498
0.066,pd_gc,9.522734232734227e-15,22.747212681203663,6.199776841609202e-12,-4.1473557800526e-15,-7.235903230795141e-13,1.3083560227068424e-11,-0.7000000000000003,3.149825560084058e-14,-6.1881917574775835,-6.952707742069493e-15,-1.3340381789505809e-12,-0.5866908426068277,-2.1999999999999993,-1.4918516699886767e-14,21.736176148060682,-4.913589347020078e-15,-4.98183844842581e-13,0.6322073204303211,1.6000000000000003,-1.0845287860419127e-14,2.436536792295641,0.7999999999999998,8.721867133685663e-15,-0.003196257575001905
0.068,pd_gc,1.1972944402860613e-14,22.74721268120369,4.892934085066847e-12,-5.286244212668921e-15,-5.694442163081607e-13,1.0462052985517406e-11,-0.7000000000000003,2.543503683728422e-14,-6.18819175747749,-9.052834060287484e-15,-1.0500631591089958e-12,-0.5866908426108695,-2.1999999999999993,-1.2033238306080091e-14,21.73617614806065,-5.696912601729477e-15,-3.916616273546995e-13,0.632207320429471,1.6000000000000003,-8.091348946039543e-15,2.436536792295626,0.7999999999999998,6.635958404065034e-15,-0.00319625757499872
0.07,pd_gc,1.3916439718431591e-14,22.74721268120371,3.8598305564369645e-12,-6.182166324407818e-15,-4.4796105586944824e-13,8.395118565327763e-12,-0.7000000000000003,2.053235746226372e-14,-6.188191757477415,-1.0705186138084587e-14,-8.261760388985512e-13,-0.5866908426140588,-2.1999999999999993,-9.545114345558865e-15,21.73617614806063,-6.312582802616496e-15,-3.078351004435094e-13,0.6322073204288019,1.6000000000000003,-5.892842961240359e-15,2.4365367922956085,0.7999999999999998,5.2747380606721684e-15,-0.003196257574995813
0.07200000000000001,pd_gc,1.5450774130267753e-14,22.747212681203706,3.0406132710177596e-12,-6.886674430008362e-15,-3.522540528002721e-13,6.766028088124901e-12,-0.7000000000000003,1.6574631189353866e-14,-6.18819175747734,-1.200465507980868e-14,-6.497344708620462e-13,-0.5866908426165702,-2.1999999999999993,-7.553020866654489e-15,21.736176148060594,-6.796321861953973e-15,-2.4186952966873873e-13,0.6322073204282754,1.6000000000000003,-4.436277449928589e-15,2.436536792295599,0.7999999999999998,3.9610340028727976e-15,-0.0031962575749946566
0.074,pd_gc,1.6659426624995125e-14,22.74721268120371,2.3966740712360795e-12,-7.440417935658898e-15,-2.7687175282526796e-13,5.482490693604479e-12,-0.7000000000000003,1.3309493802249174e-14,-6.188191757477287,-1.3026117468639077e-14,-5.107311944151985e-13,-0.5866908426185504,-2.1999999999999993,-6.178781724008518e-15,21.736176148060572,-7.176248185951168e-15,-1.8996316199859737e-13,0.6322073204278607,1.6000000000000003,-3.854202902011132e-15,2.4365367922955907,0.7999999999999998,3.7707759210888766e-15,-0.0031962575749927688
0.076,pd_gc,1.761023432376446e-14,22.747212681203713,1.885492281919649e-12,-7.875461613400409e-15,-2.1752183887075477e-13,4.471437974406463e-12,-0.7000000000000003,1.045691770533258e-14,-6.188191757477242,-1.3828636952149708e-14,-4.012597417553155e-13,-0.5866908426201073,-2.1999999999999993,-5.66979037165643e-15,21.736176148060558,-7.474480267966313e-15,-1.4911604100757269e-13,0.6322073204275339,1.6000000000000003,-2.5866892516516124e-15,2.436536792295588,0.7999999999999998,3.0430358571385654e-15,-0.00319625757499466
0.078,pd_gc,1.8357422288552016e-14,22.747212681203717,1.4931013802919483e-12,-8.217057245755966e-15,-1.7079781617777868e-13,3.6753426732625995e-12,-0.7000000000000003,8.456808825487498e-15,-6.188191757477198,-1.445874378014326e-14,-3.150534139967765e-13,-0.5866908426213433,-2.1999999999999993,-4.635899740048759e-15,21.73617614806055,-7.708517984489229e-15,-1.170188582614574e-13,0.6322073204272772,1.6000000000000003,-2.6685220907775682e-15,2.4365367922955827,0.7999999999999998,1.9003176186387824e-15,-0.0031962575749938274
0.08,pd_gc,1.8944017427534062e-14,22.747212681203724,1.1697877730672712e-12,-8.485097650688508e-15,-1.3402020246627114e-13,3.048534006149379e-12,-0.7000000000000003,6.9792972938075146e-15,-6.188191757477171,-1.4953114479775998e-14,-2.47185349816369e-13,-0.58669084262231,-2.1999999999999993,-3.37034576429782e-15,21.736176148060544,-7.892077003206294e-15,-9.177950935853215e-14,0.6322073204270765,1.6000000000000003,-2.471332070427822e-15,2.4365367922955823,0.7999999999999998,1.3394565831344435e-15,-0.0031962575749908905
0.082,pd_gc,1.940404814459164e-14,22.747212681203717,9.20958141419501e-13,-8.695255960001347e-15,-1.0507915465641932e-13,2.5550906465828766e-12,-0.7000000000000003,5.344189943943878e-15,-6.1881917574771546,-1.5340673127316482e-14,-1.9377932377024281e-13,-0.5866908426230708,-2.1999999999999993,-3.2399878767634433e-15,21.736176148060522,-8.035854285970525e-15,-7.188864138211564e-14,0.6322073204269182,1.6000000000000003,-1.8023328180818127e-15,2.436536792295581,0.7999999999999998,1.4174713178847889e-15,-0.003196257574989936
0.084,pd_gc,1.9764403007863506e-14,22.747212681203717,7.24056256712596e-13,-8.859865630164339e-15,-8.230483508149638e-14,2.166728641989978e-12,-0.7000000000000003,4.328150918683822e-15,-6.18819175747712,-1.5644161163899745e-14,-1.5174401829163106e-13,-0.586690842623668,-2.1999999999999993,-2.8181468527914135e-15,21.736176148060522,-8.148387979682684e-15,-5.626684685607974e-14,0.6322073204267934,1.6000000000000003,-9.847763348140924e-16,2.436536792295576,0.7999999999999998,1.2866402117428102e-15,-0.003196257574991249
0.08600000000000001,pd_gc,2.0046286980961132e-14,22.747212681203724,5.748276978965371e-13,-8.988639484694194e-15,-6.438692726492771e-14,1.8610569415540966e-12,-0.7000000000000003,3.583246826320472e-15,-6.188191757477111,-1.5881491840823382e-14,-1.1866533846181852e-13,-0.5866908426241445,-2.1999999999999993,-2.1466336798238068e-15,21.736176148060522,-8.236370363451263e-15,-4.3991191884289274e-14,0.6322073204266941,1.6000000000000003,-1.7168084582274454e-15,2.4365367922955747,0.7999999999999998,9.901411081424836e-16,-0.0031962575749915306
0.088,pd_gc,2.026641866361353e-14,22.747212681203727,4.485912229068471e-13,-9.089233069365915e-15,-5.029679233586047e-14,1.6205081404845235e-12,-0.7000000000000003,2.742389177274779e-15,-6.18819175747711,-1.606678045390847e-14,-9.264430654254477e-14,-0.5866908426245151,-2.1999999999999993,-1.6513154198504511e-15,21.73617614806052,-8.305042529833442e-15,-3.433608319108912e-14,0.6322073204266166,1.6000000000000003,-6.580218416937509e-16,2.4365367922955783,0.7999999999999998,5.753780941506015e-16,-0.0031962575749909707
0.09,pd_gc,2.0437951096577324e-14,22.747212681203717,3.5561168387954703e-13,-9.167650713827096e-15,-3.920882223059045e-14,1.4312937382513197e-12,-0.7000000000000003,2.2159965526418147e-15,-6.188191757477088,-1.6211122843501862e-14,-7.217119479669554e-14,-0.586690842624809,-2.1999999999999993,-8.910045354276072e-16,21.73617614806051,-8.3585357261349e-15,-2.6746598150728726e-14,0.6322073204265566,1.6000000000000003,-1.2067874411119011e-15,2.4365367922955694,0.7999999999999998,6.282834634142866e-17,-0.003196257574989803
0.092,pd_gc,2.0571220596347257e-14,22.747212681203717,2.781125296152052e-13,-9.228619825633408e-15,-3.0484555903156274e-14,1.2823355683344339e-12,-0.7000000000000003,1.6556452517879679e-15,-6.1881917574770835,-1.6323275757317062e-14,-5.6076456907600066e-14,-0.5866908426250388,-2.1999999999999993,-1.3291427775947253e-15,21.736176148060505,-8.399997583625985e-15,-2.073092874554238e-14,0.6322073204265088,1.6000000000000003,2.412434133755182e-16,2.4365367922955747,0.7999999999999998,3.7729587997115884e-16,-0.003196257574988141
0.094,pd_gc,2.0674426011423268e-14,22.747212681203717,2.1946518265658478e-13,-9.275869548428376e-15,-2.3624861397483824e-14,1.1650733686948605e-12,-0.7000000000000003,1.4113255599385513e-15,-6.188191757477075,-1.6410078173984246e-14,-4.340120833359182e-14,-0.5866908426252201,-2.1999999999999993,-4.378004010582412e-16,21.736176148060505,-8.432144879146092e-15,-1.607364776005324e-14,0.6322073204264714,1.6000000000000003,-2.100059854915953e-16,2.4365367922955667,0.7999999999999998,6.203493120877504e-16,-0.003196257574989701
0.096,pd_gc,2.0753951119468294e-14,22.747212681203706,1.7214285321639982e-13,-9.31233132521695e-15,-1.8230888394287053e-14,1.0728176234390437e-12,-0.7000000000000003,1.1563317445789243e-15,-6.188191757477074,-1.6476969512851903e-14,-3.344566943382878e-14,-0.5866908426253616,-2.1999999999999993,-6.15621012399153e-16,21.73617614806049,-8.456834274599507e-15,-1.2344697726707303e-14,0.6322073204264418,1.6000000000000003,-3.613992969836333e-16,2.436536792295568,0.7999999999999998,-8.695413152404319e-17,-0.003196257574990904
0.098,pd_gc,2.0814864064622785e-14,22.74721268120371,1.3641589973454128e-13,-9.340305190411498e-15,-1.3986932597273787e-14,1.0002189435373747e-12,-0.7000000000000003,8.772142471109675e-16,-6.188191757477069,-1.6528195909921664e-14,-2.561319853488059e-14,-0.5866908426254744,-2.1999999999999993,-7.993833780290617e-16,21.736176148060494,-8.475706628876172e-15,-9.436177138332088e-15,0.6322073204264178,1.6000000000000003,-4.740441010967898e-16,2.436536792295569,0.7999999999999998,7.491193800242927e-17,-0.003196257574988262
0.1,pd_gc,2.0861143745415973e-14,22.747212681203713,1.0633129021179064e-13,-9.361608481302938e-15,-1.0651645445719997e-14,9.43041471594753e-13,-0.7000000000000003,5.77991969296322e-16,-6.188191757477062,-1.6567102349570723e-14,-1.9453219824528724e-14,-0.586690842625562,-2.1999999999999993,-9.920803952513181e-16,21.736176148060498,-8.490013113381081e-15,-7.15324225245493e-15,0.6322073204264005,1.6000000000000003,-5.595199652834333e-16,2.4365367922955685,0.7999999999999998,2.03030894843353e-16,-0.0031962575749890656
0.10200000000000001,pd_gc,2.0895917976268705e-14,22.747212681203717,8.485871429038072e-14,-9.377667537453027e-15,-8.029528075045067e-15,8.98051714744315e-13,-0.7000000000000003,2.6569584971152517e-16,-6.188191757477058,-1.659632159430658e-14,-1.460962236792901e-14,-0.5866908426256323,-2.1999999999999993,-1.1865067305992744e-15,21.7361761480605,-8.500732149828749e-15,-5.359518223833866e-15,0.6322073204263862,1.6000000000000003,-6.242933635567922e-16,2.436536792295569,0.7999999999999998,3.0460958569259794e-16,-0.0031962575749896927
0.10400000000000001,pd_gc,2.4141641395948764e-14,22.747212681203717,6.687679261911503e-14,-1.0911109492699607e-14,-7.667209776232899e-13,8.626267960468732e-13,-0.7000000000000004,-2.808567182511408e-14,-6.188191757477053,-1.8317257271146598e-14,-8.604678384200095e-13,-0.5866908426256877,-2.1999999999999993,-2.7938732238892468e-15,21.7361761480605,-1.1276521682099301e-14,-1.3878947661352764e-12,0.6322073204263748,1.6000000000000003,-1.9965815356961107e-14,2.4365367922955694,0.7999999999999998,-1.8296299333819305e-14,-0.003196257574990191
0.106,pd_gc,2.6283665993964948e-14,22.747212681203614,1.709392423494325e-11,-1.1919364333292174e-14,-5.041274202962837e-13,1.1606982446142027e-11,-0.7000000000000004,-1.2366410339618158e-14,-6.188191757476651,-1.986440857288134e-14,-7.735756508673709e-13,-0.5866908426154537,-2.1999999999999993,-6.992226861497138e-15,21.736176148060526,-1.237256805507698e-14,-5.480231864888396e-13,0.6322073204348511,1.6000000000000003,-7.031692693800928e-15,2.4365367922956676,0.7999999999999998,1.7376202121194152e-16,-0.003196257574905663
0.108,pd_gc,2.7044096431839314e-14,22.747212681203614,6.154918611301774e-12,-1.2273563480873424e-14,-1.7709957379062502e-13,8.011333030811346e-12,-0.7000000000000004,3.2706849651511146e-15,-6.188191757476884,-2.0708729302228727e-14,-4.22160364673693e-13,-0.5866908426164286,-2.1999999999999993,-2.6638137449549595e-15,21.736176148060583,-1.2280335428559296e-14,4.6116313258841985e-14,0.6322073204299583,1.6000000000000003,-3.2273757098351454e-16,2.4365367922956076,0.7999999999999998,8.06353528966973e-15,-0.0031962575749682524
0.11,pd_gc,2.6897289324105005e-14,22.747212681203635,7.103727620263709e-12,-1.2192471168836472e-14,4.05461560184752e-14,3.461279111538624e-12,-0.7000000000000004,1.0673164436857028e-14,-6.188191757477098,-2.0899420360545202e-14,-9.534552915823768e-14,-0.586690842620632,-2.1999999999999993,9.197842116184083e-16,21.736176148060537,-1.1702023954438572e-14,2.891557370603618e-13,0.6322073204264882,1.6000000000000003,2.8296743122563853e-15,2.436536792295574,0.7999999999999998,8.095789282567478e-15,-0.0031962575749901524
0.112,pd_gc,2.6263870757404105e-14,22.7472126812037,5.1902387318812816e-12,-1.18808876391598e-14,1.5579176483833619e-13,4.07751509248265e-13,-0.7000000000000004,1.1839048778504306e-14,-6.18819175747721,-2.0644391346407702e-14,1.2751450706874945e-13,-0.5866908426245868,-2.1999999999999993,2.60236234225694e-15,21.73617614806051,-1.101634414218139e-14,3.428399061285912e-13,0.6322073204250881,1.6000000000000003,4.499065301034088e-15,2.436536792295562,0.7999999999999998,5.734987337225594e-15,-0.0031962575749828028
0.114,pd_gc,2.5422585789488146e-14,22.74721268120375,3.2013196999503027e-12,-1.1475523568079613e-14,2.0268203554009375e-13,-1.2306136966039228e-12,-0.7000000000000004,9.963421739275517e-15,-6.188191757477224,-2.014388544884979e-14,2.5025294877895616e-13,-0.5866908426273219,-2.1999999999999993,2.330469371647526e-15,21.736176148060487,-1.0380723594300776e-14,3.1781027394030686e-13,0.6322073204248003,1.6000000000000003,4.34660375813038e-15,2.4365367922955516,0.7999999999999998,3.2152740204256216e-15,-0.0031962575749679076
0.116,pd_gc,2.4541113945932685e-14,22.747212681203788,1.7000534174156153e-12,-1.1056699639132206e-14,2.0941196447370372e-13,-1.9195066121149432e-12,-0.7000000000000004,7.270165623572573e-15,-6.188191757477198,-1.954468364800664e-14,2.996009004215748e-13,-0.5866908426288665,-2.1999999999999993,1.496768080188444e-15,21.73617614806049,-9.845624619694199e-15,2.675494873032885e-13,0.63220732042497,1.6000000000000003,3.717227972191215e-15,2.4365367922955543,0.7999999999999998,1.1805851160101078e-15,-0.003196257574954023
0.11800000000000001,pd_gc,2.3712237414821452e-14,22.7472126812038,7.415795936918019e-13,-1.0667131097904113e-14,1.9478427061404666e-13,-2.0472315315012753e-12,-0.7000000000000004,4.739382079930083e-15,-6.188191757477149,-1.8940030755158445e-14,3.0232644642409645e-13,-0.5866908426295259,-2.1999999999999993,4.345332778066326e-16,21.73617614806049,-9.416637861039293e-15,2.1449337932745263e-13,0.6322073204252804,1.6000000000000003,2.621448855225859e-15,2.4365367922955574,0.7999999999999998,1.580483225376316e-16,-0.003196257574943365
0.12,pd_gc,2.2981050126886106e-14,22.74721268120381,3.8012615863270327e-13,-1.0326435589506553e-14,1.7034775419877979e-13,-1.8736093007643243e-12,-0.7000000000000004,2.7533984732385422e-15,-6.1881917574771155,-1.8382267461197026e-14,2.788816469807102e-13,-0.5866908426296242,-2.1999999999999993,2.674021543023099e-16,21.736176148060498,-9.083003478506574e-15,1.668171912663595e-13,0.632207320425602,1.6000000000000003,2.5279928935456104e-15,2.43653679229556,0.7999999999999998,-3.7898308401794226e-16,-0.003196257574937726
0.122,pd_gc,2.2363579431061564e-14,22.747212681203827,4.844968880986228e-13,-1.0040731037143202e-14,1.4285227618167602e-13,-1.5587537116223928e-12,-0.7000000000000004,1.2340733565337512e-15,-6.188191757477103,-1.789614898029848e-14,2.4305924044927344e-13,-0.5866908426293919,-2.1999999999999993,8.691822737990952e-17,21.736176148060515,-8.829301962184318e-15,1.2685075816112817e-13,0.6322073204258868,1.6000000000000003,2.064174580031827e-15,2.436536792295566,0.7999999999999998,-1.0954148597634534e-15,-0.0031962575749347553
0.124,pd_gc,2.185917786746844e-14,22.747212681203813,5.774970316580887e-13,-9.808687515147702e-15,1.1602176099775007e-13,-1.196673383572008e-12,-0.7000000000000004,3.4998206583175526e-16,-6.18819175747707,-1.7489246029996325e-14,2.0345147515107734e-13,-0.58669084262901,-2.1999999999999993,3.985865286732846e-17,21.736176148060515,-8.640306466172745e-15,9.449774800578635e-14,0.6322073204261223,1.6000000000000003,1.2991994939084652e-15,2.4365367922955663,0.7999999999999998,-9.456162885253816e-16,-0.0031962575749315777
0.126,pd_gc,2.1458437405390853e-14,22.74721268120381,5.962391356041215e-13,-9.625256470336752e-15,9.171552240547515e-14,-8.396096527566847e-13,-0.7000000000000004,-1.8377353191510498e-16,-6.18819175747706,-1.7159275160783832e-14,1.6498543460624608e-13,-0.5866908426285709,-2.1999999999999993,4.018013079291815e-17,21.73617614806052,-8.502562318098348e-15,6.887207403719866e-14,0.6322073204263096,1.6000000000000003,3.0111187057365663e-16,2.4365367922955703,0.7999999999999998,-7.587094094442335e-16,-0.003196257574932234
0.128,pd_gc,2.114805760992492e-14,22.7472126812038,5.616994398347048e-13,-9.48385280891003e-15,7.070183071336089e-14,-5.139967960497118e-13,-0.7000000000000004,-6.965131553223707e-16,-6.188191757477057,-1.6898875820470735e-14,1.3019967015654816e-13,-0.5866908426281373,-2.1999999999999993,-1.5179863453717281e-16,21.73617614806052,-8.404771789362477e-15,4.889526436793519e-14,0.6322073204264561,1.6000000000000003,7.923592863493014e-16,2.436536792295576,0.7999999999999998,-4.904294071900898e-16,-0.00319625757493328
0.13,pd_gc,2.09137009697776e-14,22.747212681203774,5.043451799510282e-13,-9.37759232600781e-15,5.313024145110949e-14,-2.3111740527425014e-13,-0.7000000000000004,-7.760960413541686e-16,-6.18819175747704,-1.6698551000656944e-14,1.0016240990689546e-13,-0.5866908426277357,-2.1999999999999993,-1.9305282332870453e-16,21.736176148060505,-8.3377071880857e-15,3.353230063838898e-14,0.6322073204265682,1.6000000000000003,1.1112979613388387e-15,2.436536792295571,0.7999999999999998,-1.0257726345889495e-15,-0.0031962575749348372
0.132,pd_gc,2.0741607396141542e-14,22.747212681203774,4.303398085190641e-13,-9.299973887271425e-15,3.880921936819253e-14,6.3840057650920326e-15,-0.7000000000000004,-7.924345215768883e-16,-6.188191757477039,-1.6548414735489837e-14,7.506813258355381e-14,-0.5866908426273868,-2.1999999999999993,-2.319562196444783e-16,21.73617614806051,-8.293976674025985e-15,2.186525702985749e-14,0.632207320426652,1.6000000000000003,1.3039648193304688e-15,2.436536792295572,0.7999999999999998,-5.605588891484612e-16,-0.0031962575749332734
0.134,pd_gc,2.0619393724143066e-14,22.74721268120376,3.5512838961867683e-13,-9.245218872946562e-15,2.737750716243122e-14,2.0066883982701853e-13,-0.7000000000000004,-7.404714362974611e-16,-6.188191757477034,-1.643914411020001e-14,5.4635312644914546e-14,-0.5866908426270963,-2.1999999999999993,-1.3544495278835579e-16,21.736176148060505,-8.267719318042952e-15,1.3128677991516102e-14,0.6322073204267143,1.6000000000000003,-2.6459063162546694e-16,2.4365367922955685,0.7999999999999998,-9.144490181780795e-16,-0.0031962575749357727
0.136,pd_gc,2.0536350804849608e-14,22.74721268120375,2.8923283805773273e-13,-9.208358144782856e-15,1.8430364081852903e-14,3.563324095616879e-13,-0.7000000000000004,-6.364575373683634e-16,-6.188191757477032,-1.636243292030035e-14,3.835559494982932e-14,-0.5866908426268569,-2.1999999999999993,-1.5742724310322932e-16,21.736176148060498,-8.254329157554288e-15,6.695080244332521e-15,0.6322073204267595,1.6000000000000003,-1.994616907090929e-16,2.4365367922955743,0.7999999999999998,-2.842517806400696e-16,-0.003196257574935018
0.138,pd_gc,2.048350403772715e-14,22.74721268120375,2.2930330309792355e-13,-9.185256106884326e-15,1.1551018949264513e-14,4.786435544366879e-13,-0.7000000000000004,-4.812058250910623e-16,-6.188191757477037,-1.6311159378480504e-14,2.563677090992333e-14,-0.5866908426266656,-2.1999999999999993,-1.629737086066065e-16,21.7361761480605,-8.250236596586625e-15,2.0462804838309915e-15,0.6322073204267907,1.6000000000000003,-1.8850760832105145e-16,2.436536792295576,0.7999999999999998,-4.939541095666853e-16,-0.0031962575749382013
0.14,pd_gc,2.045349604816716e-14,22.74721268120375,1.797679326279113e-13,-9.17253058829234e-15,6.362759295993734e-15,5.73106223261043e-13,-0.7000000000000004,-6.591149025537014e-16,-6.188191757477041,-1.627938567613391e-14,1.5886851173296245e-14,-0.5866908426265142,-2.1999999999999993,-3.2626883943188825e-16,21.736176148060505,-8.252702676229056e-15,-1.2330398212151835e-15,0.6322073204268116,1.6000000000000003,-2.0775816866697232e-16,2.436536792295576,0.7999999999999998,-6.446203966409808e-16,-0.003196257574938006
0.14200000000000002,pd_gc,2.0440366174177818e-14,22.74721268120375,1.3914480548067785e-13,-9.167438821938532e-15,2.545883176903899e-15,6.447238169194748e-13,-0.7000000000000004,-4.1796908083217626e-16,-6.188191757477037,-1.6262240771609876e-14,8.572452262017742e-15,-0.5866908426263957,-2.1999999999999993,-2.9220415499450315e-16,21.736176148060505,-8.25962929688721e-15,-3.4633103290771e-15,0.6322073204268251,1.6000000000000003,-2.5630992397585387e-16,2.4365367922955743,0.7999999999999998,1.4693456879609528e-16,-0.0031962575749380174
0.14400000000000002,pd_gc,2.043942200136777e-14,22.747212681203745,1.0506648197363541e-13,-9.167848921368809e-15,-2.0504971513881793e-16,6.97752741278428e-13,-0.7000000000000004,-5.253538768490121e-16,-6.18819175747704,-1.625583609984661e-14,3.2023358816326792e-15,-0.5866908426263054,-2.1999999999999993,-4.20139671249703e-16,21.736176148060505,-8.269439331369354e-15,-4.905017241072415e-15,0.6322073204268328,1.6000000000000003,-3.164176874956611e-16,2.4365367922955743,0.7999999999999998,6.441907184604131e-17,-0.003196257574941765
0.146,pd_gc,2.044696259536765e-14,22.74721268120374,7.772337623800002e-14,-9.172064279491536e-15,-2.1076790613636152e-15,7.362986097214481e-13,-0.7000000000000004,-2.276161935134711e-16,-6.188191757477039,-1.625708177988938e-14,-6.228400213839623e-16,-0.586690842626238,-2.1999999999999993,-3.597558090078222e-16,21.736176148060505,-8.280949491848688e-15,-5.75508023966699e-15,0.6322073204268364,1.6000000000000003,-3.908192385075291e-16,2.4365367922955747,0.7999999999999998,1.2118561861350032e-17,-0.0031962575749419813
0.148,pd_gc,2.0460159991706145e-14,22.74721268120374,5.63079857111448e-14,-9.178802733677223e-15,-3.369227092843626e-15,7.632726492184134e-13,-0.7000000000000004,-2.89809519599163e-16,-6.188191757477043,-1.6263584326023297e-14,-3.2512730669590086e-15,-0.5866908426261888,-2.1999999999999993,-4.648465428574394e-16,21.736176148060505,-8.293302622484168e-15,-6.176565317739846e-15,0.6322073204268368,1.6000000000000003,-4.632576802206282e-16,2.436536792295575,0.7999999999999998,-1.7529948306405112e-17,-0.0031962575749422736
0.15,pd_gc,2.0476849811547773e-14,22.74721268120374,3.9670757435743066e-14,-9.187078801163618e-15,-4.138033743197553e-15,7.814733979939886e-13,-0.7000000000000004,-3.342580297330258e-16,-6.188191757477042,-1.6273498781595428e-14,-4.95722778606503e-15,-0.5866908426261536,-2.1999999999999993,-5.603345416737926e-16,21.736176148060505,-8.305872318223253e-15,-6.284847869543131e-15,0.6322073204268351,1.6000000000000003,-5.360657981996711e-16,2.4365367922955756,0.7999999999999998,-2.976993886657286e-17,-0.0031962575749426196
0.152,pd_gc,2.0495412839926204e-14,22.74721268120375,2.681545062383974e-14,-9.196158036423695e-15,-4.539617630038672e-15,7.928987764978551e-13,-0.7000000000000004,-3.6382735655204835e-16,-6.188191757477042,-1.6285428600724236e-14,-5.9649095644048354e-15,-0.5866908426261298,-2.1999999999999993,-6.433526807173348e-16,21.73617614806051,-8.318218342539821e-15,-6.173012158284077e-15,0.6322073204268318,1.6000000000000003,-6.077472413304031e-16,2.436536792295576,0.7999999999999998,-2.907687578851257e-17,-0.0031962575749429904
0.154,pd_gc,2.051465906473651e-14,22.747212681203745,1.7338737362675297e-14,-9.205502523218483e-15,-4.672243397393929e-15,7.99247289734437e-13,-0.7000000000000004,-3.819906780174237e-16,-6.188191757477041,-1.6298334653146882e-14,-6.453026211323679e-15,-0.5866908426261143,-2.1999999999999993,-7.195090069160931e-16,21.73617614806051,-8.330039833442972e-15,-5.910745451575285e-15,0.6322073204268276,1.6000000000000003,-6.772256238525118e-16,2.436536792295576,0.7999999999999998,-1.9004123977216572e-17,-0.0031962575749433803
0.156,pd_gc,2.0533733756812584e-14,22.747212681203745,1.0476098981809707e-14,-9.21472700694535e-15,-4.612241863433036e-15,8.018516094209936e-13,-0.7000000000000004,-3.9180244100781224e-16,-6.188191757477041,-1.6311459282444126e-14,-6.562314648621581e-15,-0.5866908426261053,-2.1999999999999993,-7.905282927932601e-16,21.73617614806051,-8.341141439612748e-15,-5.550803084887682e-15,0.6322073204268229,1.6000000000000003,-7.400917169160571e-16,2.4365367922955765,0.7999999999999998,-2.2992863089771556e-18,-0.0031962575749437745
0.158,pd_gc,2.0552040135721373e-14,22.747212681203745,6.628713177414141e-15,-9.223564022811879e-15,-4.41850793326444e-15,8.017495466436905e-13,-0.7000000000000004,-3.9510414953736014e-16,-6.188191757477041,-1.6324263474512935e-14,-6.40209603440519e-15,-0.5866908426261008,-2.1999999999999993,-8.57249423271311e-16,21.73617614806051,-8.351404596078228e-15,-5.131578232740243e-15,0.632207320426818,1.6000000000000003,-7.972535142282323e-16,2.436536792295577,0.7999999999999998,1.8904511579230428e-17,-0.0031962575749441588
0.16,pd_gc,2.0569179384229507e-14,22.747212681203745,5.917911222246699e-15,-9.231835653838403e-15,-4.135815513262463e-15,7.997442328906524e-13,-0.7000000000000004,-3.933630909523163e-16,-6.188191757477041,-1.633637653321167e-14,-6.0565293493676885e-15,-0.5866908426260984,-2.1999999999999993,-9.203326949086168e-16,21.73617614806051,-8.36076964289666e-15,-4.682523409215445e-15,0.6322073204268134,1.6000000000000003,-8.499411979250456e-16,2.4365367922955787,0.7999999999999998,4.2984990846543264e-17,-0.003196257574944528
0.162,pd_gc,2.05849011854301e-14,22.74721268120375,7.131013292260993e-15,-9.23943165920128e-15,-3.7980026814383996e-15,7.964482694927467e-13,-0.7000000000000004,-3.86382303959724e-16,-6.188191757477041,-1.6347555347933968e-14,-5.58940736114794e-15,-0.5866908426260998,-2.1999999999999993,-9.75822409803986e-16,21.736176148060512,-8.3692179939602e-15,-4.224175531770574e-15,0.6322073204268084,1.6000000000000003,-8.973568495766062e-16,2.436536792295579,0.7999999999999998,6.873811958254211e-17,-0.0031962575749448826
0.164,pd_gc,2.05990659482592e-14,22.74721268120374,8.052297114579272e-15,-9.246291609844948e-15,-3.4299753218344075e-15,7.9232657027624e-13,-0.7000000000000004,-3.764447296959388e-16,-6.188191757477037,-1.635765377940808e-14,-5.0492157370548245e-15,-0.5866908426261008,-2.1999999999999993,-1.0290054816434305e-15,21.73617614806051,-8.376758829928218e-15,-3.7704179840084845e-15,0.6322073204268039,1.6000000000000003,-9.385100820671204e-16,2.436536792295578,0.7999999999999998,9.524777040655379e-17,-0.0031962575749452183
0.166,pd_gc,2.0611615455360683e-14,22.74721268120374,7.926558472953366e-15,-9.252391971180654e-15,-3.0501806678523886e-15,7.877229832932776e-13,-0.7000000000000004,-3.642610149450116e-16,-6.188191757477037,-1.6366596207224566e-14,-4.471213908244126e-15,-0.5866908426261052,-2.1999999999999993,-1.0801856659893175e-15,21.73617614806051,-8.38342288902801e-15,-3.332029549895816e-15,0.6322073204267992,1.6000000000000003,-9.751470299569755e-16,2.436536792295578,0.7999999999999998,1.218526732766372e-16,-0.0031962575749455327
0.168,pd_gc,2.0622549350213685e-14,22.74721268120374,8.32965749374931e-15,-9.257735346140628e-15,-2.6716874799875493e-15,7.828938870443858e-13,-0.7000000000000004,-3.5038811156774504e-16,-6.188191757477037,-1.6374358753364716e-14,-3.8812730700754e-15,-0.5866908426261104,-2.1999999999999993,-1.1297274992330337e-15,21.73617614806051,-8.38925322268e-15,-2.9151668259953817e-15,0.6322073204267948,1.6000000000000003,-1.0074632256363767e-15,2.436536792295578,0.7999999999999998,1.4808956072424263e-16,-0.003196257574945828
0.17,pd_gc,2.0631907752903653e-14,22.74721268120374,8.268988156047412e-15,-9.262342602554566e-15,-2.303628206969276e-15,7.780224524110759e-13,-0.7000000000000004,-3.3526233524734065e-16,-6.188191757477037,-1.638095402027231e-14,-3.2976334537960816e-15,-0.5866908426261157,-2.1999999999999993,-1.1780455475320174e-15,21.73617614806051,-8.394300964242001e-15,-2.523870781000453e-15,0.6322073204267908,1.6000000000000003,-1.0340787721326743e-15,2.4365367922955783,0.7999999999999998,1.7364255008129883e-16,-0.0031962575749461012
0.17200000000000001,pd_gc,2.0639757766029185e-14,22.747212681203745,8.320251130598842e-15,-9.266246589510335e-15,-1.9519934778845773e-15,7.732382031019351e-13,-0.7000000000000004,-3.199477879075988e-16,-6.188191757477038,-1.6386420381538106e-14,-2.7331806328986306e-15,-0.5866908426261214,-2.1999999999999993,-1.2256070865243228e-15,21.73617614806051,-8.398620012691601e-15,-2.1595242247995355e-15,0.6322073204267872,1.6000000000000003,-1.0568788581441084e-15,2.4365367922955783,0.7999999999999998,1.9829170722770642e-16,-0.003196257574946358
0.17400000000000002,pd_gc,2.0646184931176775e-14,22.747212681203745,7.696682695120443e-15,-9.269487679206652e-15,-1.620544848158515e-15,7.686276358512109e-13,-0.7000000000000004,-3.039643818713668e-16,-6.188191757477038,-1.6390812869099752e-14,-2.1962437808235156e-15,-0.5866908426261265,-2.1999999999999993,-1.2722459082844944e-15,21.73617614806051,-8.402268748550125e-15,-1.824367929261626e-15,0.6322073204267837,1.6000000000000003,-1.0761623117010175e-15,2.4365367922955783,0.7999999999999998,2.2191179954413645e-16,-0.0031962575749465917
0.176,pd_gc,2.06512837013701e-14,22.74721268120375,8.404699161880252e-15,-9.272110753128198e-15,-1.3115369607727736e-15,7.642466422107514e-13,-0.7000000000000004,-2.861436967777859e-16,-6.188191757477038,-1.639419647830043e-14,-1.6918046003386434e-15,-0.5866908426261319,-2.1999999999999993,-1.3135210156248243e-15,21.736176148060512,-8.405303015501682e-15,-1.5171334757787331e-15,0.6322073204267807,1.6000000000000003,-1.0915789852195838e-15,2.4365367922955787,0.7999999999999998,2.44445670710461e-16,-0.0031962575749468077
0.178,pd_gc,2.065516789594927e-14,22.74721268120375,7.32898886804381e-15,-9.274160975398361e-15,-1.0251111350821253e-15,7.601303777010747e-13,-0.7000000000000004,8.155589949585165e-17,-6.188191757477038,-1.6396617385106768e-14,-1.210453403169662e-15,-0.5866908426261372,-2.1999999999999993,-1.4136932583184504e-16,21.736176148060512,-8.407862605560771e-15,-1.2797950295444649e-15,0.6322073204267779,1.6000000000000003,-1.3578552569886335e-15,2.4365367922955787,0.7999999999999998,2.6821430643662485e-16,-0.0031962575749470055
0.18,pd_gc,2.0657904328892658e-14,22.747212681203735,1.663672634144569e-14,-9.275688269605978e-15,-7.636471038082826e-16,7.562844339230186e-13,-0.7000000000000004,8.430936987075675e-17,-6.1881917574770435,-1.639818718459687e-14,-7.848997450501667e-16,-0.5866908426261421,-2.1999999999999993,-3.3038700347856527e-16,21.736176148060498,-8.409838981872377e-15,-9.881881558032284e-16,0.6322073204267754,1.6000000000000003,3.07416151030139e-16,2.43653679229558,0.7999999999999998,2.9312091989415183e-16,-0.003196257574947201
0.182,pd_gc,2.065960756997873e-14,22.747212681203735,1.104793675175227e-14,-9.276734907606506e-15,-5.233190002646252e-16,7.527461210217942e-13,-0.7000000000000004,9.440199408799306e-17,-6.1881917574770435,-1.6398968249241204e-14,-3.90532322166666e-16,-0.5866908426261466,-2.1999999999999993,-3.8407249064240887e-16,21.7361761480605,-8.411345374862295e-15,-7.531964949589664e-16,0.632207320426773,1.6000000000000003,2.7224074518615177e-16,2.4365367922955716,0.7999999999999998,3.12058522764337e-16,-0.003196257574947384
0.184,pd_gc,2.066037280621774e-14,22.747212681203738,5.586842280021336e-15,-9.27734618035185e-15,-3.056363726715555e-16,7.494652586122252e-13,-0.7000000000000004,1.0457486835246724e-16,-6.1881917574770435,-1.639902783306645e-14,-2.979191262239575e-17,-0.5866908426261506,-2.1999999999999993,-4.3733341160699494e-16,21.7361761480605,-8.412434530351224e-15,-5.445777444644954e-16,0.6322073204267709,1.6000000000000003,2.3925207377542313e-16,2.4365367922955716,0.7999999999999998,3.2996977822693257e-16,-0.003196257574947541
0.186,pd_gc,2.0660288815146516e-14,22.747212681203738,5.555735931770204e-15,-9.277563381439068e-15,-1.0860054360910992e-16,7.464666036455498e-13,-0.7000000000000004,1.1404470110720747e-16,-6.188191757477044,-1.639843189108682e-14,2.9797098981344303e-16,-0.5866908426261547,-2.1999999999999993,-4.907350177539482e-16,21.7361761480605,-8.413150384805739e-15,-3.5792722725760093e-16,0.6322073204267689,1.6000000000000003,2.0987408940049648e-16,2.436536792295572,0.7999999999999998,3.469087845777738e-16,-0.0031962575749476837
0.188,pd_gc,2.0659438060444035e-14,22.747212681203738,4.625743709892111e-15,-9.277424922321101e-15,6.922955898349481e-17,7.437254781256529e-13,-0.7000000000000004,1.235192910901778e-16,-6.188191757477044,-1.6397242599500672e-14,5.946457930741163e-16,-0.586690842626158,-2.1999999999999993,-5.439935368330666e-16,21.7361761480605,-8.41353190832842e-15,-1.907617613405152e-16,0.6322073204267672,1.6000000000000003,1.838964437422809e-16,2.436536792295572,0.7999999999999998,3.629308474126347e-16,-0.0031962575749478143
0.19,pd_gc,2.0657896465386226e-14,22.74721268120374,5.788615372536199e-15,-9.276966341173738e-15,2.292905736817686e-16,7.412247799599191e-13,-0.7000000000000004,1.3434977353444587e-16,-6.188191757477044,-1.6395517739117742e-14,8.624301914649524e-16,-0.5866908426261614,-2.1999999999999993,-5.9229496176170715e-16,21.736176148060505,-8.413613742081506e-15,-4.0916876543215164e-17,0.6322073204267655,1.6000000000000003,1.5852026274105586e-16,2.436536792295572,0.7999999999999998,3.7810190697785526e-16,-0.0031962575749479335
0.192,pd_gc,2.0655734370980157e-14,22.74721268120374,3.8569640950298855e-15,-9.276220045077847e-15,3.731480479454736e-16,7.389472392623543e-13,-0.7000000000000004,1.4514891307915476e-16,-6.188191757477044,-1.6393311181759334e-14,1.1032786792045003e-15,-0.5866908426261642,-2.1999999999999993,-6.405298974975283e-16,21.736176148060505,-8.413427888388444e-15,9.29268465304218e-17,0.6322073204267642,1.6000000000000003,1.3619557020772708e-16,2.4365367922955725,0.7999999999999998,3.9247491175084374e-16,-0.003196257574948048
0.194,pd_gc,2.0653015745875905e-14,22.74721268120374,3.882234644407537e-15,-9.275215867155547e-15,5.020889611505575e-16,7.368735309349911e-13,-0.7000000000000004,1.55914744539274e-16,-6.188191757477044,-1.639067196778117e-14,1.3196069890814337e-15,-0.5866908426261672,-2.1999999999999993,-6.886019688857762e-16,21.736176148060505,-8.41300295477053e-15,2.124668089570866e-16,0.6322073204267629,1.6000000000000003,1.1514634593344346e-16,2.4365367922955725,0.7999999999999998,4.061032426112775e-16,-0.0031962575749481525
0.196,pd_gc,2.0649798510708847e-14,22.74721268120374,3.280664836235654e-15,-9.273980797937833e-15,6.175346088564708e-16,7.34988023916336e-13,-0.7000000000000004,1.6664238944891577e-16,-6.188191757477044,-1.6387645100295237e-14,1.5134337429673874e-15,-0.5866908426261697,-2.1999999999999993,-7.365417887717486e-16,21.736176148060505,-8.412363699605735e-15,3.1962758239808037e-16,0.6322073204267618,1.6000000000000003,9.523792910710773e-17,2.4365367922955725,0.7999999999999998,4.1904205417715337e-16,-0.003196257574948249
0.198,pd_gc,2.0646135655334936e-14,22.74721268120374,3.225791445593784e-15,-9.272539238722355e-15,7.207796077390642e-16,7.332729793110361e-13,-0.7000000000000004,1.7659126819452938e-16,-6.188191757477045,-1.638427149594389e-14,1.6868021756728164e-15,-0.586690842626172,-2.1999999999999993,-7.84701687932045e-16,21.736176148060505,-8.41153359188255e-15,4.150538615924737e-16,0.6322073204267606,1.6000000000000003,7.635811108692272e-17,2.4365367922955725,0.7999999999999998,4.3134417132993593e-16,-0.0031962575749483334
0.2,pd_gc,2.0642074957083543e-14,22.74721268120374,2.891316525698876e-15,-9.270913314588535e-15,8.129620669096164e-16,7.317122245894414e-13,-0.7000000000000004,1.8649341500623908e-16,-6.188191757477045,-1.6380587875319013e-14,1.8418103124390437e-15,-0.5866908426261742,-2.1999999999999993,-8.32876879752079e-16,21.736176148060505,-8.410533987893598e-15,4.99801994475265e-16,0.6322073204267598,1.6000000000000003,6.001091308928134e-17,2.436536792295573,0.7999999999999998,4.430644062867813e-16,-0.003196257574948419
0.202,pd_gc,2.0637658996288043e-14,22.74721268120374,2.4430822990708937e-15,-9.269122819685964e-15,8.952474512859245e-16,7.302915962303481e-13,-0.7000000000000004,1.963557583255948e-16,-6.188191757477045,-1.6376627686594697e-14,1.98009436215831e-15,-0.586690842626176,-2.1999999999999993,-8.809691608065336e-16,21.736176148060505,-8.409382430989021e-15,5.757784522885192e-16,0.6322073204267589,1.6000000000000003,4.447457552748778e-17,2.436536792295573,0.7999999999999998,4.542404931641774e-16,-0.0031962575749484973
0.20400000000000001,pd_gc,2.0632926183697214e-14,22.74721268120374,2.4184297313988434e-15,-9.267185666483248e-15,9.685766013576275e-16,7.289963612568741e-13,-0.7000000000000004,2.0618083591774537e-16,-6.188191757477045,-1.637242058837873e-14,2.1035491079839013e-15,-0.5866908426261779,-2.1999999999999993,-9.28980121396787e-16,21.736176148060505,-8.40809568555086e-15,6.433727190807785e-16,0.6322073204267581,1.6000000000000003,2.9659704012180746e-17,2.436536792295573,0.7999999999999998,4.649195934754258e-16,-0.003196257574948568
0.20600000000000002,pd_gc,2.0627911213818313e-14,22.747212681203745,4.128251443827243e-15,-9.265117735842648e-15,1.0339653203003004e-15,7.278147808996531e-13,-0.7000000000000004,2.1733579675944868e-16,-6.188191757477045,-1.6367993329953862e-14,2.21362921243306e-15,-0.5866908426261794,-2.1999999999999993,-9.721818338076709e-16,21.73617614806051,-8.40668930031629e-15,7.0319261728562105e-16,0.6322073204267573,1.6000000000000003,1.4496412393942015e-17,2.436536792295573,0.7999999999999998,4.751480302429298e-16,-0.0031962575749486365
0.20800000000000002,pd_gc,2.0622644474115494e-14,22.747212681203745,1.858118454773833e-15,-9.262933279825922e-15,1.0922280083628353e-15,7.267339043832076e-13,-0.7000000000000004,2.2845879316818036e-16,-6.188191757477045,-1.6363370113204003e-14,2.311608374929818e-15,-0.5866908426261809,-2.1999999999999993,-1.015332875261562e-15,21.73617614806051,-8.40517501024713e-15,7.571450345797429e-16,0.6322073204267569,1.6000000000000003,-9.178289868303057e-20,2.436536792295573,0.7999999999999998,4.849493364736574e-16,-0.0031962575749487
0.21,pd_gc,2.0617154219612867e-14,22.747212681203745,2.1977921930351843e-15,-9.260644967758875e-15,1.1441560335238128e-15,7.257434702689942e-13,-0.7000000000000004,2.3880786625992315e-16,-6.188191757477046,-1.6358572538923275e-14,2.3987871403640733e-15,-0.5866908426261824,-2.1999999999999993,-1.0588862941930474e-15,21.73617614806051,-8.403566126385234e-15,8.044419309482382e-16,0.6322073204267562,1.6000000000000003,-1.2533501046006995e-17,2.4365367922955734,0.7999999999999998,4.943621825802803e-16,-0.00319625757494876
0.212,pd_gc,2.061146460022989e-14,22.747212681203745,1.5401239575438342e-15,-9.258264302387292e-15,1.1903326857918362e-15,7.248334129513767e-13,-0.7000000000000004,2.4913144935857907e-16,-6.188191757477046,-1.63536196503887e-14,2.4764442672869185e-15,-0.5866908426261835,-2.1999999999999993,-1.1023975503320451e-15,21.73617614806051,-8.401872152051156e-15,8.469871670385778e-16,0.6322073204267556,1.6000000000000003,-2.4518692848257453e-17,2.4365367922955734,0.7999999999999998,5.034096211965686e-16,-0.003196257574948815
0.214,pd_gc,2.0605597465957e-14,22.747212681203745,1.546533057473279e-15,-9.255801408369338e-15,1.2314470089769636e-15,7.239964865898976e-13,-0.7000000000000004,2.594318626788894e-16,-6.188191757477046,-1.6348528480364997e-14,2.5455850118522428e-15,-0.5866908426261848,-2.1999999999999993,-1.145866208716565e-15,21.73617614806051,-8.400102380322355e-15,8.848858644007501e-16,0.6322073204267552,1.6000000000000003,-3.6097662617531745e-17,2.4365367922955734,0.7999999999999998,5.121205549642367e-16,-0.003196257574948867
0.216,pd_gc,2.0599572354386485e-14,22.747212681203745,1.4245978408824331e-15,-9.253265298127784e-15,1.2680551207763228e-15,7.232238545438695e-13,-0.7000000000000004,2.697116768765499e-16,-6.188191757477046,-1.6343314194574066e-14,2.6071428954651738e-15,-0.5866908426261859,-2.1999999999999993,-1.1892954874482052e-15,21.73617614806051,-8.398265291048088e-15,9.185446371340528e-16,0.6322073204267548,1.6000000000000003,-4.731453710331735e-17,2.4365367922955734,0.7999999999999998,5.205193587889406e-16,-0.003196257574948919
0.218,pd_gc,2.0593406349303888e-14,22.747212681203745,1.2741979813476535e-15,-9.250664029570858e-15,1.3006342784629866e-15,7.225084521593543e-13,-0.7000000000000004,2.7997409497694544e-16,-6.188191757477046,-1.6337990281909212e-14,2.6619563324266977e-15,-0.5866908426261869,-2.1999999999999993,-1.2326943142802413e-15,21.73617614806051,-8.39636766007271e-15,9.488154876892642e-16,0.6322073204267544,1.6000000000000003,-5.82076379908944e-17,2.4365367922955734,0.7999999999999998,5.286262017729382e-16,-0.0031962575749489683
0.22,pd_gc,2.0587115432043195e-14,22.747212681203745,1.313478893520916e-15,-9.248004532651566e-15,1.3297484596458143e-15,7.218442424671869e-13,-0.7000000000000004,2.902187541200632e-16,-6.188191757477046,-1.6332569189671712e-14,2.7105461187499317e-15,-0.586690842626188,-2.1999999999999993,-1.2760599010077671e-15,21.73617614806051,-8.394416828835374e-15,9.754156186676112e-16,0.6322073204267542,1.6000000000000003,-6.8812490206108e-17,2.4365367922955734,0.7999999999999998,5.364597570122291e-16,-0.0031962575749490147
0.222,pd_gc,2.0580713049381478e-14,22.747212681203752,8.101092417796237e-15,-9.245293430811445e-15,1.3555509200609625e-15,7.212238841770839e-13,-0.7000000000000004,3.010793323060616e-16,-6.188191757477047,-1.6327061170756072e-14,2.7540094578205908e-15,-0.5866908426261912,-2.1999999999999993,-1.3150028617622192e-15,21.736176148060515,-8.39241852989269e-15,9.991494713416747e-16,0.6322073204267535,1.6000000000000003,-8.013980163788272e-17,2.436536792295575,0.7999999999999998,5.440487406745603e-16,-0.0031962575749490546
0.224,pd_gc,2.0574226331928584e-14,22.747212681203752,1.0834730661341775e-15,-9.242534856960666e-15,1.3792869253894387e-15,7.206457615840621e-13,-0.7000000000000004,6.6147634725366e-16,-6.188191757477047,-1.6321451296634253e-14,2.8049370609097924e-15,-0.5866908426261921,-2.1999999999999993,-1.4111650890560523e-16,21.736176148060515,-8.39046377753982e-15,9.77376176435149e-16,0.6322073204267533,1.6000000000000003,-3.4504965052136564e-16,2.436536792295575,0.7999999999999998,5.537584598877854e-16,-0.0031962575749490936
0.226,pd_gc,2.0567645111090194e-14,22.74721268120374,1.5009791389496993e-14,-9.239743226258875e-15,1.3958153508949141e-15,7.200927716014011e-13,-0.7000000000000004,2.8499516172828896e-16,-6.1881917574770515,-1.6315792493740733e-14,2.8294014467601218e-15,-0.5866908426261933,-2.1999999999999993,-3.767626359839176e-16,21.7361761480605,-8.388408793392834e-15,1.027492073492702e-15,0.6322073204267531,1.6000000000000003,-3.396105987757355e-16,2.4365367922955765,0.7999999999999998,5.604323136065111e-16,-0.003196257574949143
0.228,pd_gc,2.0560978588664574e-14,22.74721268120374,6.464021325516746e-15,-9.236910227739512e-15,1.416499259681111e-15,7.196380431881811e-13,-0.7000000000000004,2.924641074910349e-16,-6.188191757477046,-1.6310076779762497e-14,2.8578569891186412e-15,-0.586690842626194,-2.1999999999999993,-4.301375747045882e-16,21.736176148060505,-8.386300833011994e-15,1.0539801904207003e-15,0.6322073204267528,1.6000000000000003,-3.4083638402165046e-16,2.4365367922955765,0.7999999999999998,5.673044548615608e-16,-0.00319625757494918
0.23,pd_gc,2.0554240324768584e-14,22.74721268120374,1.2693706803193416e-15,-9.234043317735925e-15,1.4334550017936367e-15,7.191218285836254e-13,-0.7000000000000004,2.9917378786360117e-16,-6.188191757477047,-1.6304307850016613e-14,2.8844648729421146e-15,-0.5866908426261946,-2.1999999999999993,-4.837345219661288e-16,21.736176148060505,-8.38415774671059e-15,1.0715431507020111e-15,0.6322073204267524,1.6000000000000003,-3.418986953469088e-16,2.4365367922955765,0.7999999999999998,5.739792504759289e-16,-0.003196257574949216
0.232,pd_gc,2.054744395109774e-14,22.74721268120374,4.4723882773197555e-15,-9.23115344355472e-15,1.4449370906022352e-15,7.186550953937631e-13,-0.7000000000000004,3.05725067733062e-16,-6.188191757477051,-1.6298494325522456e-14,2.9067622470792763e-15,-0.5866908426261965,-2.1999999999999993,-5.37877337023068e-16,21.736176148060505,-8.38198413272683e-15,1.0868069918798977e-15,0.6322073204267518,1.6000000000000003,-3.451985858646289e-16,2.4365367922955747,0.7999999999999998,-3.1357502897491733e-16,-0.0031962575749492515
0.234,pd_gc,2.0540591033611906e-14,22.74721268120375,5.087644976450666e-15,-9.228233531275165e-15,1.4599561397772707e-15,7.182631562159463e-13,-0.7000000000000004,3.138057304572342e-16,-6.188191757477051,-1.6292637459419494e-14,2.9284330514812216e-15,-0.5866908426261972,-2.1999999999999993,-5.866366980288629e-16,21.73617614806051,-8.379789184316536e-15,1.0974742051467612e-15,0.6322073204267514,1.6000000000000003,-3.469376869427578e-16,2.4365367922955747,0.7999999999999998,-2.896514962847636e-16,-0.0031962575749457083
0.23600000000000002,pd_gc,2.0533687208217984e-14,22.74721268120375,8.365563799722743e-16,-9.225289198785397e-15,1.4721662448840034e-15,7.178192965451314e-13,-0.7000000000000004,3.2187473991527725e-16,-6.188191757477051,-1.628674122906472e-14,2.948115177386987e-15,-0.5866908426261979,-2.1999999999999993,-6.353994359027056e-16,21.73617614806051,-8.377572796252672e-15,1.1081940319319675e-15,0.6322073204267512,1.6000000000000003,-3.485535422581102e-16,2.4365367922955747,0.7999999999999998,-2.6625647229313563e-16,-0.003196257574945807
0.23800000000000002,pd_gc,2.052673825268688e-14,22.74721268120375,7.03906526522485e-16,-9.222323551610195e-15,1.4828235876008078e-15,7.174128084744558e-13,-0.7000000000000004,3.2993547723466453e-16,-6.188191757477051,-1.62808102614519e-14,2.9654838064117237e-15,-0.5866908426261984,-2.1999999999999993,-6.841569512381978e-16,21.73617614806051,-8.375336715001878e-15,1.1180406253970836e-15,0.6322073204267511,1.6000000000000003,-3.5006135338956e-16,2.4365367922955747,0.7999999999999998,-2.4336776572558593e-16,-0.003196257574945906
0.24,pd_gc,2.0519749076150698e-14,22.74721268120375,9.797382193709086e-16,-9.219339233463549e-15,1.4921590733232248e-15,7.170263539024043e-13,-0.7000000000000004,3.379920109488929e-16,-6.188191757477051,-1.6274848210679227e-14,2.981025386336273e-15,-0.5866908426261993,-2.1999999999999993,-7.329036868051694e-16,21.73617614806051,-8.373082957977867e-15,1.1268785120051422e-15,0.632207320426751,1.6000000000000003,-3.5147350767190667e-16,2.4365367922955747,0.7999999999999998,-2.2096643876197118e-16,-0.003196257574946003
0.242,pd_gc,2.0512724242503363e-14,22.74721268120375,7.758226431673312e-16,-9.216338224795835e-15,1.5005043338568043e-15,7.166569116505588e-13,-0.7000000000000004,3.460445822329803e-16,-6.188191757477051,-1.626885875612394e-14,2.9947272776434166e-15,-0.5866908426262,-2.1999999999999993,-7.81642204229664e-16,21.73617614806051,-8.370813377669028e-15,1.1347901544192966e-15,0.6322073204267509,1.6000000000000003,-3.5279953279778416e-16,2.4365367922955747,0.7999999999999998,-1.9903811867979727e-16,-0.0031962575749460995
0.244,pd_gc,2.0505667645630324e-14,22.74721268120375,7.022355249833162e-16,-9.213322422202063e-15,1.507901296886025e-15,7.162999973096716e-13,-0.7000000000000004,3.540949975653963e-16,-6.188191757477051,-1.6262844862990045e-14,3.0069465669476273e-15,-0.5866908426262005,-2.1999999999999993,-8.303712539949305e-16,21.73617614806051,-8.368529665074885e-15,1.1418562970715788e-15,0.6322073204267507,1.6000000000000003,-3.54048440323118e-16,2.4365367922955747,0.7999999999999998,-1.7756973425542892e-16,-0.0031962575749461906
0.246,pd_gc,2.049858279497954e-14,22.74721268120375,1.1284989095571574e-15,-9.210293441892236e-15,1.5144901549136028e-15,7.159551756197607e-13,-0.7000000000000004,3.6140670238348154e-16,-6.1881917574770515,-1.625680926246327e-14,3.0178002633873255e-15,-0.5866908426262011,-2.1999999999999993,-8.794333354568729e-16,21.73617614806051,-8.366233332634091e-15,1.1481662203969228e-15,0.6322073204267504,1.6000000000000003,-3.5521672968447006e-16,2.4365367922955747,0.7999999999999998,-1.5655004773887491e-16,-0.0031962575749462816
0.248,pd_gc,2.0491472801182953e-14,22.74721268120375,6.633861217656451e-16,-9.20725268260189e-15,1.5203796451723992e-15,7.156206131825884e-13,-0.7000000000000004,3.6871731084224307e-16,-6.1881917574770515,-1.6250754398791008e-14,3.0274318361312266e-15,-0.5866908426262016,-2.1999999999999993,-9.284879399246385e-16,21.73617614806051,-8.36392571259674e-15,1.1538100186762183e-15,0.6322073204267503,1.6000000000000003,-3.563224087900112e-16,2.4365367922955747,0.7999999999999998,-1.3596546573646848e-16,-0.0031962575749463693
0.25,pd_gc,2.048434050983834e-14,22.74721268120375,3.6590316652421514e-15,-9.20420139309081e-15,1.5256447555401812e-15,7.152948995757377e-13,-0.7000000000000004,3.7738696009786614e-16,-6.1881917574770515,-1.6244682368799754e-14,3.0360149956273354e-15,-0.5866908426262023,-2.1999999999999993,-9.72922134741098e-16,21.736176148060512,-8.36160832798074e-15,1.158692307999678e-15,0.6322073204267502,1.6000000000000003,-3.5673761092006567e-16,2.436536792295575,0.7999999999999998,-1.1579125236145017e-16,-0.003196257574946455
0.252,pd_gc,2.0477188348490106e-14,22.74721268120375,5.952435431185432e-16,-9.201140688715485e-15,1.5303521876627449e-15,7.149770848697023e-13,-0.7000000000000004,3.860561086262466e-16,-6.1881917574770515,-1.6238595178522157e-14,3.0435951387986407e-15,-0.5866908426262027,-2.1999999999999993,-1.01735189714224e-15,21.736176148060512,-8.359282000830058e-15,1.163163575340788e-15,0.63220732042675,1.6000000000000003,-3.5710149407867323e-16,2.436536792295575,0.7999999999999998,-9.603267146689536e-17,-0.0031962575749465375
0.254,pd_gc,2.047001839015881e-14,22.74721268120375,7.479451131259673e-16,-9.198071671254555e-15,1.5345087304646625e-15,7.146663244699603e-13,-0.7000000000000004,3.947258609128078e-16,-6.1881917574770515,-1.6232494348924216e-14,3.050414798970248e-15,-0.5866908426262034,-2.1999999999999993,-1.0617749776588306e-15,21.736176148060512,-8.356947642014322e-15,1.167179407867724e-15,0.6322073204267499,1.6000000000000003,-3.5741945904560955e-16,2.436536792295575,0.7999999999999998,-7.667830857046807e-17,-0.00319625757494662
0.256,pd_gc,2.046283299945612e-14,22.74721268120375,6.475285821177536e-16,-9.194995112136658e-15,1.5382795589483925e-15,7.143626114738591e-13,-0.7000000000000004,4.0339470445148546e-16,-6.1881917574770515,-1.6226381576193436e-14,3.0563863653901862e-15,-0.586690842626204,-2.1999999999999993,-1.1061884251743379e-15,21.736176148060512,-8.354606899819087e-15,1.17037109761763e-15,0.6322073204267498,1.6000000000000003,-3.576963541133172e-16,2.436536792295575,0.7999999999999998,-5.7718151522256e-17,-0.003196257574946701
0.258,pd_gc,2.0455633943865654e-14,22.74721268120375,6.448658436699344e-16,-9.191911739132849e-15,1.5416865019041892e-15,7.140636951456551e-13,-0.7000000000000004,4.1206277702318257e-16,-6.1881917574770515,-1.622025860643412e-14,3.0614848796578345e-15,-0.5866908426262045,-2.1999999999999993,-1.1506029109552726e-15,21.736176148060512,-8.352259911014594e-15,1.1734944022464416e-15,0.6322073204267497,1.6000000000000003,-3.579344337742984e-16,2.436536792295575,0.7999999999999998,-3.9146041307378306e-17,-0.0031962575749467786
0.26,pd_gc,2.0448422604316354e-14,22.74721268120375,5.819541296033694e-16,-9.18882248485409e-15,1.5446271393790467e-15,7.137693281039693e-13,-0.7000000000000004,4.2073210065682334e-16,-6.1881917574770515,-1.62141263616018e-14,3.0661224161603156e-15,-0.586690842626205,-2.1999999999999993,-1.1950120254157385e-15,21.736176148060512,-8.349907240915113e-15,1.1763350497402636e-15,0.6322073204267494,1.6000000000000003,-3.5813841843299035e-16,2.436536792295575,0.7999999999999998,-2.0949916836351596e-17,-0.003196257574946853
0.262,pd_gc,2.044120000525169e-14,22.747212681203752,1.0369629345591158e-15,-9.185728052641109e-15,1.5472161064910901e-15,7.134810188370206e-13,-0.7000000000000004,4.286661379702334e-16,-6.188191757477052,-1.6207985848342953e-14,3.070256629424258e-15,-0.5866908426262054,-2.1999999999999993,-1.2397629199550974e-15,21.736176148060512,-8.34754866969098e-15,1.1792856120671353e-15,0.6322073204267494,1.6000000000000003,-3.5829958932101273e-16,2.436536792295575,0.7999999999999998,-3.122655174647498e-18,-0.003196257574946931
0.264,pd_gc,2.043396772582588e-14,22.747212681203752,6.374367367366713e-16,-9.182628865637826e-15,1.549593501641235e-15,7.131972187204134e-13,-0.7000000000000004,4.3660004320378785e-16,-6.188191757477052,-1.6201838235202394e-14,3.0738065702795668e-15,-0.586690842626206,-2.1999999999999993,-1.2845071204525381e-15,21.736176148060512,-8.345185329979409e-15,1.1816698557857155e-15,0.6322073204267493,1.6000000000000003,-3.584330197572999e-16,2.436536792295575,0.7999999999999998,1.4346151336448525e-17,-0.0031962575749470037
0.266,pd_gc,2.0426726943414074e-14,22.747212681203756,3.593782784223904e-15,-9.179525525869466e-15,1.5516698841798245e-15,7.129160002280489e-13,-0.7000000000000004,4.459004259354841e-16,-6.188191757477052,-1.6195684148961448e-14,3.0770431204732414e-15,-0.5866908426262064,-2.1999999999999993,-1.3245082736773509e-15,21.736176148060515,-8.342818225462506e-15,1.1835522584507934e-15,0.6322073204267492,1.6000000000000003,-3.5953261627125923e-16,2.436536792295575,0.7999999999999998,3.147365705696631e-17,-0.0031962575749470735
0.268,pd_gc,2.0419493563377873e-14,22.747212681203756,6.344864104763849e-16,-9.176417163639271e-15,1.5541811150980459e-15,7.126386636910398e-13,-0.7000000000000004,8.040133758946259e-16,-6.188191757477052,-1.6189499649029084e-14,3.092249966181171e-15,-0.586690842626207,-2.1999999999999993,-1.5204073851489033e-16,21.736176148060515,-8.340533723515858e-15,1.142250973324353e-15,0.6322073204267491,1.6000000000000003,-6.144109310243543e-16,2.436536792295575,0.7999999999999998,5.061426689681306e-17,-0.0031962575749471455
0.27,pd_gc,2.0412246833905893e-14,22.74721268120374,1.522221182823727e-14,-9.173313493667037e-15,1.551834986116771e-15,7.123548374797691e-13,-0.7000000000000004,4.252707482633494e-16,-6.188191757477058,-1.6183330182473322e-14,3.084733277881073e-15,-0.5866908426262076,-2.1999999999999993,-3.8888940286914825e-16,21.7361761480605,-8.338182104966072e-15,1.175809274892967e-15,0.6322073204267493,1.6000000000000003,-6.023740240430597e-16,2.436536792295576,0.7999999999999998,6.659624440223171e-17,-0.0031962575749472223
0.272,pd_gc,2.040498774229889e-14,22.747212681203745,6.421192302480265e-15,-9.170202171025556e-15,1.5556613207405269e-15,7.121393896877282e-13,-0.7000000000000004,4.3048704084573493e-16,-6.188191757477052,-1.617716057804318e-14,3.0848022150706886e-15,-0.586690842626208,-2.1999999999999993,-4.434703058797209e-16,21.736176148060505,-8.335808826587428e-15,1.186639189321607e-15,0.6322073204267491,1.6000000000000003,-5.971690224348113e-16,2.436536792295576,0.7999999999999998,8.265889231351841e-17,-0.003196257574947288
0.274,pd_gc,2.0397722169441927e-14,22.747212681203745,5.851112997370514e-16,-9.167086964626006e-15,1.557603199774491e-15,7.118369151916771e-13,-0.7000000000000004,4.3568882561110086e-16,-6.188191757477052,-1.6170988420743714e-14,3.0860786497333355e-15,-0.5866908426262084,-2.1999999999999993,-4.979448854482458e-16,21.736176148060505,-8.33342882829274e-15,1.189999147344509e-15,0.6322073204267489,1.6000000000000003,-5.919594588636993e-16,2.436536792295576,0.7999999999999998,9.840147856563201e-17,-0.0031962575749473537
0.276,pd_gc,2.0390451548808367e-14,22.747212681203745,5.386756683325812e-16,-9.163969199992456e-15,1.5588823167753537e-15,7.115605123732376e-13,-0.7000000000000004,4.4088844246896955e-16,-6.188191757477052,-1.6164813437764645e-14,3.0874914895339486e-15,-0.5866908426262089,-2.1999999999999993,-5.523996346204823e-16,21.736176148060505,-8.331044691002198e-15,1.1920686452710429e-15,0.6322073204267488,1.6000000000000003,-5.867357816520123e-16,2.436536792295576,0.7999999999999998,1.1382769108819924e-16,-0.0031962575749474188
0.278,pd_gc,2.0383177056081753e-14,22.74721268120375,3.5926020441259e-15,-9.160849381204232e-15,1.5599093941124242e-15,7.112931835645414e-13,-0.7000000000000004,4.474530381478386e-16,-6.188191757477052,-1.615863576719596e-14,3.088835284341895e-15,-0.5866908426262093,-2.1999999999999993,-6.021045013803438e-16,21.73617614806051,-8.328658470178989e-15,1.1931104116045093e-15,0.6322073204267487,1.6000000000000003,-5.824902792662462e-16,2.436536792295576,0.7999999999999998,1.2895738846229948e-16,-0.003196257574947482
0.28,pd_gc,2.0375899334385974e-14,22.74721268120375,6.564875700722681e-16,-9.157727842919233e-15,1.5607691424990972e-15,7.110292189787646e-13,-0.7000000000000004,4.5328097915350705e-16,-6.188191757477052,-1.615245582993922e-14,3.0899686283703702e-15,-0.5866908426262099,-2.1999999999999993,-6.521477772063722e-16,21.73617614806051,-8.326270555130682e-15,1.1939575241535055e-15,0.6322073204267484,1.6000000000000003,-5.782202955467601e-16,2.436536792295576,0.7999999999999998,1.437856043317525e-16,-0.003196257574947544
0.28200000000000003,pd_gc,2.0368618906885552e-14,22.74721268120375,5.189059064543733e-16,-9.154604824490075e-15,1.5615092145788953e-15,7.107674594385513e-13,-0.7000000000000004,4.591096236978351e-16,-6.188191757477052,-1.6146274018288577e-14,3.0909058253209985e-15,-0.5866908426262103,-2.1999999999999993,-7.021889692008605e-16,21.73617614806051,-8.323881201880467e-15,1.1946766251070805e-15,0.6322073204267484,1.6000000000000003,-5.739380918389228e-16,2.436536792295576,0.7999999999999998,1.583168630717061e-16,-0.0031962575749476035
0.28400000000000003,pd_gc,2.0361335932169953e-14,22.74721268120375,6.257453342931279e-16,-9.151480562258273e-15,1.5621311159009736e-15,7.105072569551015e-13,-0.7000000000000004,4.649395765918874e-16,-6.188191757477052,-1.6140090711077362e-14,3.091653605606793e-15,-0.5866908426262109,-2.1999999999999993,-7.522336417536096e-16,21.73617614806051,-8.321489803803137e-15,1.1956990386648865e-15,0.6322073204267485,1.6000000000000003,-5.69643890871056e-16,2.436536792295576,0.7999999999999998,1.725594118725308e-16,-0.0031962575749476616
0.28600000000000003,pd_gc,2.0354051057896928e-14,22.74721268120375,5.407883683466595e-16,-9.148355216026959e-15,1.562673115656691e-15,7.102486093580482e-13,-0.7000000000000004,4.70769851642077e-16,-6.188191757477052,-1.613390622405115e-14,3.092243513105452e-15,-0.5866908426262112,-2.1999999999999993,-8.022727843195997e-16,21.73617614806051,-8.319097157607429e-15,1.1963230978544422e-15,0.6322073204267482,1.6000000000000003,-5.653400352911908e-16,2.436536792295576,0.7999999999999998,1.8651813045694868e-16,-0.0031962575749477223
0.28800000000000003,pd_gc,2.0346764730425105e-14,22.74721268120375,1.2091692546195196e-15,-9.145228960376973e-15,1.563127824992774e-15,7.099909936629631e-13,-0.7000000000000004,4.766006659260838e-16,-6.188191757477052,-1.6127720852495282e-14,3.09268577793386e-15,-0.5866908426262121,-2.1999999999999993,-8.523094466569018e-16,21.73617614806051,-8.316703590778213e-15,1.1967834146078437e-15,0.632207320426749,1.6000000000000003,-5.610269140449583e-16,2.436536792295576,0.7999999999999998,2.0020135858127839e-16,-0.003196257574947776
0.29,pd_gc,2.0339477034400966e-14,22.74721268120375,1.027075783340796e-15,-9.142101999098642e-15,1.5634806391652106e-15,7.09734527280259e-13,-0.7000000000000004,4.816955126069906e-16,-6.188191757477053,-1.6121534903478586e-14,3.0929745083473978e-15,-0.5866908426262125,-2.1999999999999993,-9.02691117042184e-16,21.73617614806051,-8.314308490923565e-15,1.197549927323694e-15,0.632207320426749,1.6000000000000003,-5.566932589413558e-16,2.436536792295576,0.7999999999999998,2.1360975173149339e-16,-0.003196257574947831
0.292,pd_gc,2.0332188569926916e-14,22.747212681203752,3.591576716686972e-15,-9.138974432275426e-15,1.5637834116080041e-15,7.094794309795784e-13,-0.7000000000000004,4.88156074002076e-16,-6.188191757477053,-1.611534851480689e-14,3.0931943358482307e-15,-0.586690842626213,-2.1999999999999993,-9.483300283954017e-16,21.736176148060512,-8.311912948949552e-15,1.1977709870063127e-15,0.6322073204267489,1.6000000000000003,-5.533437837879472e-16,2.436536792295576,0.7999999999999998,2.2676308406099668e-16,-0.0031962575749478863
0.294,pd_gc,2.032489961816067e-14,22.747212681203752,5.263861489467099e-16,-9.135846386293085e-15,1.5640229911702627e-15,7.09224986819522e-13,-0.7000000000000004,4.946171426572081e-16,-6.188191757477053,-1.6109161950707575e-14,3.093282049658146e-15,-0.5866908426262134,-2.1999999999999993,-9.939685774784981e-16,21.736176148060512,-8.309517001340077e-15,1.1979738047373946e-15,0.6322073204267488,1.6000000000000003,-5.499869312996508e-16,2.436536792295576,0.7999999999999998,2.39654930837074e-16,-0.003196257574947939
0.296,pd_gc,2.0317609988247516e-14,22.747212681203752,4.768108440250336e-16,-9.132718105649947e-15,1.5641403215686564e-15,7.089713890270631e-13,-0.7000000000000004,5.010802409848397e-16,-6.188191757477053,-1.610297519708082e-14,3.093376813377814e-15,-0.5866908426262137,-2.1999999999999993,-1.039610075934611e-15,21.736176148060512,-8.30711993983414e-15,1.198530752968878e-15,0.6322073204267485,1.6000000000000003,-5.466228956797219e-16,2.436536792295576,0.7999999999999998,2.522926011348868e-16,-0.003196257574947992
0.298,pd_gc,2.0310320201387966e-14,22.747212681203752,6.218396711574807e-16,-9.129589565528392e-15,1.5642700607773963e-15,7.087194839500346e-13,-0.7000000000000004,5.075432894641253e-16,-6.188191757477053,-1.6096788566610692e-14,3.0933152350642527e-15,-0.5866908426262143,-2.1999999999999993,-1.085247444694529e-15,21.736176148060512,-8.304722460447166e-15,1.1987396934865803e-15,0.6322073204267484,1.6000000000000003,-5.432532637749908e-16,2.436536792295576,0.7999999999999998,2.646800202853278e-16,-0.0031962575749480446
0.3,pd_gc,2.0303042795204793e-14,22.747212681203752,5.247581561847472e-16,-9.126469781713861e-15,1.5598919072650954e-15,7.084673843913878e-13,-0.7000000000000004,1.365874312952376e-16,-6.188191757477053,-1.609061007469384e-14,3.089245958426245e-15,-0.5866908426262147,-2.1999999999999993,-1.3056573137458197e-15,21.736176148060512,-8.302329778252798e-15,1.196341097183904e-15,0.6322073204267483,1.6000000000000003,-5.341587575114133e-16,2.436536792295576,0.7999999999999998,2.765269764166194e-16,-0.0031962575749480923
0.302,pd_gc,2.029577604611127e-14,22.747212681203756,6.43267543156734e-15,-9.12334374008623e-15,1.5630208138155567e-15,7.082790958353976e-13,-0.7000000000000004,4.991601637372092e-16,-6.188191757477048,-1.608440595405057e-14,3.1020603216346654e-15,-0.5866908426262153,-2.1999999999999993,-1.313661528772815e-16,21.736176148060515,-8.300019618938084e-15,1.1550796573571954e-15,0.6322073204267484,1.6000000000000003,-7.856668645097757e-16,2.436536792295576,0.7999999999999998,2.908419984221388e-16,-0.0031962575749481434
0.304,pd_gc,2.0288488330497093e-14,22.74721268120374,1.5217856270998622e-14,-9.120214977447985e-15,1.5643813191222208e-15,7.079852078134806e-13,-0.7000000000000004,5.015381680988088e-16,-6.188191757477053,-1.6078212602867307e-14,3.0966755916311463e-15,-0.5866908426262158,-2.1999999999999993,-1.9206519184109058e-16,21.7361761480605,-8.29764022202519e-15,1.1896984564472177e-15,0.6322073204267487,1.6000000000000003,-7.743585593914508e-16,2.436536792295577,0.7999999999999998,3.023849860313185e-16,-0.003196257574948199
0.306,pd_gc,2.028119760305592e-14,22.747212681203745,3.594226726470664e-15,-9.117085494964654e-15,1.5647412416656467e-15,7.077158597281277e-13,-0.7000000000000004,5.052532797247524e-16,-6.188191757477053,-1.6072024016024734e-14,3.09429342128616e-15,-0.5866908426262162,-2.1999999999999993,-2.476623069086383e-16,21.736176148060505,-8.295244937634545e-15,1.1976421953225797e-15,0.6322073204267483,1.6000000000000003,-7.640912827267107e-16,2.436536792295577,0.7999999999999998,3.1375553016165994e-16,-0.0031962575749482467
0.308,pd_gc,2.027390767312719e-14,22.747212681203745,6.127399558004643e-16,-9.1139561813489e-15,1.5646568078770941e-15,7.074604622138533e-13,-0.7000000000000004,5.089639881682154e-16,-6.188191757477053,-1.606583831715553e-14,3.09284943460161e-15,-0.5866908426262167,-2.1999999999999993,-3.03173751573545e-16,21.736176148060505,-8.292845741075611e-15,1.1995982794665765e-15,0.6322073204267483,1.6000000000000003,-7.538327542829779e-16,2.436536792295577,0.7999999999999998,3.249127415833042e-16,-0.003196257574948292
0.31,pd_gc,2.0266631610096055e-14,22.747212681203745,5.573119168514487e-16,-9.110836246136337e-15,1.5599676062813117e-15,7.072112991976326e-13,-0.7000000000000004,1.3525654488198102e-16,-6.188191757477053,-1.6059662576776292e-14,3.0878701896196714e-15,-0.5866908426262172,-2.1999999999999993,-5.334346246162395e-16,21.736176148060505,-8.290450765238594e-15,1.1974879185078903e-15,0.6322073204267481,1.6000000000000003,-7.378551011813615e-16,2.436536792295577,0.7999999999999998,3.3555703464556165e-16,-0.003196257574948337
0.312,pd_gc,2.025935273642626e-14,22.74721268120375,6.4171504183556775e-15,-9.107712074457432e-15,1.5620858394528947e-15,7.070273532029687e-13,-0.7000000000000004,1.4553101715335525e-16,-6.188191757477048,-1.6053486994673316e-14,3.087791051488001e-15,-0.5866908426262175,-2.1999999999999993,-5.817884919715262e-16,21.73617614806051,-8.288053187262994e-15,1.1987889878004038e-15,0.632207320426748,1.6000000000000003,-7.286710513033821e-16,2.436536792295577,0.7999999999999998,3.463410731614423e-16,-0.003196257574948381
0.314,pd_gc,2.025207249323032e-14,22.74721268120375,5.382439198750643e-16,-9.104586594693276e-15,1.5627398820781182e-15,7.06747764204254e-13,-0.7000000000000004,1.5579289926343994e-16,-6.188191757477048,-1.6047311136663232e-14,3.087929005041813e-15,-0.586690842626218,-2.1999999999999993,-6.3013647531982715e-16,21.73617614806051,-8.285654153368509e-15,1.199516947242631e-15,0.6322073204267479,1.6000000000000003,-7.194816117355298e-16,2.436536792295577,0.7999999999999998,3.568972894314054e-16,-0.0031962575749484258
0.316,pd_gc,2.024479210396993e-14,22.74721268120375,5.277589659585954e-16,-9.101460706295704e-15,1.5629441987860124e-15,7.064885692263684e-13,-0.7000000000000004,1.6604787860232412e-16,-6.188191757477048,-1.6041135369747053e-14,3.087883458090057e-15,-0.5866908426262184,-2.1999999999999993,-6.784792976076963e-16,21.73617614806051,-8.283254954997443e-15,1.1995991855326321e-15,0.6322073204267478,1.6000000000000003,-7.102887338485252e-16,2.436536792295577,0.7999999999999998,3.6723799555313555e-16,-0.0031962575749484683
0.318,pd_gc,2.023751229051704e-14,22.74721268120375,1.1230712666176038e-15,-9.098334816313349e-15,1.562944991177874e-15,7.062356377206522e-13,-0.7000000000000004,1.755673914361543e-16,-6.188191757477049,-1.6034960147419043e-14,3.08761116400464e-15,-0.5866908426262188,-2.1999999999999993,-7.27039488387641e-16,21.73617614806051,-8.28085603093622e-15,1.199462030611555e-15,0.6322073204267477,1.6000000000000003,-7.027067340002414e-16,2.4365367922955765,0.7999999999999998,3.773656345204392e-16,-0.0031962575749485095
0.32,pd_gc,2.0230233188976787e-14,22.74721268120375,5.112907646416988e-16,-9.09520916008148e-15,1.562828115934339e-15,7.059855554285777e-13,-0.7000000000000004,1.8508517596162852e-16,-6.188191757477049,-1.6028785849802736e-14,3.0871488081537625e-15,-0.5866908426262193,-2.1999999999999993,-7.756058284366846e-16,21.73617614806051,-8.278456719173724e-15,1.1996558812479898e-15,0.6322073204267477,1.6000000000000003,-6.951209250448221e-16,2.4365367922955765,0.7999999999999998,3.8728976492913995e-16,-0.0031962575749485502
0.322,pd_gc,2.022295518553696e-14,22.74721268120375,4.320504150361181e-16,-9.09208394514835e-15,1.5626074665650965e-15,7.057371391834376e-13,-0.7000000000000004,1.9460207754208267e-16,-6.188191757477049,-1.6022612479553325e-14,3.0866851247047015e-15,-0.5866908426262196,-2.1999999999999993,-8.241674825035809e-16,21.73617614806051,-8.2760577303445e-15,1.199494414611407e-15,0.6322073204267475,1.6000000000000003,-6.875333796521517e-16,2.4365367922955765,0.7999999999999998,3.970184379899086e-16,-0.0031962575749485914
0.324,pd_gc,2.0215678621667018e-14,22.74721268120375,5.214457778456168e-16,-9.0889591689231e-15,1.5623881126256467e-15,7.054902110799566e-13,-0.7000000000000004,2.041177731307555e-16,-6.188191757477049,-1.601644036459468e-14,3.0860574793220198e-15,-0.5866908426262201,-2.1999999999999993,-8.727292937468731e-16,21.73617614806051,-8.273659266786187e-15,1.199231779157256e-15,0.6322073204267474,1.6000000000000003,-6.799435718163511e-16,2.4365367922955765,0.7999999999999998,4.0655437274895866e-16,-0.0031962575749486287
0.326,pd_gc,2.0208403415836708e-14,22.74721268120375,5.095457028549785e-16,-9.08583492142468e-15,1.5621237492089665e-15,7.052432999370889e-13,-0.7000000000000004,2.1363324736104771e-16,-6.188191757477049,-1.6010269731964746e-14,3.0853163149667153e-15,-0.5866908426262205,-2.1999999999999993,-9.212967106562386e-16,21.73617614806051,-8.271260590918118e-15,1.1993379340340462e-15,0.6322073204267474,1.6000000000000003,-6.723508657083363e-16,2.4365367922955765,0.7999999999999998,4.1590053831250875e-16,-0.003196257574948667
0.328,pd_gc,2.0201130020270235e-14,22.74721268120375,4.0321307316165765e-15,-9.082711232128636e-15,1.561844648022788e-15,7.04997061225049e-13,-0.7000000000000004,2.245132590280023e-16,-6.188191757477046,-1.6004100621915782e-14,3.0845550244820105e-15,-0.5866908426262233,-2.1999999999999993,-9.651229041145832e-16,21.73617614806051,-8.268862697405473e-15,1.1989467563222812e-15,0.6322073204267467,1.6000000000000003,-6.65748336853298e-16,2.4365367922955756,0.7999999999999998,4.250710414880937e-16,-0.0031962575749487007
0.33,pd_gc,2.0193858267897422e-14,22.74721268120375,1.0236918310059938e-15,-9.079588192166118e-15,1.5615199812584337e-15,7.047510734979718e-13,-0.7000000000000004,2.346619215977475e-16,-6.188191757477047,-1.5997933216723884e-14,3.083702595948651e-15,-0.5866908426262237,-2.1999999999999993,-1.0091727053968993e-15,21.73617614806051,-8.266464725211761e-15,1.1989860968563539e-15,0.6322073204267467,1.6000000000000003,-6.607574378189229e-16,2.4365367922955756,0.7999999999999998,4.3405372324311185e-16,-0.0031962575749487376
0.332,pd_gc,2.018658848503321e-14,22.74721268120375,6.179890191884966e-16,-9.076465810364125e-15,1.5611909009968025e-15,7.045057756356714e-13,-0.7000000000000004,2.448100323497759e-16,-6.188191757477047,-1.5991767610369817e-14,3.0828031770341466e-15,-0.5866908426262243,-2.1999999999999993,-1.0532189113338228e-15,21.73617614806051,-8.264067280014994e-15,1.198722598383638e-15,0.6322073204267465,1.6000000000000003,-6.557655673504474e-16,2.4365367922955756,0.7999999999999998,4.4286044825801307e-16,-0.003196257574948773
0.334,pd_gc,2.0179320669033976e-14,22.74721268120375,4.2969648587062077e-16,-9.07334422414861e-15,1.560793107757322e-15,7.042605922151749e-13,-0.7000000000000004,2.549588691542979e-16,-6.188191757477047,-1.5985603621135495e-14,3.0819946171605206e-15,-0.5866908426262246,-2.1999999999999993,-1.0972626666245639e-15,21.73617614806051,-8.261670556072285e-15,1.198361971353995e-15,0.6322073204267464,1.6000000000000003,-6.507727667424206e-16,2.4365367922955756,0.7999999999999998,4.514934710759431e-16,-0.0031962575749488087
0.336,pd_gc,2.0172054649172357e-14,22.74721268120375,6.074007080015388e-16,-9.070223387924676e-15,1.5604181119671548e-15,7.040164344232864e-13,-0.7000000000000004,2.651080839787158e-16,-6.188191757477047,-1.5979441457228332e-14,3.0810819535816873e-15,-0.5866908426262252,-2.1999999999999993,-1.14131207143423e-15,21.73617614806051,-8.259273783612805e-15,1.1983862297398946e-15,0.6322073204267464,1.6000000000000003,-6.457778860593552e-16,2.4365367922955756,0.7999999999999998,4.599564700401327e-16,-0.003196257574948843
0.338,pd_gc,2.016479075191711e-14,22.74721268120375,5.201398567585049e-16,-9.067103285170916e-15,1.5600513768804773e-15,7.037720174664339e-13,-0.7000000000000004,2.752567275144587e-16,-6.188191757477047,-1.597328121171163e-14,3.0801227583515717e-15,-0.5866908426262256,-2.1999999999999993,-1.1853577397095278e-15,21.73617614806051,-8.256877598193272e-15,1.1980927097669879e-15,0.6322073204267463,1.6000000000000003,-6.407824218614826e-16,2.4365367922955756,0.7999999999999998,4.682522225316361e-16,-0.0031962575749488785
0.34,pd_gc,2.015752911963506e-14,22.747212681203752,4.460194930525611e-15,-9.063983945685832e-15,1.559669742541687e-15,7.035275435373466e-13,-0.7000000000000004,2.8540511689180094e-16,-6.188191757477046,-1.5967122954080307e-14,3.0791288156617374e-15,-0.5866908426262274,-2.1999999999999993,-1.2294024687491494e-15,21.736176148060512,-8.254482180360425e-15,1.197708916423301e-15,0.632207320426746,1.6000000000000003,-6.357860374704234e-16,2.4365367922955774,0.7999999999999998,4.763837706633423e-16,-0.003196257574948912
0.342,pd_gc,2.015026937183515e-14,22.747212681203752,4.1427918018773805e-16,-9.060865522363041e-15,1.5592116613953335e-15,7.032833392592829e-13,-0.7000000000000004,2.955549600043191e-16,-6.188191757477046,-1.5960966500291388e-14,3.078226894459865e-15,-0.5866908426262277,-2.1999999999999993,-1.2734506983231384e-15,21.736176148060512,-8.252086789113872e-15,1.19769562327614e-15,0.632207320426746,1.6000000000000003,-6.307882489968091e-16,2.4365367922955774,0.7999999999999998,4.8435646898587305e-16,-0.0031962575749489444
0.34400000000000003,pd_gc,2.014301192169635e-14,22.747212681203756,3.6986831925116635e-15,-9.057747915258679e-15,1.5588035521810767e-15,7.030402785295085e-13,-0.7000000000000004,3.0633254164175333e-16,-6.188191757477047,-1.5954811927723395e-14,3.0772862839966323e-15,-0.5866908426262282,-2.1999999999999993,-1.313099408003958e-15,21.736176148060515,-8.249692393509274e-15,1.197197802298741e-15,0.6322073204267459,1.6000000000000003,-6.267704287884483e-16,2.4365367922955774,0.7999999999999998,4.921810356391685e-16,-0.003196257574948976
0.34600000000000003,pd_gc,2.0135771906276443e-14,22.747212681203756,5.195485768011334e-16,-9.054629762236463e-15,1.559076511108063e-15,7.027965834901592e-13,-0.7000000000000004,6.666584899602313e-16,-6.188191757477047,-1.594863463460138e-14,3.088646561007988e-15,-0.5866908426262286,-2.1999999999999993,-1.3994135855013619e-16,21.736176148060515,-8.247385020582448e-15,1.1536864634134462e-15,0.6322073204267458,1.6000000000000003,-8.765649420301044e-16,2.4365367922955774,0.7999999999999998,5.022083561429953e-16,-0.0031962575749490078
0.34800000000000003,pd_gc,2.012852742630934e-14,22.74721268120374,1.5217081806793846e-14,-9.051520513787502e-15,1.554624224480394e-15,7.025433098234041e-13,-0.7000000000000004,2.8938586202806146e-16,-6.188191757477052,-1.5942479199315544e-14,3.0777176429181707e-15,-0.5866908426262292,-2.1999999999999993,-3.7656648214304618e-16,21.7361761480605,-8.245014613382056e-15,1.1852036001956004e-15,0.632207320426746,1.6000000000000003,-8.578283373981357e-16,2.4365367922955783,0.7999999999999998,5.092685987404035e-16,-0.0031962575749490494
0.35000000000000003,pd_gc,2.01212788056147e-14,22.747212681203745,6.424795184401278e-15,-9.048407361297581e-15,1.556576244960041e-15,7.023569019602746e-13,-0.7000000000000004,2.9607104285845416e-16,-6.188191757477047,-1.5936329986203025e-14,3.07460655625987e-15,-0.5866908426262295,-2.1999999999999993,-4.30927427438525e-16,21.736176148060505,-8.242626269791832e-15,1.194171795111765e-15,0.6322073204267457,1.6000000000000003,-8.459421905247224e-16,2.4365367922955783,0.7999999999999998,5.165906480285745e-16,-0.003196257574949074
0.352,pd_gc,2.011403080468263e-14,22.747212681203745,4.477894228010166e-16,-9.045293859544813e-15,1.5567508763838081e-15,7.020805214743659e-13,-0.7000000000000004,3.027421948637077e-16,-6.188191757477047,-1.5930183844547748e-14,3.0730708276393766e-15,-0.5866908426262298,-2.1999999999999993,-4.851887587784739e-16,21.736176148060505,-8.240233803748155e-15,1.1962330218386825e-15,0.6322073204267455,1.6000000000000003,-8.340679423380338e-16,2.4365367922955783,0.7999999999999998,5.237682330059136e-16,-0.0031962575749491036
0.354,pd_gc,2.0106784816955486e-14,22.747212681203745,9.754755796830178e-16,-9.042180882963957e-15,1.5564882904276274e-15,7.018289964942117e-13,-0.7000000000000004,3.0940908960634865e-16,-6.188191757477047,-1.5924040121273964e-14,3.071861636891525e-15,-0.5866908426262301,-2.1999999999999993,-5.394243106161905e-16,21.736176148060505,-8.237840920198145e-15,1.1964417750048304e-15,0.6322073204267453,1.6000000000000003,-8.221963913308266e-16,2.436536792295579,0.7999999999999998,5.308038447003763e-16,-0.0031962575749491322
0.356,pd_gc,2.0099541315168156e-14,22.74721268120375,3.5751054815443505e-15,-9.039068691943396e-15,1.5560955102808998e-15,7.015836345711298e-13,-0.7000000000000004,3.174401204472151e-16,-6.188191757477047,-1.5917898573750855e-14,3.0707737615554835e-15,-0.5866908426262303,-2.1999999999999993,-5.889155070818819e-16,21.73617614806051,-8.235448956406805e-15,1.1959818956696863e-15,0.6322073204267451,1.6000000000000003,-8.113166572898193e-16,2.436536792295579,0.7999999999999998,5.377100666998802e-16,-0.0031962575749491604
0.358,pd_gc,2.0092300060421875e-14,22.74721268120375,5.071907431305604e-16,-9.035957394882695e-15,1.5556485303508374e-15,7.013401582115391e-13,-0.7000000000000004,3.2547136566627886e-16,-6.188191757477047,-1.591175924988648e-14,3.069661932188713e-15,-0.5866908426262307,-2.1999999999999993,-6.384120058375284e-16,21.73617614806051,-8.233057117794506e-15,1.1959193061493544e-15,0.6322073204267451,1.6000000000000003,-8.004356281657106e-16,2.436536792295579,0.7999999999999998,5.444802521967238e-16,-0.0031962575749491877
0.36,pd_gc,2.0085061175810684e-14,22.74721268120375,4.277626760982755e-16,-9.032847093336953e-15,1.555150772870736e-15,7.010975121657039e-13,-0.7000000000000004,3.3350300788633215e-16,-6.188191757477047,-1.5905621915591802e-14,3.068667147338828e-15,-0.5866908426262311,-2.1999999999999993,-6.879031458842528e-16,21.73617614806051,-8.23066604583242e-15,1.1955359810431755e-15,0.632207320426745,1.6000000000000003,-7.895550979782028e-16,2.436536792295579,0.7999999999999998,5.511183849053222e-16,-0.003196257574949217
0.362,pd_gc,2.007782480838185e-14,22.74721268120375,8.65760947542833e-16,-9.029737700103256e-15,1.5546966168483763e-15,7.00855656646766e-13,-0.7000000000000004,3.415398536350016e-16,-6.188191757477047,-1.5899486722501656e-14,3.0675965450732416e-15,-0.5866908426262317,-2.1999999999999993,-7.372700820256028e-16,21.73617614806051,-8.228275902017527e-15,1.1950719074461225e-15,0.6322073204267448,1.6000000000000003,-7.802997148495856e-16,2.4365367922955787,0.7999999999999998,5.57620317513233e-16,-0.003196257574949245
0.364,pd_gc,2.007059072850244e-14,22.74721268120375,4.138957344367328e-15,-9.02662924343107e-15,1.5542283360926604e-15,7.006132633723832e-13,-0.7000000000000004,3.495769855747851e-16,-6.188191757477047,-1.5893353767974643e-14,3.0664772635065776e-15,-0.5866908426262357,-2.1999999999999993,-7.866424259366176e-16,21.73617614806051,-8.225885906940999e-15,1.1949975382645316e-15,0.6322073204267453,1.6000000000000003,-7.71043189646798e-16,2.436536792295578,0.7999999999999998,5.639932875259299e-16,-0.0031962575749492727
0.366,pd_gc,2.006335923889727e-14,22.74721268120375,1.0283936060320224e-15,-9.023521725911846e-15,1.5537587596123402e-15,7.003711427691884e-13,-0.7000000000000004,3.5687639431705915e-16,-6.188191757477048,-1.5887223104318045e-14,3.065331828298391e-15,-0.5866908426262362,-2.1999999999999993,-8.363523462326641e-16,21.73617614806051,-8.223496695444422e-15,1.1946057482886638e-15,0.6322073204267452,1.6000000000000003,-7.617757850031995e-16,2.436536792295578,0.7999999999999998,5.702413615115067e-16,-0.0031962575749492966
0.368,pd_gc,2.005613456506845e-14,22.74721268120375,4.27270080098012e-16,-9.020421772219928e-15,1.5499768459589768e-15,7.00129115438375e-13,-0.7000000000000004,3.640290227998145e-16,-6.188191757477048,-1.58810979397242e-14,3.062582296922961e-15,-0.5866908426262365,-2.1999999999999993,-8.866546936838052e-16,21.73617614806051,-8.221105109874402e-15,1.1957927850098376e-15,0.6322073204267451,1.6000000000000003,-7.548897585344486e-16,2.436536792295578,0.7999999999999998,-3.1767534976620896e-16,-0.0031962575749493235
0.37,pd_gc,2.0048911441515254e-14,22.74721268120375,3.600250735743784e-15,-9.017318719201085e-15,1.5515265094214538e-15,6.999340659341686e-13,-0.7000000000000004,3.713505366329158e-16,-6.188191757477048,-1.5874974833603e-14,3.0615530605998866e-15,-0.586690842626237,-2.1999999999999993,-9.36331286212171e-16,21.73617614806051,-8.218716651269805e-15,1.1942293022983372e-15,0.6322073204267451,1.6000000000000003,-7.45583207143967e-16,2.436536792295578,0.7999999999999998,-2.9406560783674516e-16,-0.0031962575749457716
0.372,pd_gc,2.0041689907196675e-14,22.747212681203752,3.593483168500591e-15,-9.014215318970817e-15,1.5517001151341558e-15,6.996641264041865e-13,-0.7000000000000004,3.800289515067939e-16,-6.188191757477048,-1.586885301986251e-14,3.0609068702466784e-15,-0.5866908426262375,-2.1999999999999993,-9.81282016595741e-16,21.736176148060512,-8.216329874632743e-15,1.19338831853113e-15,0.632207320426745,1.6000000000000003,-7.372644398065006e-16,2.436536792295578,0.7999999999999998,-2.709273327335745e-16,-0.003196257574945866
0.374,pd_gc,2.003446974650634e-14,22.747212681203752,4.4082506977548147e-16,-9.011112443824519e-15,1.5514375731486713e-15,6.994134239057872e-13,-0.7000000000000004,3.8870464226441013e-16,-6.188191757477048,-1.5862732449453203e-14,3.0602852046530372e-15,-0.5866908426262378,-2.1999999999999993,-1.0262426730280355e-15,21.736176148060512,-8.21394339162465e-15,1.1932415040463651e-15,0.6322073204267451,1.6000000000000003,-7.289440457314842e-16,2.436536792295578,0.7999999999999998,-2.482487096516994e-16,-0.003196257574945957
0.376,pd_gc,2.0027251511502473e-14,22.747212681203752,5.608398899260243e-16,-9.00801021811306e-15,1.5511128557292395e-15,6.9916886948188e-13,-0.7000000000000004,3.973771604949321e-16,-6.188191757477048,-1.585661349587409e-14,3.0594767895569374e-15,-0.5866908426262383,-2.1999999999999993,-1.0712028945365448e-15,21.736176148060512,-8.211557691031192e-15,1.1928502967289673e-15,0.6322073204267449,1.6000000000000003,-7.206240672303718e-16,2.436536792295578,0.7999999999999998,-2.2601957827186174e-16,-0.0031962575749460475
0.378,pd_gc,2.0020035516577384e-14,22.747212681203752,5.26415443093784e-16,-9.00490875269385e-15,1.5507327096046633e-15,6.989252374688354e-13,-0.7000000000000004,4.060475724034736e-16,-6.188191757477048,-1.585049641631573e-14,3.0585397791792847e-15,-0.5866908426262387,-2.1999999999999993,-1.1161640835664248e-15,21.736176148060512,-8.209172921333843e-15,1.1923848486744103e-15,0.6322073204267448,1.6000000000000003,-7.123044275108322e-16,2.436536792295578,0.7999999999999998,-2.0422909956764568e-16,-0.003196257574946138
