Ovmem/robot-control-retargeting-framework/results/panda_control/raw/ablation_pd_gc_low_gain.csv
t,mode,err_norm,tau_norm,tau_smoothness_step,q1,qd1,tau1,q2,qd2,tau2,q3,qd3,tau3,q4,qd4,tau4,q5,qd5,tau5,q6,qd6,tau6,q7,qd7,tau7
0.0,pd_gc_low_gain,3.636759828731859e-12,22.74721268125129,0.0,1.5424078575759993e-12,7.712039287879996e-10,0.0,-0.6999999999999423,2.8796736914133858e-11,-6.188191757487909,1.722676169366781e-12,8.613380846833905e-10,-0.5866908431074782,-2.199999999999997,1.6050384504946408e-12,21.736176148071376,2.8059038767140384e-12,1.402951938357019e-09,0.6322073211695401,1.6000000000000392,1.9553276041616927e-11,2.4365367923063985,0.8000000000000379,1.893842997961711e-11,-0.003196257500585149
0.002,pd_gc_low_gain,5.610870974442479e-12,22.74721268130517,8.70529136573003e-09,2.5127146816202108e-12,4.851534120221058e-10,-5.460123815819037e-09,-0.6999999999999177,1.2301420054698621e-11,-6.188191757691032,3.222382319169914e-12,7.498530749015665e-10,-0.5866908483023193,-2.1999999999999846,6.1256305132314635e-12,21.736176148061983,3.843601961012672e-12,5.188490421493169e-10,0.6322073168179342,1.6000000000000525,6.66694201333859e-12,2.436536792255519,0.8000000000000369,-5.210754648396434e-13,-0.0031962575491730383
0.004,pd_gc_low_gain,6.509212289559848e-12,22.74721268130645,3.268930052943722e-09,2.9854141890451777e-12,2.3634975371248336e-10,-3.496582471419549e-09,-0.6999999999999184,-3.077124274138135e-13,-6.188191757574662,4.188347923558433e-12,4.829828021942595e-10,-0.5866908476414776,-2.1999999999999797,2.532815798525571e-12,21.736176148037426,3.9879943161523844e-12,7.219617756985602e-11,0.6322073193433756,1.6000000000000558,1.6214219867353011e-12,2.4365367922859544,0.8000000000000247,-6.097862030508675e-12,-0.0031962575213942968
0.006,pd_gc_low_gain,6.467387929343026e-12,22.747212681291106,2.666941755891624e-09,2.9982940311301794e-12,6.439921042500804e-12,-1.7738648435491906e-09,-0.6999999999999359,-8.761333908866594e-12,-6.188191757484129,4.51543128587135e-12,1.635416811564585e-10,-0.5866908460241095,-2.199999999999981,-5.566100974606384e-13,21.73617614805369,3.5271916678804583e-12,-2.3040132413596312e-10,0.6322073205764038,1.600000000000051,-2.4389620205867615e-12,2.436536792297024,0.8000000000000093,-7.691997541222589e-12,-0.0031962575205310147
0.008,pd_gc_low_gain,6.120567375526612e-12,22.747212681261455,2.6644693893326733e-09,2.8422107585027376e-12,-7.804163631372085e-11,-1.650112085427128e-10,-0.6999999999999547,-9.403373607964709e-12,-6.188191757422208,4.4765479351286315e-12,-1.944167537135912e-11,-0.5866908440700382,-2.1999999999999855,-2.117424757031463e-12,21.73617614806789,3.056040420930919e-12,-2.3557562347476956e-10,0.6322073214061328,1.6000000000000454,-2.7620661536539726e-12,2.436536792306029,0.7999999999999997,-4.764628859781435e-12,-0.0031962575255909563
0.01,pd_gc_low_gain,5.544145408933389e-12,22.74721268123521,1.2933978533219175e-09,2.5716645985115004e-12,-1.352730799956186e-10,4.3260302385593644e-10,-0.699999999999972,-8.646364703699737e-12,-6.188191757415346,4.189218828307506e-12,-1.4366455341056276e-10,-0.5866908429241239,-2.1999999999999895,-1.9785232310135968e-12,21.736176148074737,2.5636113482399408e-12,-2.462145363454891e-10,0.6322073213575798,1.6000000000000387,-3.299092053700027e-12,2.436536792305889,0.7999999999999935,-3.133130264570686e-12,-0.0031962575384028146
0.012,pd_gc_low_gain,4.865089203108877e-12,22.747212681213725,8.978189041254677e-10,2.251276750394964e-12,-1.6019392405826814e-10,8.440449760288701e-10,-0.6999999999999861,-7.025583710388153e-12,-6.188191757418743,3.764429542281591e-12,-2.1239464301295758e-10,-0.5866908421263943,-2.1999999999999926,-1.5229429672135826e-12,21.736176148073273,2.10440678021185e-12,-2.2960228401404539e-10,0.632207321339453,1.6000000000000323,-3.2512071903577e-12,2.4365367923064944,0.7999999999999899,-1.7616713273202344e-12,-0.003196257547304763
0.014,pd_gc_low_gain,4.172326427661851e-12,22.747212681199155,5.087345278114009e-10,1.925195717773257e-12,-1.6304051631085365e-10,1.0313063983920783e-09,-0.6999999999999964,-5.183641399363278e-12,-6.188191757428688,3.2853318843602494e-12,-2.3954882896067085e-10,-0.5866908416619153,-2.199999999999995,-1.031165131580973e-12,21.736176148070385,1.7051836110442678e-12,-1.9961158458379097e-10,0.6322073212508923,1.6000000000000265,-2.9089521729172494e-12,2.4365367923057977,0.7999999999999885,-7.269169465080421e-13,-0.003196257554549099
0.016,pd_gc_low_gain,3.5176537170715374e-12,22.747212681190632,2.45915698825615e-10,1.6184935179283682e-12,-1.5335109992244435e-10,1.0642757854650454e-09,-0.7000000000000034,-3.5125269254628815e-12,-6.188191757440633,2.8061363018591073e-12,-2.3959779125057095e-10,-0.5866908414502212,-2.199999999999996,-6.254514258090236e-13,21.73617614806741,1.370889436910847e-12,-1.6714708706671043e-10,0.6322073211309418,1.6000000000000216,-2.478122866646722e-12,2.4365367923044916,0.7999999999999884,-4.465379538458895e-14,-0.0031962575601901916
0.018000000000000002,pd_gc_low_gain,2.927223542612778e-12,22.747212681186706,1.4048974218209775e-10,1.3433027391860648e-12,-1.3759538937115174e-10,1.0087179587399756e-09,-0.7000000000000077,-2.169118947635644e-12,-6.188191757451738,2.3582226779262075e-12,-2.239568119664499e-10,-0.5866908414061185,-2.199999999999997,-3.469146175584963e-13,21.736176148065002,1.0965685788942763e-12,-1.3716042900828538e-10,0.6322073210102898,1.6000000000000176,-2.0537554517511665e-12,2.436536792303064,0.799999999999989,3.548642063903414e-13,-0.0031962575643795714
0.02,pd_gc_low_gain,2.411074462591757e-12,22.747212681185843,1.572292797484425e-10,1.1038795598088881e-12,-1.197115896885883e-10,9.094356160306195e-10,-0.7000000000000101,-1.1705942946654622e-12,-6.1881917574608245,1.9571399887110383e-12,-2.005413446075846e-10,-0.5866908414617428,-2.1999999999999975,-1.8446284509986526e-13,21.7361761480633,8.740276271251397e-13,-1.1127047588456831e-10,0.6322073209022454,1.6000000000000143,-1.677784099803724e-12,2.4365367923017267,0.7999999999999902,5.56132597572671e-13,-0.0031962575674093626
0.022,pd_gc_low_gain,1.9697133585209208e-12,22.747212681186806,1.8295412612485342e-10,9.00000157959539e-13,-1.0193970092467457e-10,7.938259454277627e-10,-0.7000000000000111,-4.720363182646184e-13,-6.188191757467673,1.6083371665900391e-12,-1.7440141106049958e-10,-0.5866908415696005,-2.1999999999999975,-1.0780586148724336e-13,21.736176148062246,6.947541443750606e-13,-8.963674137503957e-11,0.6322073208104887,1.6000000000000116,-1.3590084918030188e-12,2.4365367923005707,0.7999999999999914,6.297668170064508e-13,-0.0031962575695723768
0.024,pd_gc_low_gain,1.5984040568459443e-12,22.747212681188685,1.8985477882411749e-10,7.290877550263232e-13,-8.545620146660788e-11,6.775779001543404e-10,-0.7000000000000111,-1.0192655479883943e-14,-6.188191757472531,1.3112752936033337e-12,-1.4853093649335275e-10,-0.5866908416990037,-2.1999999999999975,-8.419991443950283e-14,21.736176148061656,5.510090892366673e-13,-7.187252756919664e-11,0.6322073207346018,1.6000000000000094,-1.0965460721155545e-12,2.4365367922996017,0.7999999999999926,6.273012897099479e-13,-0.003196257571107497
0.026000000000000002,pd_gc_low_gain,1.2898817036827564e-12,22.74721268119093,1.821158702028338e-10,5.874986324015283e-13,-7.079456131239746e-11,5.690299000652023e-10,-0.7000000000000105,2.7581083797207793e-13,-6.1881917574758125,1.0621717178322862e-12,-1.2455178788552376e-10,-0.5866908418314529,-2.1999999999999975,-8.748020454870485e-14,21.736176148061382,4.3613921792540165e-13,-5.743493565563283e-11,0.6322073206727306,1.6000000000000076,-8.847613221239196e-13,2.4365367922988113,0.7999999999999938,5.835121083478874e-13,-0.0031962575721963906
0.028,pd_gc_low_gain,1.0359982193220707e-12,22.74721268119317,1.6604495467873928e-10,4.712745395406567e-13,-5.8112046430435806e-11,4.720619838907211e-10,-0.7000000000000096,4.3689546941236477e-13,-6.188191757477907,8.557395463103649e-13,-1.0321608576096066e-10,-0.586690841956597,-2.1999999999999975,-1.0054588801730469e-13,21.73617614806128,3.445811524330596e-13,-4.577903274617102e-11,0.6322073206227136,1.6000000000000063,-7.133021114425548e-13,2.436536792298176,0.7999999999999948,5.208694190425117e-13,-0.0031962575729714226
0.03,pd_gc_low_gain,8.286728678808968e-13,22.74721268119523,1.4630697812829324e-10,3.765625444266707e-13,-4.7355997556992956e-11,3.8793334343142437e-10,-0.7000000000000086,5.122835116414258e-13,-6.188191757479153,6.862389541552304e-13,-8.475029607756722e-11,-0.5866908420693312,-2.199999999999998,-1.1499626969439273e-13,21.73617614806126,2.7175488761052264e-13,-3.641313241126849e-11,0.6322073205825017,1.6000000000000052,-5.743550790808943e-13,2.4365367922976633,0.7999999999999957,4.5162607922286676e-13,-0.0031962575735247157
0.032,pd_gc_low_gain,6.604104008115201e-13,22.747212681197016,1.2582918364416964e-10,2.9983063695625437e-13,-3.8365953735208186e-11,3.164294811218839e-10,-0.7000000000000075,5.309868257201251e-13,-6.188191757479806,5.480769369809696e-13,-6.908100858713042e-11,-0.5866908421677308,-2.1999999999999984,-1.265267021726722e-13,21.736176148061276,2.1392659184710274e-13,-2.891414788170995e-11,0.6322073205503002,1.6000000000000043,-4.624977469279587e-13,2.43653679229725,0.7999999999999965,3.8384886117739634e-13,-0.003196257573920753
0.034,pd_gc_low_gain,5.245380364589327e-13,22.747212681198516,1.0631625502740791e-10,2.3796038888196935e-13,-3.0935124037142505e-11,2.5656845066820714e-10,-0.7000000000000065,5.151650356667794e-13,-6.188191757480053,4.361203276018983e-13,-5.5978304689535646e-11,-0.5866908422517454,-2.199999999999999,-1.313573373574445e-13,21.736176148061293,1.6807269015292958e-13,-2.292695084708658e-11,0.6322073205245883,1.6000000000000036,-3.7419149349435843e-13,2.4365367922969163,0.7999999999999972,3.2081484419049725e-13,-0.0031962575742062226
0.036000000000000004,pd_gc_low_gain,4.1527125753593665e-13,22.74721268119975,8.862334869324691e-11,1.8826791827460356e-13,-2.4846235303682884e-11,2.0702745270471876e-10,-0.7000000000000055,4.785819762230185e-13,-6.18819175748006,3.4583240018154506e-13,-4.514396371017661e-11,-0.5866908423223162,-2.1999999999999993,-1.3130215599179332e-13,21.736176148061297,1.3175730507526047e-13,-1.8157692538834557e-11,0.632207320504108,1.600000000000003,-3.0074574433563173e-13,2.436536792296653,0.7999999999999977,2.6584610443078325e-13,-0.0031962575744116967
0.038,pd_gc_low_gain,3.277034120303991e-13,22.747212681200732,7.311577480602538e-11,1.484853151095816e-13,-1.9891301582510995e-11,1.6639293039479607e-10,-0.7000000000000046,4.316167206182753e-13,-6.18819175747991,2.733055198423491e-13,-3.626344016959797e-11,-0.5866908423808787,-2.1999999999999997,-1.2670442305667732e-13,21.73617614806129,1.0302554111641333e-13,-1.4365881979423568e-11,0.6322073204878262,1.6000000000000025,-2.43189332339535e-13,2.436536792296438,0.7999999999999982,2.178399963283907e-13,-0.0031962575745627417
0.04,pd_gc_low_gain,2.5772508439503125e-13,22.7472126812015,5.98305558412098e-11,1.1672221151010275e-13,-1.5881551799739424e-11,1.332996984731937e-10,-0.7000000000000038,3.810415451449729e-13,-6.188191757479673,2.1523561718018706e-13,-2.9034951331081025e-11,-0.5866908424290178,-2.2,-1.1918672711294275e-13,21.73617614806125,8.031354044033839e-14,-1.135600033803747e-11,0.6322073204749012,1.600000000000002,-1.9561433068886556e-13,2.436536792296265,0.7999999999999985,1.7715227225679329e-13,-0.003196257574671975
0.042,pd_gc_low_gain,2.0193843410605856e-13,22.747212681202093,4.8638709566024026e-11,9.141939028235028e-14,-1.2651410613876232e-11,1.0650197413777185e-10,-0.7000000000000032,3.308419545297782e-13,-6.18819175747939,1.6886731310077034e-13,-2.3184152039708366e-11,-0.5866908424682932,-2.2,-1.0959555193173853e-13,21.736176148061208,6.237342227771523e-14,-8.970059081311582e-12,0.632207320464657,1.6000000000000019,-1.574978415091201e-13,2.436536792296127,0.7999999999999988,1.4353211414132912e-13,-0.0031962575747518265
0.044,pd_gc_low_gain,1.5755476567507333e-13,22.747212681202527,3.9315097609087083e-11,7.130133858313652e-14,-1.0059025849606883e-11,8.49030986858396e-11,-0.7000000000000026,2.8357184620633477e-13,-6.188191757479103,1.31927041643278e-13,-1.8470135728746167e-11,-0.5866908425001252,-2.2,-9.909800183113315e-14,21.736176148061134,4.821166819018594e-14,-7.080877043764645e-12,0.6322073204565462,1.6000000000000016,-1.2703375316465222e-13,2.4365367922960126,0.799999999999999,1.160604867342305e-13,-0.0031962575748120483
0.046,pd_gc_low_gain,1.2230345243750234e-13,22.74721268120288,3.165815012471484e-11,5.533145047214737e-14,-7.984944055494573e-12,6.75611274039227e-11,-0.7000000000000022,2.402708916543828e-13,-6.188191757478833,1.0255435088373193e-13,-1.468634537977303e-11,-0.5866908425258206,-2.2,-8.824194254909059e-14,21.73617614806108,3.7038640529481525e-14,-5.586513830352207e-12,0.6322073204501311,1.6000000000000014,-1.0163717724355403e-13,2.4365367922959265,0.7999999999999993,9.317020220422271e-14,-0.0031962575748569247
0.048,pd_gc_low_gain,9.434516418681082e-14,22.747212681203134,2.5397114453260036e-11,4.2671788121232866e-14,-6.329831175457251e-12,5.368135036957612e-11,-0.7000000000000017,2.0200169286535847e-13,-6.188191757478566,7.923693024203042e-14,-1.1658710320850753e-11,-0.5866908425464741,-2.2,-7.714595585843194e-14,21.736176148061023,2.8227745513023622e-14,-4.405447508228951e-12,0.6322073204450598,1.6000000000000012,-8.124113180699826e-14,2.436536792295853,0.7999999999999994,7.44685797661625e-14,-0.0031962575748901
0.05,pd_gc_low_gain,7.219984951661558e-14,22.747212681203333,2.0302534329453678e-11,3.264792485614097e-14,-5.011931632545946e-12,4.260194670335144e-11,-0.7000000000000014,1.687171213180043e-13,-6.188191757478348,6.07520317120463e-14,-9.24244926499206e-12,-0.5866908425630075,-2.2,-6.633074840763136e-14,21.73617614806097,2.1282429845862448e-14,-3.4726578335805875e-12,0.6322073204410559,1.600000000000001,-6.509272723526918e-14,2.4365367922957986,0.7999999999999995,5.90197576327154e-14,-0.003196257574914125
0.052000000000000005,pd_gc_low_gain,5.4679229782241895e-14,22.747212681203457,1.61999588447236e-11,2.4718994421636175e-14,-3.964465217252399e-12,3.3777604433575984e-11,-0.7000000000000011,1.400559429525704e-13,-6.188191757478138,4.611535911005219e-14,-7.318336300997054e-12,-0.5866908425762184,-2.2,-5.638859131226646e-14,21.736176148060903,1.5809632102529165e-14,-2.736398871666641e-12,0.6322073204378951,1.600000000000001,-5.1897341746406214e-14,2.4365367922957484,0.7999999999999996,4.7204690375930785e-14,-0.0031962575749317633
0.054,pd_gc_low_gain,4.0831766791678166e-14,22.747212681203575,1.289533649677745e-11,1.8452516172529315e-14,-3.133239124553431e-12,2.676249674390134e-11,-0.7000000000000008,1.1539208630632412e-13,-6.188191757477977,3.453742088599538e-14,-5.788969112028406e-12,-0.5866908425867463,-2.2,-4.7844550302178025e-14,21.736176148060864,1.1498509877410515e-14,-2.155561112559325e-12,0.6322073204354026,1.600000000000001,-4.162462555014753e-14,2.4365367922957146,0.7999999999999997,3.720097400785962e-14,-0.0031962575749465397
0.056,pd_gc_low_gain,2.989629666449463e-14,22.747212681203642,1.0251698251660558e-11,1.3503570355527998e-14,-2.4744729085006586e-12,2.1194573224972844e-11,-0.7000000000000006,9.462719921826382e-14,-6.188191757477821,2.5386895087479216e-14,-4.575262899258083e-12,-0.5866908425951247,-2.2,-4.09426617733285e-14,21.73617614806081,8.103443758743436e-15,-1.69753305933354e-12,0.6322073204334355,1.600000000000001,-3.38911226814641e-14,2.4365367922956835,0.7999999999999998,2.955081795901633e-14,-0.0031962575749569593
0.058,pd_gc_low_gain,2.1273055836226887e-14,22.747212681203703,8.123780295485138e-12,9.597610117901137e-15,-1.9529801188134303e-12,1.678116754528349e-11,-0.7000000000000005,7.74017428157148e-14,-6.188191757477701,1.816023621726443e-14,-3.613329435107393e-12,-0.5866908426017655,-2.2,-3.403355720174104e-14,21.73617614806078,5.430312299145108e-15,-1.3365657297991638e-12,0.6322073204318859,1.600000000000001,-2.6878294704675937e-14,2.43653679229566,0.7999999999999998,2.3623764286622925e-14,-0.003196257574965829
0.06,pd_gc_low_gain,1.448205733023788e-14,22.74721268120373,6.448058409384923e-12,6.516510445986227e-15,-1.5405498359574546e-12,1.3286956426977967e-11,-0.7000000000000004,6.290828736328561e-14,-6.188191757477588,1.245659427019867e-14,-2.851820973532879e-12,-0.586690842607044,-2.2,-2.8590719513970696e-14,21.736176148060736,3.3261021290994914e-15,-1.0521050850228084e-12,0.6322073204306649,1.600000000000001,-2.114205231444744e-14,2.436536792295638,0.7999999999999998,1.8554493253758854e-14,-0.0031962575749720904
0.062,pd_gc_low_gain,9.152349933507126e-15,22.747212681203756,5.095171332395143e-12,4.087246216869371e-15,-1.2146321145584281e-12,1.0523188433862732e-11,-0.7000000000000003,5.128505989411821e-14,-6.188191757477489,7.957505590574142e-15,-2.2495443398122645e-12,-0.5866908426112137,-2.2,-2.3518079916091938e-14,21.736176148060704,1.6700102297417725e-15,-8.280459496788594e-13,0.6322073204297034,1.600000000000001,-1.7569699334722544e-14,2.4365367922956245,0.7999999999999998,1.5089188220434302e-14,-0.0031962575749762113
0.064,pd_gc_low_gain,5.019290823904188e-15,22.747212681203774,4.031654546467153e-12,2.1726976042570453e-15,-9.572743063061627e-13,8.338934953234222e-12,-0.7000000000000002,4.144392172763653e-14,-6.188191757477418,4.410286200437932e-15,-1.7736096950681048e-12,-0.5866908426145159,-2.2,-1.958149947532893e-14,21.736176148060675,3.668413924812551e-16,-6.515844186302587e-13,0.6322073204289463,1.600000000000001,-1.330914888871841e-14,2.436536792295612,0.7999999999999998,1.2031650326470557e-14,-0.003196257574980465
0.066,pd_gc_low_gain,2.081568814489375e-15,22.74721268120379,3.1857081862938502e-12,6.643601559989531e-16,-7.54168724129046e-13,6.614012239972857e-12,-0.7000000000000001,3.3711955801743336e-14,-6.188191757477367,1.6147533334767595e-15,-1.3977664334805864e-12,-0.5866908426171263,-2.2,-1.5458607370429937e-14,21.736176148060657,-6.585099248758812e-16,-5.126756586785682e-13,0.6322073204283499,1.600000000000001,-1.0698027581026166e-14,2.4365367922955996,0.7999999999999998,8.96043783089801e-15,-0.003196257574983169
0.068,pd_gc_low_gain,1.9016556403545703e-15,22.747212681203802,2.511820478397137e-12,-5.235588912047631e-16,-5.939595236018581e-13,5.252606662663365e-12,-0.7000000000000001,2.7249538561370878e-14,-6.188191757477325,-5.875654001411582e-16,-1.1011593668089589e-12,-0.5866908426191838,-2.2,-1.2731994774424126e-14,21.736176148060643,-1.4650790077836577e-15,-4.0328454145388826e-13,0.6322073204278802,1.600000000000001,-8.105235465788201e-15,2.436536792295592,0.7999999999999998,7.153266451176902e-15,-0.0031962575749839585
0.07,pd_gc_low_gain,3.574646279718917e-15,22.74721268120381,1.994216498006276e-12,-1.4588542364763217e-15,-4.676476726357793e-13,4.178659020861197e-12,-0.7000000000000001,2.1879443914086026e-14,-6.188191757477283,-2.3219591994085584e-15,-8.671968996337e-13,-0.5866908426208224,-2.2,-1.0422836945852378e-14,21.73617614806063,-2.0994892604307234e-15,-3.172051263235328e-13,0.6322073204275106,1.600000000000001,-6.0336628351334025e-15,2.436536792295585,0.7999999999999998,6.006119663494975e-15,-0.003196257574985779
0.07200000000000001,pd_gc_low_gain,5.100745884088754e-15,22.747212681203795,1.5638855285891477e-12,-2.195053756105401e-15,-3.6809975981453954e-13,3.331887877909508e-12,-0.7000000000000001,1.7398593253097598e-14,-6.1881917574772265,-3.687427175224175e-15,-6.827339879078082e-13,-0.586690842622103,-2.2,-8.630935770314149e-15,21.736176148060604,-2.598410619173343e-15,-2.494606793713098e-13,0.6322073204272195,1.600000000000001,-4.6749526651472924e-15,2.436536792295576,0.7999999999999998,4.857159061966984e-15,-0.003196257574987771
0.074,pd_gc_low_gain,6.337970968170886e-15,22.7472126812038,1.230664219009146e-12,-2.7743835509311246e-15,-2.8966489741286177e-13,2.664500468945993e-12,-0.7000000000000001,1.3944016426051363e-14,-6.1881917574772,-4.7621307308506624e-15,-5.373517778132436e-13,-0.586690842623111,-2.2,-7.296590821893996e-15,21.736176148060597,-2.990700945354807e-15,-1.961451630907318e-13,0.6322073204269907,1.600000000000001,-4.179735950552715e-15,2.4365367922955743,0.7999999999999998,3.896725397478083e-15,-0.0031962575749888353
0.076,pd_gc_low_gain,7.32226721952684e-15,22.747212681203802,9.716068156638266e-13,-3.230160733394259e-15,-2.2788859123156724e-13,2.138629623927277e-12,-0.7000000000000001,1.1214564786579045e-14,-6.188191757477184,-5.6077356564821236e-15,-4.2280246281573044e-13,-0.5866908426239078,-2.2,-5.627394995199611e-15,21.73617614806059,-3.2991618654095756e-15,-1.5423046002738436e-13,0.632207320426811,1.600000000000001,-3.2415924085935614e-15,2.4365367922955725,0.7999999999999998,3.2796796164240156e-15,-0.003196257574989558
0.078,pd_gc_low_gain,8.100691010955399e-15,22.7472126812038,7.739316789087418e-13,-3.5886459706390866e-15,-1.7924261862241375e-13,1.724426567956741e-12,-0.7000000000000001,8.951992220996265e-15,-6.1881917574771625,-6.272905531567243e-15,-3.3258493754255957e-13,-0.5866908426245454,-2.2,-4.6716772170100925e-15,21.73617614806058,-3.541607047793576e-15,-1.2122259119200017e-13,0.6322073204266686,1.600000000000001,-3.3784616117922105e-15,2.436536792295569,0.7999999999999998,2.219727480101766e-15,-0.003196257574990404
0.08,pd_gc_low_gain,8.71469895214516e-15,22.747212681203806,5.995008630422521e-13,-3.870533492300606e-15,-1.4094376083075975e-13,1.3982441691824598e-12,-0.7000000000000001,7.190342945464724e-15,-6.188191757477144,-6.795980002455153e-15,-2.615372354439553e-13,-0.5866908426250358,-2.2,-3.4884479055874526e-15,21.73617614806058,-3.732172752471071e-15,-9.528285233874752e-14,0.6322073204265583,1.600000000000001,-3.232939487229877e-15,2.4365367922955703,0.7999999999999998,1.7170429987856076e-15,-0.0031962575749899217
0.082,pd_gc_low_gain,9.198292217860803e-15,22.7472126812038,4.740686320585388e-13,-4.092129732123043e-15,-1.1079811991121852e-13,1.1414276655073425e-12,-0.7000000000000001,5.6332921130755976e-15,-6.18819175747713,-7.207202811779077e-15,-2.0561140466196208e-13,-0.586690842625424,-2.2,-3.2670747387169706e-15,21.73617614806057,-3.881854060507112e-15,-7.484065401802052e-14,0.6322073204264703,1.600000000000001,-2.6210941080695953e-15,2.436536792295568,0.7999999999999998,9.42758905262265e-16,-0.0031962575749901996
0.084,pd_gc_low_gain,9.578809663039128e-15,22.7472126812038,3.736438753379442e-13,-4.266275049144263e-15,-8.707265851061e-14,9.392720286634513e-13,-0.7000000000000001,4.299555085443607e-15,-6.18819175747712,-7.530373860095018e-15,-1.6158552415797054e-13,-0.5866908426257307,-2.2,-2.9391529127203903e-15,21.73617614806057,-3.999433788617727e-15,-5.878986405530747e-14,0.6322073204264024,1.600000000000001,-1.8419895512495398e-15,2.4365367922955676,0.7999999999999998,8.547847242905141e-16,-0.0031962575749896645
0.08600000000000001,pd_gc_low_gain,9.877979337325415e-15,22.747212681203816,2.988330311036293e-13,-4.4030749624536744e-15,-6.839995665470563e-14,7.801596115400406e-13,-0.7000000000000001,3.597192721938029e-15,-6.188191757477124,-7.784235645552384e-15,-1.2693089272868272e-13,-0.5866908426259774,-2.2,-2.320806315751809e-15,21.736176148060576,-4.091771183083394e-15,-4.616869723283368e-14,0.6322073204263471,1.600000000000001,-9.45360605221639e-16,2.436536792295568,0.7999999999999998,5.973461512801704e-16,-0.0031962575749903003
0.088,pd_gc_low_gain,1.01130351088892e-14,22.747212681203802,2.319331939533966e-13,-4.5104988329123905e-15,-5.371193522935797e-14,6.549226950810863e-13,-0.7000000000000001,2.8017688888538427e-15,-6.1881917574771075,-7.983559477834372e-15,-9.96619161409947e-14,-0.5866908426261669,-2.2,-1.6236065158446736e-15,21.736176148060565,-4.164272660664899e-15,-3.625073879075233e-14,0.632207320426305,1.600000000000001,-1.6139104921712713e-15,2.436536792295563,0.7999999999999998,2.034186777885852e-16,-0.003196257574990398
0.09,pd_gc_low_gain,1.0297573950619722e-14,22.747212681203802,1.8128629839767988e-13,-4.59480427749955e-15,-4.215272229357974e-14,5.564034999220014e-13,-0.7000000000000001,2.299815218305699e-15,-6.1881917574771075,-8.139968506972478e-15,-7.820451456905287e-14,-0.5866908426263153,-2.2,-9.225614050035943e-16,21.73617614806056,-4.221163934510075e-15,-2.844563692258802e-14,0.6322073204262717,1.600000000000001,-5.233874139693894e-16,2.436536792295565,0.7999999999999998,6.072148213922513e-16,-0.0031962575749901008
0.092,pd_gc_low_gain,1.0442320185478214e-14,22.7472126812038,1.418417862930476e-13,-4.6609263633761255e-15,-3.3061042938288076e-14,4.788612271550402e-13,-0.7000000000000001,1.7693157904837584e-15,-6.188191757477099,-8.262635964754283e-15,-6.13337288909024e-14,-0.5866908426264307,-2.2,-1.1644299379587937e-15,21.736176148060558,-4.265697192926247e-15,-2.226662920808586e-14,0.6322073204262452,1.600000000000001,-7.97411760623881e-16,2.436536792295563,0.7999999999999998,2.185094712455001e-17,-0.003196257574991297
0.094,pd_gc_low_gain,1.055576004563743e-14,22.74721268120381,1.1406749504344825e-13,-4.712744159358141e-15,-2.5908897991007812e-14,4.1786435510306156e-13,-0.7000000000000001,1.1939208445455555e-15,-6.188191757477097,-8.358754271454897e-15,-4.805915335030662e-14,-0.5866908426265244,-2.2,-1.4218584445126004e-15,21.736176148060565,-4.3005637997249115e-15,-1.7433303399332494e-14,0.6322073204262239,1.600000000000001,-1.013523511766531e-15,2.4365367922955645,0.7999999999999998,2.71839567770479e-16,-0.003196257574990428
0.096,pd_gc_low_gain,1.0644572371475133e-14,22.747212681203802,9.043877770440739e-14,-4.753305705389383e-15,-2.0280773015620963e-14,3.698720523113803e-13,-0.7000000000000001,1.3105047519609242e-15,-6.188191757477091,-8.433955932657129e-15,-3.760083060111658e-14,-0.5866908426265989,-2.2,-3.077625112084375e-16,21.73617614806056,-4.327921268373618e-15,-1.367873432435354e-14,0.6322073204262073,1.600000000000001,-1.444029112768404e-15,2.4365367922955636,0.7999999999999998,4.698781386468467e-16,-0.0031962575749911694
0.098,pd_gc_low_gain,1.0713982864201032e-14,22.7472126812038,6.80304801253378e-14,-4.7850214923833834e-15,-1.585789349699998e-14,3.320976393249221e-13,-0.7000000000000001,1.0373200484605688e-15,-6.188191757477097,-8.49273986247012e-15,-2.939196490649559e-14,-0.5866908426266533,-2.2,-5.581554890859991e-16,21.736176148060554,-4.349238680136103e-15,-1.0658705881242399e-14,0.6322073204261951,1.600000000000001,8.366764412486184e-17,2.4365367922955654,0.7999999999999998,6.272179189291373e-16,-0.003196257574991751
0.1,pd_gc_low_gain,1.0768149397338585e-14,22.747212681203802,5.608342425750662e-14,-4.809785797994598e-15,-1.2382152805607123e-14,3.0240611417433523e-13,-0.7000000000000001,7.481995725645676e-16,-6.188191757477095,-8.538609667772402e-15,-2.2934902651140746e-14,-0.5866908426266995,-2.2,-6.861977138264668e-16,21.736176148060558,-4.365851153989915e-15,-8.306236926906118e-15,0.632207320426185,1.600000000000001,-4.8455397278850973e-17,2.436536792295562,0.7999999999999998,-1.4806794306077374e-16,-0.0031962575749922132
0.10200000000000001,pd_gc_low_gain,1.0810324046411786e-14,22.747212681203802,4.228776949278618e-14,-4.829076186087611e-15,-9.645194046506903e-15,2.7906650155903375e-13,-0.7000000000000001,4.415328996222226e-16,-6.18819175747709,-8.574319988406708e-15,-1.78551603171525e-14,-0.5866908426267333,-2.2,-8.216332386412764e-16,21.736176148060558,-4.3787755423586394e-15,-6.462194184362082e-15,0.6322073204261769,1.600000000000001,-1.578003415893579e-16,2.436536792295561,0.7999999999999998,-4.5288691278054143e-17,-0.0031962575749907907
0.10400000000000001,pd_gc_low_gain,1.4097658536014703e-14,22.747212681203802,3.457643734347735e-14,-6.365562148149831e-15,-7.682429810311101e-13,2.6067940576905275e-13,-0.7000000000000002,-2.7906376877677527e-14,-6.188191757477087,-1.030136451271491e-14,-8.635222621541014e-13,-0.5866908426267619,-2.2,-2.371229967392327e-15,21.736176148060558,-7.156676281201672e-15,-1.3889503694215158e-12,0.6322073204261709,1.600000000000001,-1.9543544599508767e-14,2.4365367922955614,0.7999999999999998,-1.8645006108357714e-14,-0.0031962575749910883
0.106,pd_gc_low_gain,1.6271363481114187e-14,22.74721268120374,8.560847972540579e-12,-7.386934444775455e-15,-5.10686148312812e-13,5.632323353143764e-12,-0.7000000000000002,-1.2477430002506728e-14,-6.188191757476883,-1.1860931269262685e-14,-7.797833782738876e-13,-0.5866908426216623,-2.2,-6.466982833725057e-15,21.73617614806056,-8.283798038978217e-15,-5.635608788882727e-13,0.6322073204304582,1.600000000000001,-6.823811086019024e-15,2.4365367922956107,0.7999999999999998,-4.1432067310220327e-16,-0.0031962575749437685
0.108,pd_gc_low_gain,1.7040822825798443e-14,22.747212681203745,2.977404422454016e-12,-7.754979838971538e-15,-1.840226970980417e-13,3.870280415980702e-12,-0.7000000000000002,2.688324815786313e-15,-6.188191757477,-1.2724771714557807e-14,-4.3192022264756096e-13,-0.5866908426221514,-2.2,-3.4767128703624823e-15,21.73617614806059,-8.212347202317625e-15,3.572541833029578e-14,0.632207320428112,1.600000000000001,7.059222187228467e-17,2.4365367922955814,0.7999999999999998,7.422657635716589e-15,-0.003196257574968921
0.11,pd_gc_low_gain,1.6901636627672923e-14,22.747212681203766,3.5330153868072936e-12,-7.684462197805878e-15,3.525882058283046e-14,1.5983580732451533e-12,-0.7000000000000002,1.0132933713763022e-14,-6.188191757477106,-1.2936532537879691e-14,-1.0588041166094158e-13,-0.5866908426242523,-2.2,7.603335189605397e-17,21.736176148060576,-7.640223740335997e-15,2.860617309908145e-13,0.6322073204264105,1.600000000000001,3.195063718110042e-15,2.4365367922955645,0.7999999999999998,7.523669491126477e-15,-0.003196257574974924
0.112,pd_gc_low_gain,1.6277513554705176e-14,22.747212681203795,2.611116188577669e-12,-7.379712035076218e-15,1.5237508136483012e-13,6.05667438324219e-14,-0.7000000000000002,1.178985187734222e-14,-6.188191757477158,-1.2699486565067025e-14,1.1852298640633255e-13,-0.5866908426262476,-2.2,2.0100069780334875e-15,21.736176148060558,-6.952184568052721e-15,3.440195861416374e-13,0.6322073204257258,1.600000000000001,4.839026522186941e-15,2.4365367922955583,0.7999999999999998,5.263665781701619e-15,-0.003196257574967665
0.114,pd_gc_low_gain,1.5444733557363448e-14,22.747212681203827,1.6304269824409063e-12,-6.97810738506258e-15,2.0080232500681898e-13,-7.714370881507622e-13,-0.7000000000000002,1.0035484739157722e-14,-6.188191757477173,-1.2211889854372222e-14,2.4379835534740175e-13,-0.5866908426276438,-2.2,1.8638898514627596e-15,21.736176148060554,-6.310949979740835e-15,3.20617294155943e-13,0.6322073204255981,1.600000000000001,4.6749058327258e-15,2.436536792295558,0.7999999999999998,2.8341017770789006e-15,-0.0031962575749576927
0.116,pd_gc_low_gain,1.4569081354800254e-14,22.74721268120384,8.863908708931499e-13,-6.560788948547783e-15,2.0865921825739847e-13,-1.1264919796452297e-12,-0.7000000000000002,7.444849849704482e-15,-6.188191757477157,-1.1620493772288574e-14,2.9569804104182423e-13,-0.5866908426284497,-2.2,1.167715443196021e-15,21.736176148060547,-5.769821129396521e-15,2.7056442517215736e-13,0.6322073204256968,1.600000000000001,4.0333745513098076e-15,2.4365367922955548,0.7999999999999998,1.7586174255756082e-15,-0.003196257574949019
0.11800000000000001,pd_gc_low_gain,1.3742987808108053e-14,22.74721268120386,4.017260849114021e-13,-6.171236306948009e-15,1.947763207998871e-13,-1.198182969859878e-12,-0.7000000000000002,5.336467961480879e-15,-6.188191757477143,-1.1019479629395706e-14,3.0050707144643363e-13,-0.5866908426288071,-2.2,1.4385146433566707e-15,21.736176148060558,-5.3356495871236434e-15,2.1708577113643858e-13,0.6322073204258646,1.600000000000001,2.6641597097125923e-15,2.4365367922955614,0.7999999999999998,-1.277314082997213e-16,-0.0031962575749443648
0.12,pd_gc_low_gain,1.3012079760055008e-14,22.74721268120386,2.038834901602021e-13,-5.8296711775172454e-15,1.7078256471538153e-13,-1.1165847933212894e-12,-0.7000000000000002,3.0415452441412677e-15,-6.188191757477124,-1.0462490820673895e-14,2.7849440436090555e-13,-0.5866908426288834,-2.2,1.506109838182216e-16,21.736176148060554,-4.9977966098070374e-15,1.6892648865830293e-13,0.632207320426034,1.600000000000001,2.8083845344826564e-15,2.4365367922955623,0.7999999999999998,-6.482430537517928e-16,-0.003196257574939045
0.122,pd_gc_low_gain,1.2393345889679456e-14,22.747212681203884,2.394113856523012e-13,-5.542685213972776e-15,1.434929817722344e-13,-9.622911059069807e-13,-0.7000000000000002,1.54696497521505e-15,-6.188191757477122,-9.975402186537467e-15,2.4354431706821404e-13,-0.5866908426287789,-2.2,6.105507071464365e-17,21.73617614806058,-4.741049004017161e-15,1.283738028949385e-13,0.6322073204261822,1.600000000000001,2.328245574135408e-15,2.4365367922955627,0.7999999999999998,-4.658798401884628e-16,-0.0031962575749371765
0.124,pd_gc_low_gain,1.1887034419401483e-14,22.74721268120388,2.815575994591018e-13,-5.309323012106182e-15,1.1668110093329732e-13,-7.827434638467297e-13,-0.7000000000000002,2.9191325458598553e-16,-6.18819175747711,-9.566742721722528e-15,2.0432973240746905e-13,-0.5866908426285992,-2.2,-8.725591045098196e-17,21.73617614806058,-4.550015562517415e-15,9.551672074987294e-14,0.632207320426303,1.600000000000001,1.5479957913705658e-15,2.436536792295565,0.7999999999999998,-1.2297271977467607e-15,-0.0031962575749372325
0.126,pd_gc_low_gain,1.1484402690574704e-14,22.74721268120388,2.908923913344093e-13,-5.1247456084849385e-15,9.228870181062167e-14,-6.043947860488339e-13,-0.7000000000000002,-2.415875217701453e-16,-6.188191757477104,-9.234900522164952e-15,1.6592109977878837e-13,-0.5866908426283897,-2.2,-1.8353598250579505e-17,21.736176148060583,-4.411080529183033e-15,6.946751666719101e-14,0.6322073204263972,1.600000000000001,5.248433885320244e-16,2.4365367922955667,0.7999999999999998,-1.0556630656628154e-15,-0.0031962575749357514
0.128,pd_gc_low_gain,1.1172613471482916e-14,22.747212681203866,2.791137952636955e-13,-4.982517702855195e-15,7.111395281487151e-14,-4.410310883349541e-13,-0.7000000000000002,-7.609318518578412e-16,-6.188191757477097,-8.972966034060448e-15,1.3096724405225143e-13,-0.5866908426281758,-2.2,-1.4673070772283318e-16,21.736176148060576,-4.312797370283005e-15,4.914157945001402e-14,0.6322073204264705,1.600000000000001,9.840704680758274e-16,2.4365367922955694,0.7999999999999998,-8.022684940341593e-16,-0.0031962575749364223
0.13,pd_gc_low_gain,1.093759021411549e-14,22.747212681203845,2.5786503556578945e-13,-4.8758250181570816e-15,5.334634234905666e-14,-2.9849696158989277e-13,-0.7000000000000002,-8.517221055910822e-16,-6.188191757477082,-8.771706104557558e-15,1.0062996475144544e-13,-0.5866908426279691,-2.2,-1.2795067034921e-16,21.73617614806056,-4.245811298341283e-15,3.349303597086131e-14,0.6322073204265254,1.600000000000001,1.27735028924981e-15,2.436536792295567,0.7999999999999998,-4.582539996027137e-16,-0.0031962575749373955
0.132,pd_gc_low_gain,1.0765697664055363e-14,22.747212681203834,2.1530411152314577e-13,-4.798205725531186e-15,3.8809646312947724e-14,-1.7839139571711335e-13,-0.7000000000000002,-8.760065413357334e-16,-6.188191757477074,-8.621369378916607e-15,7.516836282047552e-14,-0.5866908426277953,-2.2,1.2242313919467764e-17,21.736176148060554,-4.202616985073979e-15,2.1597156633652155e-14,0.632207320426565,1.600000000000001,-2.1865142940247341e-16,2.436536792295563,0.7999999999999998,-9.2209114101802e-16,-0.0031962575749386614
0.134,pd_gc_low_gain,1.0644557911512255e-14,22.74721268120384,1.813918097473076e-13,-4.743858735895821e-15,2.717349481768273e-14,-7.973929516938659e-14,-0.7000000000000002,-8.432405297577888e-16,-6.188191757477083,-8.51266765071611e-15,5.4350864100248317e-14,-0.5866908426276465,-2.2,3.2837203620963155e-17,21.736176148060565,-4.177252491229236e-15,1.2682246922371201e-14,0.6322073204265932,1.600000000000001,-1.209407242399735e-16,2.4365367922955703,0.7999999999999998,-3.928989882212025e-16,-0.003196257574938374
0.136,pd_gc_low_gain,1.0563425197313468e-14,22.74721268120384,1.4664030064771086e-13,-4.707797746202202e-15,1.8030494846809595e-14,-4.601142879462435e-16,-0.7000000000000002,-7.511478158782914e-16,-6.188191757477083,-8.437271572187509e-15,3.769803926430069e-14,-0.5866908426275248,-2.2,6.775816942695926e-17,21.736176148060565,-4.165041677927538e-15,6.105406650849309e-15,0.6322073204266134,1.600000000000001,-9.392993704996675e-17,2.436536792295571,0.7999999999999998,-6.85443573027471e-16,-0.0031962575749401017
0.138,pd_gc_low_gain,1.0513231553487981e-14,22.747212681203838,1.1964991670935937e-13,-4.6858269011496934e-15,1.0985422526254452e-14,6.209844592042092e-14,-0.7000000000000002,-6.061224894660313e-16,-6.188191757477085,-8.387990015086783e-15,2.464077855036283e-14,-0.5866908426274237,-2.2,1.2058452238599395e-16,21.736176148060565,-4.1623573775143274e-15,1.3421502066052506e-15,0.6322073204266263,1.600000000000001,-1.147912869837118e-16,2.436536792295571,0.7999999999999998,-1.3317645659451348e-17,-0.003196257574940174
0.14,pd_gc_low_gain,1.0486515316168399e-14,22.747212681203834,9.261577484717852e-14,-4.674521194162271e-15,5.6528534937110436e-15,1.1053511836220657e-13,-0.7000000000000002,-4.1551924583392043e-16,-6.188191757477084,-8.358799353877133e-15,1.4595330604825027e-14,-0.5866908426273452,-2.2,1.903846712409941e-16,21.736176148060565,-4.166396515552945e-15,-2.0195690193087693e-15,0.632207320426634,1.600000000000001,-1.7414725226492473e-16,2.4365367922955685,0.7999999999999998,-1.8724171237337335e-16,-0.0031962575749421448
0.14200000000000002,pd_gc_low_gain,1.047725021844284e-14,22.747212681203834,7.326863319035346e-14,-4.671118012877478e-15,1.7015906423967543e-15,1.4741087331051356e-13,-0.7000000000000002,-5.651500357244066e-16,-6.188191757477084,-8.344763494580527e-15,7.017929648303482e-15,-0.5866908426272821,-2.2,1.0130967536104736e-16,21.73617614806056,-4.175030820338297e-15,-4.317152392676022e-15,0.632207320426638,1.600000000000001,-2.528756842466023e-16,2.4365367922955667,0.7999999999999998,-3.1374158721805525e-16,-0.0031962575749424128
0.14400000000000002,pd_gc_low_gain,1.0480612361105122e-14,22.747212681203823,5.5891837876249206e-14,-4.673405012303322e-15,-1.143499712921986e-15,1.7493358601832183e-13,-0.7000000000000002,-3.030822052961635e-16,-6.188191757477079,-8.341888957839811e-15,1.43726837035787e-15,-0.5866908426272339,-2.2,2.0280683883707325e-16,21.736176148060558,-4.1866384070545496e-15,-5.8037933581262295e-15,0.6322073204266386,1.600000000000001,-3.524307773032403e-16,2.4365367922955685,0.7999999999999998,-4.017760790311934e-16,-0.003196257574942746
0.146,pd_gc_low_gain,1.0492844924714478e-14,22.747212681203823,4.21852408045198e-14,-4.679673182896148e-15,-3.1340852964131994e-15,1.9494069848258677e-13,-0.7000000000000002,-3.9378396494888846e-16,-6.188191757477081,-8.347022341048953e-15,-2.5666916045709224e-15,-0.5866908426271968,-2.2,1.4175938028318704e-16,21.736176148060558,-4.200024170769141e-15,-6.6928818572955865e-15,0.6322073204266377,1.600000000000001,-4.549447084302474e-16,2.436536792295569,0.7999999999999998,-4.601301368644827e-16,-0.0031962575749431127
0.148,pd_gc_low_gain,1.0511026342651624e-14,22.747212681203823,3.1070431744813214e-14,-4.688590392676807e-15,-4.458604890329476e-15,2.0912552439073834e-13,-0.7000000000000002,-4.619317055886834e-16,-6.18819175747708,-8.357691571046362e-15,-5.334614998704664e-15,-0.5866908426271693,-2.2,9.23858720938606e-17,21.736176148060558,-4.214299228875671e-15,-7.137529053264991e-15,0.6322073204266355,1.600000000000001,-5.614376007904297e-16,2.4365367922955694,0.7999999999999998,-4.952072896363792e-16,-0.003196257574943501
0.15,pd_gc_low_gain,1.0532928830694297e-14,22.747212681203827,2.3579940400699303e-14,-4.699144128295593e-15,-5.276867809392834e-15,2.187538499393786e-13,-0.7000000000000002,-5.110883028284491e-16,-6.1881917574770835,-8.371990673860623e-15,-7.149551407130714e-15,-0.5866908426271487,-2.2,5.3399375735821674e-17,21.73617614806056,-4.228822277229592e-15,-7.261524176960447e-15,0.6322073204266326,1.600000000000001,-6.700659898617892e-16,2.4365367922955676,0.7999999999999998,-5.125272800244607e-16,-0.003196257574943887
0.152,pd_gc_low_gain,1.0556867217653526e-14,22.747212681203827,1.5923042662351084e-14,-4.710567233152726e-15,-5.7115524285666435e-15,2.2490383979757354e-13,-0.7000000000000002,-1.6889111127341784e-16,-6.1881917574770835,-8.388464583684943e-15,-8.236954912159878e-15,-0.5866908426271344,-2.2,1.9706144678604681e-16,21.73617614806056,-4.243135067730619e-15,-7.15639525051369e-15,0.632207320426629,1.600000000000001,-7.807791884280102e-16,2.436536792295568,0.7999999999999998,-5.162167587897769e-16,-0.003196257574944277
0.154,pd_gc_low_gain,1.0581624205860588e-14,22.747212681203827,1.102544087459381e-14,-4.7223155326296156e-15,-5.8741497384446916e-15,2.2840355632607557e-13,-0.7000000000000002,-1.9607587032264547e-16,-6.188191757477086,-8.406041427328105e-15,-8.788421821580874e-15,-0.5866908426271251,-2.2,1.7133981603066166e-16,21.73617614806056,-4.256936204362226e-15,-6.900568315803154e-15,0.6322073204266251,1.600000000000001,-8.835997124323654e-16,2.436536792295568,0.7999999999999998,-5.104369100069837e-16,-0.003196257574944653
0.156,pd_gc_low_gain,1.0606307162250474e-14,22.747212681203827,8.059447089268104e-15,-4.733984898047673e-15,-5.834682709028816e-15,2.3001166947429745e-13,-0.7000000000000002,-2.1386605448332493e-16,-6.188191757477085,-8.423929764591495e-15,-8.944168631695076e-15,-0.5866908426271185,-2.2,1.513953092614552e-16,21.73617614806056,-4.2700207737103715e-15,-6.542284674073129e-15,0.632207320426621,1.600000000000001,-9.815200529098424e-16,2.4365367922955685,0.7999999999999998,-4.975855134916112e-16,-0.0031962575749450205
0.158,pd_gc_low_gain,1.0630289976598928e-14,22.747212681203827,5.618864067940767e-15,-4.745294200001816e-15,-5.654650977071652e-15,2.3020217488510864e-13,-0.7000000000000002,-2.249112194075627e-16,-6.188191757477085,-8.44156265398888e-15,-8.816444698691871e-15,-0.5866908426271148,-2.2,1.3591152545621753e-16,21.73617614806056,-4.282265683305435e-15,-6.122454797531894e-15,0.6322073204266168,1.600000000000001,-1.0737985696117427e-15,2.436536792295569,0.7999999999999998,-4.798094752076926e-16,-0.003196257574945362
0.16,pd_gc_low_gain,1.0653150703590477e-14,22.74721268120383,7.706635315051705e-15,-4.756055099553364e-15,-5.3804497757737315e-15,2.2939432483957423e-13,-0.7000000000000002,-2.307307920247473e-16,-6.188191757477087,-8.458547531123881e-15,-8.492438567500955e-15,-0.5866908426271108,-2.2,1.2419075888639892e-16,21.736176148060565,-4.293607451638675e-15,-5.670884166620028e-15,0.632207320426613,1.600000000000001,-1.1616510867752489e-15,2.4365367922955725,0.7999999999999998,-4.587579273579974e-16,-0.0031962575749457044
0.162,pd_gc_low_gain,1.0674621776988913e-14,22.74721268120383,4.201567979118286e-15,-4.7661520744566736e-15,-5.048487451654789e-15,2.2790535241255064e-13,-0.7000000000000002,-2.38261202958952e-16,-6.188191757477087,-8.474627097345724e-15,-8.039783110920845e-15,-0.5866908426271106,-2.2,-1.1606409566736697e-17,21.736176148060565,-4.304018067745326e-15,-5.20530805332552e-15,0.6322073204266091,1.600000000000001,4.227872075789171e-16,2.436536792295573,0.7999999999999998,-4.3090150523572597e-16,-0.003196257574946005
0.164,pd_gc_low_gain,1.06945501824814e-14,22.74721268120383,5.776126307765306e-15,-4.7755148109338576e-15,-4.681368238591945e-15,2.2598549513985049e-13,-0.7000000000000002,-2.3692333927640447e-16,-6.188191757477087,-8.489638581072956e-15,-7.505741863615737e-15,-0.586690842627111,-2.2,-1.633430270704176e-17,21.736176148060565,-4.3135171427210326e-15,-4.749537487853039e-15,0.6322073204266054,1.600000000000001,3.262560636629741e-16,2.436536792295569,0.7999999999999998,-4.068105471504562e-16,-0.0031962575749462934
0.166,pd_gc_low_gain,1.0712866103614538e-14,22.74721268120383,4.091894693327912e-15,-4.78411653509208e-15,-4.300862079111206e-15,2.2379017010749792e-13,-0.7000000000000002,-2.3326081764408315e-16,-6.188191757477087,-8.503496504626715e-15,-6.928961776879992e-15,-0.5866908426271122,-2.2,-1.902819549492511e-17,21.736176148060565,-4.32213000846336e-15,-4.30643287116388e-15,0.6322073204266022,1.600000000000001,2.3422507078636915e-16,2.436536792295569,0.7999999999999998,-3.8231008554665234e-16,-0.0031962575749465514
0.168,pd_gc_low_gain,1.0729562001350513e-14,22.74721268120383,4.263901796030486e-15,-4.791956770176707e-15,-3.920117542313661e-15,2.2147069595746163e-13,-0.7000000000000002,-2.278605398402861e-16,-6.188191757477087,-8.516170486227408e-15,-6.336990800346405e-15,-0.5866908426271141,-2.2,-2.01695674353439e-17,21.736176148060565,-4.329898703747933e-15,-3.884347642286239e-15,0.6322073204265992,1.600000000000001,1.4812622860181462e-16,2.4365367922955694,0.7999999999999998,-3.578821760940579e-16,-0.0031962575749467878
0.17,pd_gc_low_gain,1.074467280840124e-14,22.74721268120383,4.054183650491106e-15,-4.799054361672102e-15,-3.54879574769726e-15,2.191190936032639e-13,-0.7000000000000002,-2.211692628339654e-16,-6.188191757477087,-8.527668390216551e-15,-5.7489519945720044e-15,-0.5866908426271159,-2.2,-2.0058705873205564e-17,21.736176148060565,-4.3368737935799785e-15,-3.487544916022625e-15,0.6322073204265964,1.600000000000001,6.771814417112549e-17,2.4365367922955694,0.7999999999999998,-3.3387282657655486e-16,-0.003196257574947005
0.17200000000000001,pd_gc_low_gain,1.0758262722577242e-14,22.747212681203823,6.022797796145585e-15,-4.805440876591691e-15,-3.1932574597947654e-15,2.168037447007649e-13,-0.7000000000000002,-2.1353276171070952e-16,-6.1881917574770835,-8.538025001776617e-15,-5.178305780032815e-15,-0.5866908426271159,-2.2,-1.893711720129046e-17,21.73617614806056,-4.34311125119315e-15,-3.118728806585572e-15,0.6322073204265941,1.600000000000001,-7.269408386906333e-18,2.436536792295569,0.7999999999999998,-3.105106550713947e-16,-0.0031962575749471967
0.17400000000000002,pd_gc_low_gain,1.0770414110495896e-14,22.747212681203827,5.165030127393426e-15,-4.81115599325632e-15,-2.8575583323143117e-15,2.14570437282231e-13,-0.7000000000000002,-2.0520963795035478e-16,-6.188191757477085,-8.547293244535378e-15,-4.634121379380167e-15,-0.5866908426271183,-2.2,-1.68919410997947e-17,21.73617614806056,-4.348667358360393e-15,-2.7780535836214735e-15,0.6322073204265918,1.600000000000001,-7.874253513996403e-17,2.4365367922955663,0.7999999999999998,-2.8795376705798875e-16,-0.003196257574947379
0.176,pd_gc_low_gain,1.0781220197212701e-14,22.747212681203827,3.5515384904455865e-15,-4.816244180390606e-15,-2.5440935671430164e-15,2.1244914805645298e-13,-0.7000000000000002,-1.964004474994861e-16,-6.188191757477085,-8.555536907057395e-15,-4.121831261008902e-15,-0.5866908426271201,-2.2,-1.4082041256574534e-17,21.73617614806056,-4.3535985861406446e-15,-2.465613890125886e-15,0.6322073204265896,1.600000000000001,-1.469860057562092e-16,2.4365367922955663,0.7999999999999998,-2.6628685712631014e-16,-0.0031962575749475454
0.178,pd_gc_low_gain,1.079077983443367e-14,22.74721268120383,5.756535548692022e-15,-4.820751887600765e-15,-2.25385360507966e-15,2.1045842218562535e-13,-0.7000000000000002,-1.8726376111271424e-16,-6.188191757477087,-8.562826121473224e-15,-3.644607207914707e-15,-0.5866908426271222,-2.2,-1.0759514617556491e-17,21.736176148060565,-4.357960643289037e-15,-2.1810285741960373e-15,0.6322073204265876,1.600000000000001,-2.1065310300943904e-16,2.4365367922955685,0.7999999999999998,-2.455458078097046e-16,-0.0031962575749477
0.18,pd_gc_low_gain,1.0799192419124826e-14,22.74721268120383,3.317023347591238e-15,-4.824726005040859e-15,-1.987058720046554e-15,2.0860705073958824e-13,-0.7000000000000002,-1.7864342017405452e-16,-6.188191757477088,-8.569233461620103e-15,-3.2036700734400033e-15,-0.5866908426271242,-2.2,-7.258549170964956e-18,21.736176148060565,-4.361805273443816e-15,-1.9223150773898432e-15,0.6322073204265859,1.600000000000001,-2.716235415219195e-16,2.4365367922955685,0.7999999999999998,-2.257450373192954e-16,-0.0031962575749478386
0.182,pd_gc_low_gain,1.0806556134156455e-14,22.747212681203827,5.1397098856457545e-15,-4.828212438657277e-15,-1.7432168082089538e-15,2.0689845124196024e-13,-0.7000000000000002,-1.6989766214178966e-16,-6.188191757477086,-8.574831064588758e-15,-2.798801484327206e-15,-0.5866908426271259,-2.2,-3.559000082115015e-18,21.73617614806056,-4.365183137425009e-15,-1.688931990596357e-15,0.6322073204265841,1.600000000000001,-3.2691214300271476e-16,2.436536792295567,0.7999999999999998,-2.0685351061255706e-16,-0.0031962575749479665
0.184,pd_gc_low_gain,1.0812965073397136e-14,22.747212681203827,2.776544236906864e-15,-4.831255025419668e-15,-1.5212933811958257e-15,2.0533101520375375e-13,-0.7000000000000002,-1.6107731217103454e-16,-6.188191757477086,-8.579689829305869e-15,-2.4293823585559266e-15,-0.5866908426271277,-2.2,4.987646732231847e-19,21.73617614806056,-4.368139474924687e-15,-1.4781687498391275e-15,0.6322073204265827,1.600000000000001,-3.8000276724195675e-16,2.436536792295567,0.7999999999999998,-1.888544647822003e-16,-0.003196257574948084
0.186,pd_gc_low_gain,1.0818508067667484e-14,22.747212681203827,2.4631236975604695e-15,-4.8338955670140754e-15,-1.3202707972037373e-15,2.038992546851575e-13,-0.7000000000000002,-1.522243895429451e-16,-6.188191757477086,-8.583876805377055e-15,-2.093488035592805e-15,-0.5866908426271293,-2.2,4.8616561911108766e-18,21.73617614806056,-4.370716294742116e-15,-1.2884099087146168e-15,0.6322073204265816,1.600000000000001,-4.311145418776954e-16,2.436536792295567,0.7999999999999998,-1.7170431765074523e-16,-0.0031962575749481894
0.188,pd_gc_low_gain,1.082326842556125e-14,22.747212681203827,2.2293644333895184e-15,-4.836172873065372e-15,-1.1386530256479476e-15,2.0259771826098917e-13,-0.7000000000000002,-1.4337068054570358e-16,-6.188191757477086,-8.587455570293493e-15,-1.7893824582188245e-15,-0.5866908426271306,-2.2,9.479285285618623e-18,21.73617614806056,-4.372952053640578e-15,-1.1178794492310888e-15,0.6322073204265802,1.600000000000001,-4.804476293021936e-16,2.436536792295567,0.7999999999999998,-1.5535367871109481e-16,-0.003196257574948288
0.19,pd_gc_low_gain,1.0827323624285109e-14,22.747212681203827,2.163210157554382e-15,-4.838122937796737e-15,-9.750323656827342e-16,2.014174861021505e-13,-0.7000000000000002,-1.3454324606190666e-16,-6.188191757477086,-8.590485286945012e-15,-1.5148583257595305e-15,-0.586690842627132,-2.2,1.4193496390190427e-17,21.73617614806056,-4.3748825493006205e-15,-9.652478300213454e-16,0.6322073204265792,1.600000000000001,-5.265605643007776e-16,2.4365367922955676,0.7999999999999998,-1.3974890953555385e-16,-0.0031962575749483763
0.192,pd_gc_low_gain,1.083074467487716e-14,22.747212681203827,1.7727579203010735e-15,-4.839778899453808e-15,-8.279808285353724e-16,2.0035014407164864e-13,-0.7000000000000002,-1.2574950456723864e-16,-6.188191757477086,-8.593020573604402e-15,-1.2676433296950714e-15,-0.586690842627133,-2.2,1.9091617554901842e-17,21.73617614806056,-4.3765396513706466e-15,-8.28551035013128e-16,0.6322073204265782,1.600000000000001,-5.712447064091392e-16,2.4365367922955676,0.7999999999999998,-1.2484180709747321e-16,-0.003196257574948458
0.194,pd_gc_low_gain,1.0833596982052063e-14,22.747212681203827,1.8200568625011573e-15,-4.841170830634671e-15,-6.959655904318684e-16,1.9938702177789993e-13,-0.7000000000000002,-1.1699972870462268e-16,-6.188191757477086,-8.595111987901159e-15,-1.0457071483783277e-15,-0.5866908426271343,-2.2,2.414776689929231e-17,21.73617614806056,-4.3779527127646904e-15,-7.065306970220631e-16,0.6322073204265775,1.600000000000001,-6.146508497954412e-16,2.4365367922955676,0.7999999999999998,-1.1058019981046267e-16,-0.003196257574948536
0.196,pd_gc_low_gain,1.083593952118267e-14,22.747212681203827,1.4025151926286897e-15,-4.842326401376775e-15,-5.777853710518399e-16,1.9851859235840993e-13,-0.7000000000000002,-1.0829615927623871e-16,-6.188191757477086,-8.596805133021106e-15,-8.465725599737383e-16,-0.5866908426271351,-2.2,2.933813716465245e-17,21.73617614806056,-4.379147555831648e-15,-5.974215334786304e-16,0.6322073204265767,1.600000000000001,-6.569148884041114e-16,2.4365367922955676,0.7999999999999998,-9.691668781627561e-17,-0.003196257574948606
0.198,pd_gc_low_gain,1.0837825849510186e-14,22.747212681203827,1.4846324203341135e-15,-4.843270589443741e-15,-4.720940334832189e-16,1.977375536524339e-13,-0.7000000000000002,-9.964564823264861e-17,-6.188191757477086,-8.598141346986582e-15,-6.681069827385586e-16,-0.586690842627136,-2.2,3.452425343926798e-17,21.73617614806056,-4.3801479427762015e-15,-5.001934722769356e-16,0.6322073204265759,1.600000000000001,-6.9653453071348e-16,2.436536792295568,0.7999999999999998,-8.379882685841233e-17,-0.00319625757494867
0.2,pd_gc_low_gain,1.0839304292561932e-14,22.747212681203827,1.3428309438373517e-15,-4.844025753307633e-15,-3.7758193194580245e-16,1.9703548181213219e-13,-0.7000000000000002,-9.104864072375093e-17,-6.188191757477086,-8.599158458066146e-15,-5.085555397815774e-16,-0.586690842627137,-2.2,3.968334670136141e-17,21.73617614806056,-4.3809744741027384e-15,-4.132656632685474e-16,0.6322073204265753,1.600000000000001,-7.336184536716291e-16,2.436536792295568,0.7999999999999998,-7.118409811215982e-17,-0.003196257574948731
0.202,pd_gc_low_gain,1.0840418559342735e-14,22.747212681203827,1.0740146042551489e-15,-4.844612075501145e-15,-2.93161096756272e-16,1.9640410365592595e-13,-0.7000000000000002,-8.249832668355872e-17,-6.188191757477086,-8.599890509567577e-15,-3.6602575071541e-16,-0.5866908426271377,-2.2,4.493033657307735e-17,21.73617614806056,-4.381646161515875e-15,-3.3584370656831427e-16,0.6322073204265748,1.600000000000001,-7.698910357203946e-16,2.436536792295568,0.7999999999999998,-5.903531037616311e-17,-0.0031962575749487857
0.20400000000000001,pd_gc_low_gain,1.0841207942295402e-14,22.747212681203827,9.112102828844037e-16,-4.845047709083375e-15,-2.1781679111501162e-16,1.9583661069733973e-13,-0.7000000000000002,-7.399212881452094e-17,-6.188191757477086,-8.600368075754369e-15,-2.387830933964164e-16,-0.5866908426271382,-2.2,5.025508956957767e-17,21.73617614806056,-4.382180140976212e-15,-2.669897301684832e-16,0.6322073204265743,1.600000000000001,-8.054403954622245e-16,2.436536792295568,0.7999999999999998,-4.731515744658754e-17,-0.0031962575749488395
0.20600000000000002,pd_gc_low_gain,1.0841707645848373e-14,22.747212681203827,9.822306209803268e-16,-4.845348938528335e-15,-1.5061472248010716e-16,1.9532662590114008e-13,-0.7000000000000002,-6.553234918717593e-17,-6.188191757477086,-8.600618551527749e-15,-1.2523788668989399e-16,-0.5866908426271387,-2.2,5.552448255711297e-17,21.73617614806056,-4.382591739449672e-15,-2.0579923673031983e-16,0.6322073204265738,1.600000000000001,-8.387197205629224e-16,2.4365367922955685,0.7999999999999998,-3.5984309333160545e-17,-0.0031962575749488855
0.20800000000000002,pd_gc_low_gain,1.0841948523116468e-14,22.747212681203827,9.629110553958341e-16,-4.845530384401715e-15,-9.072293668983481e-17,1.9486826059849414e-13,-0.7000000000000002,-5.710856315009668e-17,-6.188191757477086,-8.60066645562565e-15,-2.39520489507217e-17,-0.5866908426271394,-2.2,6.084401472755134e-17,21.73617614806056,-4.3828930026238626e-15,-1.506315870950573e-16,0.6322073204265735,1.600000000000001,-8.714229835429677e-16,2.4365367922955685,0.7999999999999998,-2.501650529584871e-17,-0.0031962575749489323
0.21,pd_gc_low_gain,1.0841959110251142e-14,22.747212681203827,1.1639244547482232e-15,-4.845605024157272e-15,-3.7319877778699405e-17,1.9445627593289742e-13,-0.7000000000000002,-4.9456117531343425e-17,-6.188191757477087,-8.600533613420563e-15,6.642110254325112e-17,-0.5866908426271399,-2.2,6.58838763065869e-17,21.73617614806056,-4.383097345972241e-15,-1.0217167418957001e-16,0.632207320426573,1.600000000000001,-9.036042928560697e-16,2.4365367922955685,0.7999999999999998,-1.43820378105859e-17,-0.0031962575749489735
0.212,pd_gc_low_gain,1.0841764064315772e-14,22.747212681203827,5.470341423415412e-16,-4.8455844238630354e-15,1.0300147118377752e-17,1.9408544011074175e-13,-0.7000000000000002,-4.1833376331370506e-17,-6.188191757477087,-8.600239749098935e-15,1.469321608139832e-16,-0.5866908426271402,-2.2,7.0961718867277e-17,21.73617614806056,-4.3832142723291344e-15,-5.846317844660105e-17,0.6322073204265728,1.600000000000001,-9.35327677641922e-16,2.4365367922955685,0.7999999999999998,-4.057615644017781e-18,-0.003196257574949012
0.214,pd_gc_low_gain,1.0841385592402597e-14,22.747212681203827,5.7875418228278175e-16,-4.8454789413431384e-15,5.274125994842381e-17,1.9375127592469277e-13,-0.7000000000000002,-3.4237215312364974e-17,-6.188191757477087,-8.599802279196869e-15,2.187349510334609e-16,-0.5866908426271406,-2.2,7.607957935543063e-17,21.73617614806056,-4.383253087890488e-15,-1.9407780676759897e-17,0.6322073204265725,1.600000000000001,-9.66643722164228e-16,2.4365367922955685,0.7999999999999998,5.982836499176428e-18,-0.00319625757494905
0.216,pd_gc_low_gain,1.0840843948391556e-14,22.747212681203827,5.024409466805121e-16,-4.845297697880055e-15,9.062173154160772e-17,1.9344996883408657e-13,-0.7000000000000002,-2.6665828978923564e-17,-6.188191757477087,-8.599236857018607e-15,2.827110891312541e-16,-0.5866908426271409,-2.2,8.12388531087563e-17,21.73617614806056,-4.383223093890516e-15,1.4996999986103027e-17,0.6322073204265722,1.600000000000001,-9.975972835952109e-16,2.4365367922955685,0.7999999999999998,1.5759154951719402e-17,-0.0031962575749490876
0.218,pd_gc_low_gain,1.0840156597493785e-14,22.747212681203827,6.578575703178772e-16,-4.845048967307432e-15,1.2436528631161317e-16,1.9317755579441096e-13,-0.7000000000000002,-1.9120460956022895e-17,-6.188191757477087,-8.598557272367213e-15,3.3979232569710166e-16,-0.5866908426271411,-2.2,8.630394482992055e-17,21.73617614806056,-4.383131286880252e-15,4.590350513178396e-17,0.6322073204265719,1.600000000000001,-1.026600901372274e-15,2.436536792295569,0.7999999999999998,2.5296296309649814e-17,-0.003196257574949121
0.22,pd_gc_low_gain,1.083933929464598e-14,22.747212681203827,5.550548432018151e-16,-4.8447399974717946e-15,1.5448491781876582e-16,1.9293140168811598e-13,-0.7000000000000002,-1.1593527616724057e-17,-6.188191757477087,-8.597775931349958e-15,3.9067050862729614e-16,-0.5866908426271416,-2.2,9.13975084651916e-17,21.73617614806056,-4.382984282116369e-15,7.350238194143582e-17,0.6322073204265717,1.600000000000001,-1.055315119191559e-15,2.436536792295569,0.7999999999999998,3.460571245477381e-17,-0.003196257574949152
0.222,pd_gc_low_gain,1.0838406447650989e-14,22.747212681203827,3.3495192802245617e-16,-4.844377204346793e-15,1.8139656250081507e-16,1.9270820547414042e-13,-0.7000000000000002,-4.0836457910332925e-18,-6.188191757477087,-8.596903918427317e-15,4.360064613199787e-16,-0.5866908426271417,-2.2,9.652212618902528e-17,21.73617614806056,-4.382788875298817e-15,9.770340877577978e-17,0.6322073204265715,1.600000000000001,-1.08377165204719e-15,2.436536792295569,0.7999999999999998,4.370215664182665e-17,-0.0031962575749491795
0.224,pd_gc_low_gain,1.083736980607095e-14,22.747212681203827,3.2205125636460157e-16,-4.84396657696321e-15,2.053136917915248e-16,1.9250531223636602e-13,-0.7000000000000002,3.414592127664802e-18,-6.188191757477087,-8.595950661119436e-15,4.766286539410471e-16,-0.5866908426271419,-2.2,1.0166371118370945e-16,21.73617614806056,-4.382549010339566e-15,1.199324796254964e-16,0.6322073204265714,1.600000000000001,-1.1119963848394514e-15,2.436536792295569,0.7999999999999998,5.260003092031949e-17,-0.00319625757494921
0.226,pd_gc_low_gain,1.0836240688077342e-14,22.747212681203827,3.100461009288616e-16,-4.8435130846611005e-15,2.2674615105484073e-16,1.9232146723598773e-13,-0.7000000000000002,1.0894960709149266e-17,-6.188191757477087,-8.594924985148022e-15,5.128379857068677e-16,-0.586690842627142,-2.2,1.067052000916081e-16,21.73617614806056,-4.382269871877389e-15,1.3956923108860037e-16,0.6322073204265711,1.600000000000001,-1.1383896851548264e-15,2.436536792295569,0.7999999999999998,6.131808036482167e-17,-0.0031962575749492363
0.228,pd_gc_low_gain,1.083502969581807e-14,22.747212681203827,6.964988811148543e-16,-4.8430238609313896e-15,2.446118648555465e-16,1.9215330032906014e-13,-0.7000000000000002,1.2645032865950886e-17,-6.188191757477087,-8.593837314179178e-15,5.438354844218399e-16,-0.5866908426271427,-2.2,-1.514049889066172e-17,21.73617614806056,-4.381949348264604e-15,1.6026180639247527e-16,0.632207320426571,1.600000000000001,4.998406418908901e-16,2.436536792295569,0.7999999999999998,7.46254726355564e-17,-0.003196257574949264
0.23,pd_gc_low_gain,1.0833745452992432e-14,22.747212681203827,4.005731975084308e-15,-4.842498901004983e-15,2.6247996320330883e-16,1.9200867138326675e-13,-0.7000000000000002,2.0186150752975932e-17,-6.188191757477087,-8.592691150969066e-15,5.730816050558353e-16,-0.5866908426271429,-2.2,-8.417659838720136e-18,21.73617614806056,-4.381601898813265e-15,1.737247256697504e-16,0.632207320426571,1.600000000000001,4.526598835138699e-16,2.436536792295565,0.7999999999999998,8.290299231594797e-17,-0.003196257574949299
0.232,pd_gc_low_gain,1.0832395260048896e-14,22.747212681203827,2.1592251380675463e-16,-4.841942784390282e-15,2.7805830735058298e-16,1.9186259629777615e-13,-0.7000000000000002,2.7717261430852683e-17,-6.188191757477087,-8.591492610059042e-15,5.992704550116698e-16,-0.586690842627143,-2.2,-1.6950149816081473e-18,21.73617614806056,-4.381228521265228e-15,1.8668877401863808e-16,0.6322073204265709,1.600000000000001,4.0563060979232984e-16,2.436536792295565,0.7999999999999998,9.101892650490077e-17,-0.0031962575749493244
0.234,pd_gc_low_gain,1.083098548896039e-14,22.747212681203827,5.258831176661657e-16,-4.841359019302915e-15,2.9188254368358344e-16,1.917313032241572e-13,-0.7000000000000002,3.5236063839668106e-17,-6.188191757477087,-8.590247364996207e-15,6.226225314175147e-16,-0.5866908426271432,-2.2,4.902555505317845e-18,21.73617614806056,-4.380829966808455e-15,1.9927722838646236e-16,0.6322073204265708,1.600000000000001,3.603623572574257e-16,2.4365367922955654,0.7999999999999998,9.898741980328452e-17,-0.003196257574949346
0.23600000000000002,pd_gc_low_gain,1.0829522442074288e-14,22.747212681203827,2.5345857411490323e-16,-4.840750429685567e-15,3.0429480867408415e-16,1.9161118296633152e-13,-0.7000000000000002,4.2747961051955436e-17,-6.188191757477087,-8.58896071318683e-15,6.433259046883869e-16,-0.5866908426271434,-2.2,1.1507096694993711e-17,21.73617614806056,-4.380408308576862e-15,2.1082911579661558e-16,0.6322073204265708,1.600000000000001,3.152145830822603e-16,2.4365367922955654,0.7999999999999998,1.068161084917958e-16,-0.0031962575749493686
0.23800000000000002,pd_gc_low_gain,1.0828011813279599e-14,22.747212681203827,2.727317484817161e-16,-4.840119762821556e-15,3.153334320052496e-16,1.9149995352670407e-13,-0.7000000000000002,5.0255350758382594e-17,-6.188191757477087,-8.587636718542911e-15,6.619973219593137e-16,-0.5866908426271435,-2.2,1.812932372344588e-17,21.73617614806056,-4.3799666188256116e-15,2.2084487562524974e-16,0.6322073204265706,1.600000000000001,2.70173166201738e-16,2.4365367922955654,0.7999999999999998,1.1451124730446392e-16,-0.003196257574949388
0.24,pd_gc_low_gain,1.0826458398102731e-14,22.747212681203827,2.455578202363597e-16,-4.839469242752224e-15,3.25260034666026e-16,1.913974564888255e-13,-0.7000000000000002,5.775904736630838e-17,-6.188191757477087,-8.586279431851522e-15,6.786433456946002e-16,-0.5866908426271438,-2.2,2.475732340273071e-17,21.73617614806056,-4.37950635278615e-15,2.301330197307243e-16,0.6322073204265706,1.600000000000001,2.252289277502195e-16,2.4365367922955654,0.7999999999999998,1.220790518952572e-16,-0.0031962575749494102
0.242,pd_gc_low_gain,1.0824866759524685e-14,22.747212681203827,5.635762064593908e-16,-4.838800957965168e-15,3.341423935278678e-16,1.913019494674268e-13,-0.7000000000000002,6.52542792328215e-17,-6.188191757477087,-8.584892133857644e-15,6.936489969384079e-16,-0.5866908426271438,-2.2,3.1276400189321374e-17,21.73617614806056,-4.379030050400813e-15,2.381511926686954e-16,0.6322073204265702,1.600000000000001,1.8199604651037914e-16,2.436536792295566,0.7999999999999998,1.2953165521972153e-16,-0.003196257574949429
0.244,pd_gc_low_gain,1.0823240559241835e-14,22.747212681203827,8.99679522773595e-16,-4.8381167563549e-15,3.42100805134103e-16,1.9121304156391165e-13,-0.7000000000000002,7.200531536472679e-17,-6.188191757477088,-8.583477871373506e-15,7.071312420691326e-16,-0.5866908426271439,-2.2,3.7335485606769966e-17,21.73617614806056,-4.378538748071459e-15,2.4565116467684746e-16,0.6322073204265702,1.600000000000001,1.4047839310370367e-16,2.436536792295566,0.7999999999999998,1.368709313595125e-16,-0.003196257574949447
0.246,pd_gc_low_gain,1.0821583197407994e-14,22.747212681203827,1.4009177674208315e-16,-4.837418216371943e-15,3.492699914784303e-16,1.9112996461825727e-13,-0.7000000000000002,7.875507948122095e-17,-6.188191757477088,-8.582039365425167e-15,7.192529741694216e-16,-0.586690842627144,-2.2,4.340200169372679e-17,21.73617614806056,-4.378033772169317e-15,2.5248795107085e-16,0.6322073204265702,1.600000000000001,9.903122657412266e-17,2.436536792295566,0.7999999999999998,1.4409802807854726e-16,-0.003196257574949467
0.248,pd_gc_low_gain,1.081989776141256e-14,22.747212681203827,1.3697218696896944e-16,-4.836706751115456e-15,3.5573262824323633e-16,1.910518387145287e-13,-0.7000000000000002,8.550378533371566e-17,-6.188191757477088,-8.58057905439794e-15,7.301555136131048e-16,-0.5866908426271441,-2.2,4.947594310026133e-17,21.73617614806056,-4.377516412760597e-15,2.586797043600884e-16,0.6322073204265702,1.600000000000001,5.764759899078342e-17,2.436536792295566,0.7999999999999998,1.5121732467158373e-16,-0.0031962575749494852
0.25,pd_gc_low_gain,1.0818187491648017e-14,22.747212681203827,4.77073698627362e-16,-4.835983508338566e-15,3.6162138844506014e-16,1.9097814164691558e-13,-0.7000000000000002,9.224454482482632e-17,-6.188191757477088,-8.579099367964786e-15,7.398432165773003e-16,-0.5866908426271442,-2.2,5.543664381114482e-17,21.73617614806056,-4.3769886483448424e-15,2.6388220787720726e-16,0.6322073204265701,1.600000000000001,1.7946315379631766e-17,2.4365367922955663,0.7999999999999998,1.5823729519834724e-16,-0.0031962575749495026
0.252,pd_gc_low_gain,1.081645461585539e-14,22.747212681203827,1.325265255104041e-16,-4.835249760055029e-15,3.66874141768303e-16,1.909079906144272e-13,-0.7000000000000002,9.898527381987276e-17,-6.188191757477088,-8.577602154650432e-15,7.486066571766641e-16,-0.5866908426271442,-2.2,6.140051467018722e-17,21.73617614806056,-4.3764509563012105e-15,2.688460218158915e-16,0.63220732042657,1.600000000000001,-2.1702544734711456e-17,2.4365367922955663,0.7999999999999998,1.651550926806555e-16,-0.0031962575749495204
0.254,pd_gc_low_gain,1.081470127825898e-14,22.747212681203827,2.574925901685102e-16,-4.834506540590001e-15,3.716097325139942e-16,1.9084187140982306e-13,-0.7000000000000002,1.0572601906695794e-16,-6.188191757477088,-8.576089123763021e-15,7.565154437052604e-16,-0.5866908426271444,-2.2,6.736957513329395e-17,21.73617614806056,-4.3759041431307554e-15,2.7340658522748186e-16,0.6322073204265699,1.600000000000001,-6.130434732597182e-17,2.4365367922955663,0.7999999999999998,1.719749179284442e-16,-0.0031962575749495377
0.256,pd_gc_low_gain,1.0812929444012697e-14,22.747212681203827,1.2870762213549048e-16,-4.8337547586084825e-15,3.758909907592503e-16,1.9077899349600208e-13,-0.7000000000000002,1.124668608411203e-16,-6.188191757477088,-8.57456182339541e-15,7.636501838059031e-16,-0.5866908426271445,-2.2,7.334394834859145e-17,21.73617614806056,-4.3753490275888756e-15,2.7755777094007196e-16,0.6322073204265699,1.600000000000001,-1.0086359434446351e-16,2.4365367922955663,0.7999999999999998,1.7870022135924825e-16,-0.0031962575749495546
0.258,pd_gc_low_gain,1.0811141198628451e-14,22.747212681203827,4.61926819838772e-16,-4.8329952058520916e-15,3.797763781953683e-16,1.9071895340902456e-13,-0.7000000000000002,1.1920170619385803e-16,-6.188191757477088,-8.573021634311654e-15,7.700945418777516e-16,-0.5866908426271447,-2.2,7.920465165795281e-17,21.73617614806056,-4.374787182954485e-15,2.8092231719528504e-16,0.6322073204265699,1.600000000000001,-1.3875961576604195e-16,2.4365367922955667,0.7999999999999998,1.8533943841528582e-16,-0.00319625757494957
0.26,pd_gc_low_gain,1.0809338232317078e-14,22.747212681203827,1.2598327061127826e-16,-4.8322286193410805e-15,3.832932555056456e-16,1.9066137358671608e-13,-0.7000000000000002,1.2593660837423343e-16,-6.188191757477088,-8.571469809926242e-15,7.759121927061465e-16,-0.5866908426271447,-2.2,8.507134228126705e-17,21.73617614806056,-4.374219515548122e-15,2.838337031813963e-16,0.6322073204265698,1.600000000000001,-1.7662079627909236e-16,2.4365367922955667,0.7999999999999998,1.918886746656031e-16,-0.003196257574949585
0.262,pd_gc_low_gain,1.080752170789062e-14,22.747212681203827,5.721428940361083e-17,-4.831455687467386e-15,3.864659368469786e-16,1.9060609198510369e-13,-0.7000000000000002,1.326723892665038e-16,-6.188191757477088,-8.569907500999234e-15,7.811544635043191e-16,-0.5866908426271447,-2.2,9.093735839509092e-17,21.73617614806056,-4.373645883300277e-15,2.86816123922452e-16,0.6322073204265698,1.600000000000001,-2.1444938409131066e-16,2.4365367922955667,0.7999999999999998,1.9835008220552906e-16,-0.0031962575749495997
0.264,pd_gc_low_gain,1.0805692846952677e-14,22.747212681203827,1.239586530505698e-16,-4.8306769989196735e-15,3.893442738565857e-16,1.905529659407666e-13,-0.7000000000000002,1.394088138071897e-16,-6.188191757477088,-8.56833573147229e-15,7.858847634718998e-16,-0.5866908426271448,-2.2,9.680603143819824e-17,21.73617614806056,-4.3730666481537e-15,2.8961757328859807e-16,0.6322073204265698,1.600000000000001,-2.522488260033048e-16,2.4365367922955667,0.7999999999999998,2.0472525465944645e-16,-0.0031962575749496145
0.266,pd_gc_low_gain,1.0803852642284798e-14,22.747212681203827,1.233478876333054e-16,-4.829893183314342e-15,3.9190780266605196e-16,1.9050167003979084e-13,-0.7000000000000002,1.461412065933381e-16,-6.188191757477088,-8.566755161841306e-15,7.902848154922846e-16,-0.5866908426271448,-2.2,1.0255558215822884e-16,21.73617614806056,-4.372482273568362e-15,2.921872926692157e-16,0.6322073204265697,1.600000000000001,-2.8839673525661755e-16,2.4365367922955667,0.7999999999999998,2.1102242848619484e-16,-0.0031962575749496305
0.268,pd_gc_low_gain,1.0802002187670197e-14,22.747212681203827,4.605752694273222e-16,-4.8291046148169735e-15,3.94284248684038e-16,1.904523727139113e-13,-0.7000000000000002,1.528684794192895e-16,-6.188191757477088,-8.565166743528049e-15,7.942091566284763e-16,-0.5866908426271449,-2.2,1.0818382668465769e-16,21.73617614806056,-4.371893184739606e-15,2.9454441437771205e-16,0.6322073204265697,1.600000000000001,-3.228951044311704e-16,2.436536792295567,0.7999999999999998,2.172416045321608e-16,-0.003196257574949643
0.27,pd_gc_low_gain,1.0800142463067072e-14,22.747212681203827,1.2186827383961153e-16,-4.828311707730972e-15,3.964535430008782e-16,1.9040419485189066e-13,-0.7000000000000002,1.595961918491245e-16,-6.188191757477088,-8.563571270908158e-15,7.977363099455551e-16,-0.586690842627145,-2.2,1.1381486715877174e-16,21.73617614806056,-4.371299788991294e-15,2.9669787415631756e-16,0.6322073204265697,1.600000000000001,-3.5737148233519755e-16,2.436536792295567,0.7999999999999998,2.2338042030789465e-16,-0.0031962575749496574
0.272,pd_gc_low_gain,1.0798274192702762e-14,22.747212681203827,4.8447807466247524e-17,-4.827514952801335e-15,3.9837746481830116e-16,1.9035729350823272e-13,-0.7000000000000002,1.663253553196156e-16,-6.188191757477088,-8.561969182777875e-15,8.010440651419011e-16,-0.586690842627145,-2.2,1.1945011244261227e-16,21.73617614806056,-4.370702473980397e-15,2.9865750544853163e-16,0.6322073204265697,1.600000000000001,-3.918280996454661e-16,2.436536792295567,0.7999999999999998,2.2944209585527817e-16,-0.0031962575749496696
0.274,pd_gc_low_gain,1.0796398519993276e-14,22.747212681203827,1.6416807331473142e-16,-4.826714578659433e-15,4.001870709507635e-16,1.903119558583253e-13,-0.7000000000000002,1.7305431850208329e-16,-6.188191757477088,-8.560361209318976e-15,8.039867294492144e-16,-0.5866908426271451,-2.2,1.2509248725569318e-16,21.73617614806056,-4.370102381670573e-15,3.000461549115926e-16,0.6322073204265696,1.600000000000001,-4.262670989670387e-16,2.436536792295567,0.7999999999999998,2.354270171815171e-16,-0.003196257574949685
0.276,pd_gc_low_gain,1.0794515968044557e-14,22.747212681203827,1.202909199445908e-16,-4.825910924490251e-15,4.018270845910478e-16,1.9026727364972198e-13,-0.7000000000000002,1.7978403944019008e-16,-6.188191757477088,-8.558747976364049e-15,8.066164774640922e-16,-0.5866908426271452,-2.2,1.3073299191526648e-16,21.73617614806056,-4.369499203795009e-15,3.015889377820695e-16,0.6322073204265696,1.600000000000001,-4.606886609604611e-16,2.436536792295567,0.7999999999999998,2.413344196409922e-16,-0.0031962575749496973
0.278,pd_gc_low_gain,1.0792626987759123e-14,22.747212681203827,4.463805402615306e-16,-4.8251043853003086e-15,4.032695949712908e-16,1.902236473874727e-13,-0.7000000000000002,1.8650972053057384e-16,-6.188191757477088,-8.557129764006723e-15,8.091061786626281e-16,-0.5866908426271452,-2.2,1.3625211331158068e-16,21.73617614806056,-4.368893069352798e-15,3.030672211056723e-16,0.6322073204265696,1.600000000000001,-4.934695613795814e-16,2.4365367922955676,0.7999999999999998,2.4717419349900814e-16,-0.003196257574949709
0.28,pd_gc_low_gain,1.0790732204528741e-14,22.747212681203827,1.6332971849737233e-16,-4.824295121165895e-15,4.0463206720692408e-16,1.9018128824721333e-13,-0.7000000000000002,1.9323582971391414e-16,-6.188191757477088,-8.555507168383733e-15,8.112978114956e-16,-0.5866908426271453,-2.2,1.4177230975155446e-16,21.73617614806056,-4.368284178840653e-15,3.044452560724973e-16,0.6322073204265695,1.600000000000001,-5.26236274112033e-16,2.4365367922955676,0.7999999999999998,2.529397192983824e-16,-0.003196257574949724
0.28200000000000003,pd_gc_low_gain,1.078883220384284e-14,22.747212681203827,8.961418793851832e-16,-4.823483374924884e-15,4.0587312050521444e-16,1.9013938037618731e-13,-0.7000000000000002,1.9922517947121403e-16,-6.188191757477089,-8.553880677300418e-15,8.132455416573895e-16,-0.5866908426271454,-2.2,1.469526432826523e-16,21.73617614806056,-4.3676727549843424e-15,3.0571192815529235e-16,0.6322073204265695,1.600000000000001,-5.589788281004258e-16,2.4365367922955676,0.7999999999999998,2.586341045027958e-16,-0.0031962575749497355
0.28400000000000003,pd_gc_low_gain,1.078692732608656e-14,22.747212681203827,4.2790497120269185e-17,-4.822669457266071e-15,4.069588294065594e-16,1.9009822315345886e-13,-0.7000000000000002,2.0521598736655818e-16,-6.188191757477089,-8.552250435066113e-15,8.151211171524439e-16,-0.5866908426271454,-2.2,1.5213604937555784e-16,21.73617614806056,-4.367059012855655e-15,3.0687106434355315e-16,0.6322073204265695,1.600000000000001,-5.9170981919145725e-16,2.4365367922955676,0.7999999999999998,2.6425753550083963e-16,-0.003196257574949747
0.28600000000000003,pd_gc_low_gain,1.0785018063673968e-14,22.747212681203827,1.1877617971892307e-16,-4.821853463162718e-15,4.0799705167661476e-16,1.9005806648479691e-13,-0.7000000000000002,2.112071699474345e-16,-6.188191757477089,-8.55061692143709e-15,8.167568145117244e-16,-0.5866908426271455,-2.2,1.573203328113452e-16,21.73617614806056,-4.36644312433124e-15,3.0794426220746553e-16,0.6322073204265695,1.600000000000001,-6.244298424187881e-16,2.4365367922955676,0.7999999999999998,2.6981120281230705e-16,-0.00319625757494976
0.28800000000000003,pd_gc_low_gain,1.0783104851776857e-14,22.747212681203827,4.596208454541107e-16,-4.821035561821059e-15,4.0895067082941437e-16,1.900181591647724e-13,-0.7000000000000002,2.1719310721400636e-16,-6.188191757477089,-8.548980508451873e-15,8.182064926087037e-16,-0.5866908426271457,-2.2,1.623818448610235e-16,21.73617614806056,-4.36582524888556e-15,3.0893772283998595e-16,0.6322073204265695,1.600000000000001,-6.555143606578983e-16,2.436536792295568,0.7999999999999998,2.753016150487164e-16,-0.003196257574949771
0.29,pd_gc_low_gain,1.0781187923709372e-14,22.747212681203827,4.097344135838051e-17,-4.8202160183554096e-15,4.0977173282487983e-16,1.8997876777703646e-13,-0.7000000000000002,2.2318039146487687e-16,-6.188191757477089,-8.547341250158893e-15,8.196291464897007e-16,-0.5866908426271457,-2.2,1.6744612734862461e-16,21.73617614806056,-4.36520556419572e-15,3.0984234491989137e-16,0.6322073204265695,1.600000000000001,-6.865899577062152e-16,2.436536792295568,0.7999999999999998,2.8072357158343893e-16,-0.0031962575749497823
0.292,pd_gc_low_gain,1.0779267979829221e-14,22.747212681203827,1.6215602039024444e-16,-4.819394861110408e-15,4.1057862250063465e-16,1.899402386044422e-13,-0.7000000000000002,2.291617701181334e-16,-6.188191757477089,-8.545699531739863e-15,8.208592095155305e-16,-0.5866908426271458,-2.2,1.723922833173175e-16,21.73617614806056,-4.364585014468339e-15,3.1027486369068143e-16,0.6322073204265694,1.600000000000001,-7.160323483270706e-16,2.436536792295568,0.7999999999999998,2.860851683054988e-16,-0.003196257574949795
0.294,pd_gc_low_gain,1.077734498948029e-14,22.747212681203827,3.9876828350126596e-17,-4.818572343209762e-15,4.1125895032302724e-16,1.8990174408691187e-13,-0.7000000000000002,2.351447273294054e-16,-6.188191757477089,-8.54405540641321e-15,8.220626633260848e-16,-0.5866908426271458,-2.2,1.7733689587432723e-16,21.73617614806056,-4.363963140231303e-15,3.10937118517857e-16,0.6322073204265694,1.600000000000001,-7.454665713819273e-16,2.436536792295568,0.7999999999999998,2.913815243086894e-16,-0.0031962575749498053
0.296,pd_gc_low_gain,1.0775419242637696e-14,22.747212681203827,1.62096341121729e-16,-4.8177484887481575e-15,4.1192723080239345e-16,1.898640810761293e-13,-0.7000000000000002,2.411279720951578e-16,-6.188191757477089,-8.542409252453011e-15,8.230769800994665e-16,-0.5866908426271459,-2.2,1.822807615932456e-16,21.73617614806056,-4.363339890382495e-15,3.1162492440413103e-16,0.6322073204265692,1.600000000000001,-7.748933346968819e-16,2.436536792295568,0.7999999999999998,2.9661246843147513e-16,-0.0031962575749498196
0.298,pd_gc_low_gain,1.0773490869784657e-14,22.747212681203827,3.904499529149174e-17,-4.816923497814432e-15,4.1249546686268763e-16,1.8982644893430956e-13,-0.7000000000000002,2.471123699665876e-16,-6.188191757477089,-8.54076108017156e-15,8.240861407258205e-16,-0.5866908426271459,-2.2,1.872264962612542e-16,21.73617614806056,-4.362715346041917e-15,3.1227217028856053e-16,0.6322073204265692,1.600000000000001,-8.043136453711736e-16,2.436536792295568,0.7999999999999998,3.0178070270231045e-16,-0.00319625757494983
0.3,pd_gc_low_gain,1.0771560176784154e-14,22.747212681203827,4.725915605590049e-16,-4.816097378394878e-15,4.130597097770925e-16,1.8978947164453848e-13,-0.7000000000000002,2.5309126973472556e-16,-6.188191757477089,-8.539111235708972e-15,8.249222312933149e-16,-0.586690842627146,-2.2,1.920482988057768e-16,21.73617614806056,-4.362089576076517e-15,3.1288498270002885e-16,0.6322073204265694,1.600000000000001,-8.321022643664491e-16,2.4365367922955685,0.7999999999999998,3.06890255263961e-16,-0.0031962575749498404
0.302,pd_gc_low_gain,1.076962742811955e-14,22.747212681203827,1.1744801755660408e-16,-4.8152702163694245e-15,4.1358101272682337e-16,1.8975247716735547e-13,-0.7000000000000002,2.5907025973657424e-16,-6.188191757477089,-8.537459958476608e-15,8.256386161821919e-16,-0.5866908426271461,-2.2,1.9687056857796783e-16,21.73617614806056,-4.361462670124032e-15,3.134529762429847e-16,0.6322073204265694,1.600000000000001,-8.598851303866715e-16,2.4365367922955685,0.7999999999999998,3.11938247767704e-16,-0.0031962575749498504
0.304,pd_gc_low_gain,1.0767692699294462e-14,22.747212681203827,1.1740438506815864e-16,-4.8144422057702475e-15,4.1400529958845783e-16,1.897157415656892e-13,-0.7000000000000002,2.6505036602216575e-16,-6.188191757477089,-8.535807182031025e-15,8.263882227913189e-16,-0.5866908426271462,-2.2,2.016949424818596e-16,21.73617614806056,-4.360834730478937e-15,3.1396982254745805e-16,0.6322073204265694,1.600000000000001,-8.876630230730609e-16,2.4365367922955685,0.7999999999999998,3.169257194068338e-16,-0.003196257574949861
0.306,pd_gc_low_gain,1.0765756238560914e-14,22.747212681203827,1.1732681103225014e-16,-4.813613331058152e-15,4.144373560477871e-16,1.896796511336907e-13,-0.7000000000000002,2.710305458719899e-16,-6.188191757477089,-8.534153195247597e-15,8.269933917138389e-16,-0.5866908426271462,-2.2,2.0651927600867148e-16,21.73617614806056,-4.360205821844202e-15,3.1445431736739837e-16,0.6322073204265692,1.600000000000001,-9.154359801714965e-16,2.4365367922955685,0.7999999999999998,3.2185200544854254e-16,-0.0031962575749498725
0.308,pd_gc_low_gain,1.0763818102971336e-14,22.747212681203827,3.741628104683849e-17,-4.812783755176796e-15,4.147879406782718e-16,1.8964347174999157e-13,-0.7000000000000002,2.770117398426738e-16,-6.188191757477089,-8.532497935202868e-15,8.276300223640329e-16,-0.5866908426271462,-2.2,2.113454315327509e-16,21.73617614806056,-4.359576028370759e-15,3.14896736721447e-16,0.6322073204265692,1.600000000000001,-9.432046925527172e-16,2.4365367922955685,0.7999999999999998,3.267213560780682e-16,-0.003196257574949882
0.31,pd_gc_low_gain,1.0761878521928953e-14,22.747212681203827,1.1702756237029014e-16,-4.811953448399345e-15,4.151533887252754e-16,1.8960783462232392e-13,-0.7000000000000002,2.8299290464456014e-16,-6.188191757477089,-8.530841681858994e-15,8.281266719371033e-16,-0.5866908426271463,-2.2,2.1617135666498997e-16,21.73617614806056,-4.358945401341584e-15,3.1531351458744704e-16,0.6322073204265692,1.600000000000001,-9.709691464003806e-16,2.4365367922955685,0.7999999999999998,3.315313630095059e-16,-0.003196257574949892
0.312,pd_gc_low_gain,1.0759937841557786e-14,22.747212681203827,1.170320638718439e-16,-4.8111225394378596e-15,4.154544807426552e-16,1.8957206421489687e-13,-0.7000000000000002,2.889743907477236e-16,-6.188191757477089,-8.529184342771845e-15,8.286695435745677e-16,-0.5866908426271463,-2.2,2.2100421545375277e-16,21.73617614806056,-4.3583148341236405e-15,3.152836089714641e-16,0.6322073204265691,1.600000000000001,-9.987307771333087e-16,2.4365367922955685,0.7999999999999998,3.362851767591719e-16,-0.0031962575749499016
0.314,pd_gc_low_gain,1.0757996053526343e-14,22.747212681203827,4.724482600183712e-16,-4.810291023904547e-15,4.1575776665620335e-16,1.8953672021231582e-13,-0.7000000000000002,2.9495055166158314e-16,-6.188191757477089,-8.527526202166611e-15,8.290703026169248e-16,-0.5866908426271464,-2.2,2.2570885931634694e-16,21.73617614806056,-4.35768375470501e-15,3.155397093153587e-16,0.6322073204265692,1.600000000000001,-1.0248626958246191e-15,2.436536792295569,0.7999999999999998,3.4098557548382e-16,-0.003196257574949911
0.316,pd_gc_low_gain,1.0756053119983658e-14,22.747212681203827,3.6647387899265126e-17,-4.809459044470904e-15,4.159897168215537e-16,1.8950133658958847e-13,-0.7000000000000002,3.009277115050481e-16,-6.188191757477089,-8.52586717668956e-15,8.295127385257685e-16,-0.5866908426271464,-2.2,2.304140948102199e-16,21.73617614806056,-4.357052075261574e-15,3.1583972171793634e-16,0.6322073204265692,1.600000000000001,-1.0509914028062891e-15,2.436536792295569,0.7999999999999998,3.4562921175155993e-16,-0.0031962575749499207
0.318,pd_gc_low_gain,1.0754109217971154e-14,22.747212681203827,2.249554553577889e-16,-4.8086265516786605e-15,4.1624639612187974e-16,1.8946643376108528e-13,-0.7000000000000002,3.069047700042262e-16,-6.188191757477089,-8.52420752071868e-15,8.298279854396539e-16,-0.5866908426271467,-2.2,2.351186407470421e-16,21.73617614806056,-4.356419789677366e-15,3.161427921041912e-16,0.6322073204265692,1.600000000000001,-1.0771168979830653e-15,2.436536792295569,0.7999999999999998,3.5021716315863024e-16,-0.0031962575749499298
0.32,pd_gc_low_gain,1.0752164500673886e-14,22.747212681203827,1.1694128039509115e-16,-4.807793583032761e-15,4.1648432294998714e-16,1.8943133729429327e-13,-0.7000000000000002,3.1288171926331125e-16,-6.188191757477089,-8.52254739128622e-15,8.30064716229918e-16,-0.5866908426271467,-2.2,2.398231069805165e-16,21.73617614806056,-4.355786927457257e-15,3.164311100546025e-16,0.6322073204265691,1.600000000000001,-1.1032394648580272e-15,2.436536792295569,0.7999999999999998,3.5474942608025025e-16,-0.0031962575749499406
0.322,pd_gc_low_gain,1.0750218944559263e-14,22.747212681203827,3.615023491299064e-17,-4.806960287753542e-15,4.1664763960921133e-16,1.8939635306066053e-13,-0.7000000000000002,3.1885959259050443e-16,-6.188191757477089,-8.520886646166558e-15,8.303725598313771e-16,-0.5866908426271467,-2.2,2.4452922769592686e-16,21.73617614806056,-4.355153544104735e-15,3.1669167626100487e-16,0.6322073204265691,1.600000000000001,-1.1293596645117591e-15,2.436536792295569,0.7999999999999998,3.59228689991934e-16,-0.0031962575749499497
0.324,pd_gc_low_gain,1.074827273228687e-14,22.747212681203827,9.228941141002285e-16,-4.8061266292632154e-15,4.168292451633699e-16,1.8936187803287721e-13,-0.7000000000000002,3.240946238098724e-16,-6.18819175747709,-8.519225522428007e-15,8.305618692755884e-16,-0.5866908426271469,-2.2,2.4876961829160266e-16,21.73617614806056,-4.354519667052395e-15,3.1693852617025873e-16,0.6322073204265692,1.600000000000001,-1.1538407335174833e-15,2.436536792295569,0.7999999999999998,3.6365830577103934e-16,-0.003196257574949957
0.326,pd_gc_low_gain,1.0746326434353066e-14,22.747212681203827,3.6148448099954826e-17,-4.805295346524899e-15,4.156413691581445e-16,1.8932726045438502e-13,-0.7000000000000002,3.236109679852629e-16,-6.18819175747709,-8.517566469086369e-15,8.295266708189516e-16,-0.5866908426271469,-2.2,1.2610464877987477e-16,21.73617614806056,-4.3538788904451115e-15,3.20388303641696e-16,0.6322073204265692,1.600000000000001,4.8611913008977085e-16,2.436536792295569,0.7999999999999998,3.727989981543315e-16,-0.0031962575749499675
0.328,pd_gc_low_gain,1.0744380413399197e-14,22.747212681203834,4.689429842109081e-15,-4.8044622081081305e-15,4.165692083845196e-16,1.8930232427688896e-13,-0.7000000000000002,3.2892588845940815e-16,-6.1881917574770915,-8.515906457253243e-15,8.300059165626576e-16,-0.5866908426271493,-2.2,1.3199420495053224e-16,21.736176148060565,-4.3532427053445926e-15,3.180925502593326e-16,0.632207320426569,1.600000000000001,4.4050413892809965e-16,2.4365367922955685,0.7999999999999998,3.7702281413932997e-16,-0.0031962575749499927
0.33,pd_gc_low_gain,1.074243360850844e-14,22.747212681203834,4.596032818216712e-16,-4.803628379208135e-15,4.169144499979108e-16,1.8926250386563358e-13,-0.7000000000000002,3.342340935292563e-16,-6.1881917574770915,-8.514245407429583e-15,8.305249118299496e-16,-0.5866908426271492,-2.2,1.377355629573937e-16,21.736176148060565,-4.352607362417211e-15,3.1767146369073335e-16,0.632207320426569,1.600000000000001,3.9652106859324243e-16,2.436536792295569,0.7999999999999998,3.811930020728813e-16,-0.003196257574950003
0.332,pd_gc_low_gain,1.0740486346254226e-14,22.747212681203834,1.6124292796047209e-16,-4.802794031059882e-15,4.1717407412646803e-16,1.8922673401834e-13,-0.7000000000000002,3.3954003574039653e-16,-6.1881917574770915,-8.512583691464345e-15,8.308579826186635e-16,-0.5866908426271493,-2.2,1.434741710516985e-16,21.736176148060565,-4.351972751147537e-15,3.173056348370788e-16,0.6322073204265689,1.600000000000001,3.5254059551238187e-16,2.436536792295569,0.7999999999999998,3.8531043815043427e-16,-0.0031962575749500113
0.334,pd_gc_low_gain,1.0738538424670874e-14,22.747212681203834,3.6143101492745754e-17,-4.801959404687295e-15,4.173131862935012e-16,1.8919154272351001e-13,-0.7000000000000002,3.4484603327778505e-16,-6.1881917574770915,-8.510921328475903e-15,8.311814942212885e-16,-0.5866908426271493,-2.2,1.492077079559536e-16,21.736176148060565,-4.351338069604382e-15,3.173407715775508e-16,0.6322073204265689,1.600000000000001,3.085627461188204e-16,2.436536792295569,0.7999999999999998,3.8937808648608056e-16,-0.0031962575749500195
0.336,pd_gc_low_gain,1.0736589999903679e-14,22.747212681203834,1.1664465430131687e-16,-4.8011244748133344e-15,4.174649369804139e-16,1.891571838834373e-13,-0.7000000000000002,3.5015113682886615e-16,-6.1881917574770915,-8.509258632564376e-15,8.313479557633468e-16,-0.5866908426271494,-2.2,1.549385420900255e-16,21.736176148060565,-4.3507031166393166e-15,3.174764825328217e-16,0.6322073204265689,1.600000000000001,2.64587000750734e-16,2.436536792295569,0.7999999999999998,3.9339457423157703e-16,-0.0031962575749500295
0.338,pd_gc_low_gain,1.073464107189571e-14,22.747212681203834,4.590920333989746e-16,-4.800289385114923e-15,4.175448492059971e-16,1.8912272443367048e-13,-0.7000000000000002,3.554508830874411e-16,-6.1881917574770915,-8.507595533651292e-15,8.315494565417821e-16,-0.5866908426271495,-2.2,1.605459383053114e-16,21.736176148060565,-4.350067870620667e-15,3.1762300932488325e-16,0.6322073204265689,1.600000000000001,2.222381126619638e-16,2.4365367922955694,0.7999999999999998,3.973691562187751e-16,-0.0031962575749500356
0.34,pd_gc_low_gain,1.0732691814368511e-14,22.747212681203834,1.163930056652966e-16,-4.799454078309246e-15,4.176534028386184e-16,1.890887614601549e-13,-0.7000000000000002,3.6074998469624265e-16,-6.1881917574770915,-8.505932282566083e-15,8.316255426050724e-16,-0.5866908426271497,-2.2,1.6615227325466586e-16,21.736176148060565,-4.3494323328958805e-15,3.177688623932379e-16,0.6322073204265689,1.600000000000001,1.7989079923834353e-16,2.4365367922955694,0.7999999999999998,4.012949433229907e-16,-0.003196257574950044
0.342,pd_gc_low_gain,1.0730742206237251e-14,22.747212681203834,3.505243647065844e-17,-4.798618681270113e-15,4.1769851956664605e-16,1.890545893124995e-13,-0.7000000000000002,3.660439359265324e-16,-6.1881917574770915,-8.504268767534945e-15,8.317575155687323e-16,-0.5866908426271497,-2.2,1.7163569655825085e-16,21.736176148060565,-4.348796530034833e-15,3.179014305239508e-16,0.6322073204265689,1.600000000000001,1.391700151722502e-16,2.4365367922955694,0.7999999999999998,4.051791946544358e-16,-0.0031962575749500516
0.34400000000000003,pd_gc_low_gain,1.0728792397085001e-14,22.747212681203834,1.1629581577088486e-16,-4.797783124813704e-15,4.1777822820451065e-16,1.89020857613838e-13,-0.7000000000000002,3.713373921603247e-16,-6.1881917574770915,-8.502605211032983e-15,8.317782509808641e-16,-0.5866908426271498,-2.2,1.7711825669509756e-16,21.736176148060565,-4.348160472423125e-15,3.180288058538817e-16,0.6322073204265689,1.600000000000001,9.845055942593638e-17,2.4365367922955694,0.7999999999999998,4.0901660056261526e-16,-0.0031962575749500594
0.34600000000000003,pd_gc_low_gain,1.07268423451285e-14,22.747212681203834,3.4770822871148495e-17,-4.7969475242389745e-15,4.1780028736469054e-16,1.8898687739511658e-13,-0.7000000000000002,3.7663138476691346e-16,-6.1881917574770915,-8.500941478748661e-15,8.318661421606681e-16,-0.5866908426271498,-2.2,1.8260192445102684e-16,21.736176148060565,-4.347524192394604e-15,3.1814001426073066e-16,0.6322073204265689,1.600000000000001,5.773199702473041e-17,2.4365367922955694,0.7999999999999998,4.1280969697226985e-16,-0.003196257574950067
0.34800000000000003,pd_gc_low_gain,1.0724892184062582e-14,22.747212681203834,4.590529675486881e-16,-4.7961118075030346e-15,4.178583679699691e-16,1.8895329895800616e-13,-0.7000000000000002,3.8191935552975606e-16,-6.1881917574770915,-8.499277781728881e-15,8.318485098896913e-16,-0.5866908426271499,-2.2,1.8796080026657637e-16,21.736176148060565,-4.346887686648089e-15,3.18252873257457e-16,0.6322073204265689,1.600000000000001,1.864001227457362e-17,2.43653679229557,0.7999999999999998,4.165607122094157e-16,-0.0031962575749500746
0.35000000000000003,pd_gc_low_gain,1.0722942014999735e-14,22.747212681203834,1.1629759043364692e-16,-4.795275985393132e-15,4.1791105495121855e-16,1.889194637243316e-13,-0.7000000000000002,3.8720695368906453e-16,-6.1881917574770915,-8.497614233200799e-15,8.317742640411936e-16,-0.58669084262715,-2.2,1.9331931784479533e-16,21.736176148060565,-4.346250971387649e-15,3.1835763022032663e-16,0.6322073204265689,1.600000000000001,-2.0450938445845275e-17,2.43653679229557,0.7999999999999998,4.202666850408795e-16,-0.003196257574950082
0.352,pd_gc_low_gain,1.0720991760989751e-14,22.747212681203834,3.4596377358821973e-17,-4.7944401819995484e-15,4.1790169679180317e-16,1.8888566203106673e-13,-0.7000000000000002,3.9249524991420446e-16,-6.1881917574770915,-8.495950649197733e-15,8.317920015326321e-16,-0.58669084262715,-2.2,1.9867917530875824e-16,21.736176148060565,-4.345614079558979e-15,3.1844591433494216e-16,0.6322073204265689,1.600000000000001,-5.954127103844542e-17,2.43653679229557,0.7999999999999998,4.239302790983361e-16,-0.0031962575749500894
0.354,pd_gc_low_gain,1.07190415287121e-14,22.747212681203834,1.161621212307188e-16,-4.7936043169550526e-15,4.179325222479742e-16,1.8885229540243932e-13,-0.7000000000000002,3.977832361673338e-16,-6.1881917574770915,-8.494287209482203e-15,8.317198577652812e-16,-0.5866908426271501,-2.2,2.0403828719669708e-16,21.736176148060565,-4.344977011582218e-15,3.1853398838030334e-16,0.6322073204265689,1.600000000000001,-9.863069786516853e-17,2.43653679229557,0.7999999999999998,4.2754904583888104e-16,-0.0031962575749500967
0.356,pd_gc_low_gain,1.0717091553071224e-14,22.747212681203834,4.59051065656581e-16,-4.7927684716211094e-15,4.179226669715824e-16,1.8881864502246629e-13,-0.7000000000000002,4.0306569108440315e-16,-6.1881917574770915,-8.492623735479478e-15,8.317370013621144e-16,-0.5866908426271501,-2.2,2.0927989648281865e-16,21.736176148060565,-4.344340606299441e-15,3.1820264138860867e-16,0.6322073204265688,1.600000000000001,-1.360949721157638e-16,2.4365367922955703,0.7999999999999998,4.311307190928201e-16,-0.003196257574950104
0.358,pd_gc_low_gain,1.0715141723265799e-14,22.747212681203834,1.1613488509024836e-16,-4.791932591078912e-15,4.1794027109881633e-16,1.8878528019604328e-13,-0.7000000000000002,4.0834815507234397e-16,-6.1881917574770915,-8.490960428142874e-15,8.316536683016958e-16,-0.5866908426271502,-2.2,2.1451678197296802e-16,21.736176148060565,-4.343704258068847e-15,3.181741152968291e-16,0.6322073204265688,1.600000000000001,-1.7355783246718856e-16,2.4365367922955703,0.7999999999999998,4.34670423882649e-16,-0.003196257574950111
0.36,pd_gc_low_gain,1.0713191906641548e-14,22.747212681203834,3.4358761095433645e-17,-4.791096776203341e-15,4.1790743778545345e-16,1.8875172174546476e-13,-0.7000000000000002,4.1363136845085416e-16,-6.1881917574770915,-8.489297131101053e-15,8.316485209100445e-16,-0.5866908426271502,-2.2,2.1975378403532619e-16,21.736176148060565,-4.3430678340419365e-15,3.1821201345550903e-16,0.6322073204265688,1.600000000000001,-2.1102012938027615e-16,2.4365367922955703,0.7999999999999998,4.3816767331055897e-16,-0.0031962575749501184
0.362,pd_gc_low_gain,1.0711242194097137e-14,22.747212681203834,1.160884287333628e-16,-4.790260938513756e-15,4.1791884479256376e-16,1.8871851898363546e-13,-0.7000000000000002,4.1891424130458357e-16,-6.1881917574770915,-8.487634032080897e-15,8.315495100778288e-16,-0.5866908426271503,-2.2,2.249896675402492e-16,21.736176148060565,-4.342431289110364e-15,3.182724657862914e-16,0.6322073204265688,1.600000000000001,-2.4848166977115036e-16,2.4365367922955703,0.7999999999999998,4.416234934252366e-16,-0.0031962575749501254
0.364,pd_gc_low_gain,1.0709292506473967e-14,22.747212681203834,3.461757806772833e-17,-4.789425180226186e-15,4.1787914378526426e-16,1.8868500562700228e-13,-0.7000000000000002,4.241921425333812e-16,-6.1881917574770915,-8.485970971014311e-15,8.315305332931007e-16,-0.5866908426271503,-2.2,2.3010264949196736e-16,21.736176148060565,-4.341794628142103e-15,3.183304841305364e-16,0.6322073204265688,1.600000000000001,-2.843174409489584e-16,2.4365367922955703,0.7999999999999998,4.450433210114288e-16,-0.003196257574950134
0.366,pd_gc_low_gain,1.0707342949808625e-14,22.747212681203834,4.590017200327111e-16,-4.788589415314473e-15,4.178824558560588e-16,1.8865185320255057e-13,-0.7000000000000002,4.29464062607411e-16,-6.1881917574770915,-8.484308135363004e-15,8.31417825653483e-16,-0.5866908426271504,-2.2,2.35090834291258e-16,21.736176148060565,-4.3411578411979185e-15,3.1839347209225574e-16,0.6322073204265688,1.600000000000001,-3.185271455439106e-16,2.4365367922955707,0.7999999999999998,4.484281109169236e-16,-0.0031962575749501405
0.368,pd_gc_low_gain,1.070539344810164e-14,22.747212681203834,1.1616047242276528e-16,-4.787753742018083e-15,4.1783664819501083e-16,1.886183994215865e-13,-0.7000000000000002,4.3473657309891515e-16,-6.1881917574770915,-8.48264536045858e-15,8.313874522122814e-16,-0.5866908426271504,-2.2,2.4008013635190774e-16,21.736176148060565,-4.340520954305628e-15,3.1844344614553117e-16,0.6322073204265687,1.600000000000001,-3.5273660401458327e-16,2.4365367922955707,0.7999999999999998,4.517722834343117e-16,-0.0031962575749501475
0.37,pd_gc_low_gain,1.070344410553085e-14,22.747212681203834,1.160357492277014e-16,-4.786918072385965e-15,4.178348160592161e-16,1.8858529314335826e-13,-0.7000000000000002,4.4000866667148603e-16,-6.1881917574770915,-8.480982830169782e-15,8.312651443986084e-16,-0.5866908426271505,-2.2,2.450685486081463e-16,21.736176148060565,-4.339883962098462e-15,3.184961035825803e-16,0.6322073204265687,1.600000000000001,-3.8694549464672e-16,2.4365367922955707,0.7999999999999998,4.550767669342947e-16,-0.003196257574950154
0.372,pd_gc_low_gain,1.0701494844014587e-14,22.747212681203834,3.412683685641224e-17,-4.786082505799388e-15,4.177832932883436e-16,1.8855187918302407e-13,-0.7000000000000002,4.452813281941858e-16,-6.1881917574770915,-8.479320379546373e-15,8.312253117041118e-16,-0.5866908426271505,-2.2,2.50058023939736e-16,21.736176148060565,-4.339246884747143e-15,3.1853867565957073e-16,0.6322073204265687,1.600000000000001,-4.2115419449890065e-16,2.4365367922955707,0.7999999999999998,4.583423294667497e-16,-0.003196257574950161
0.374,pd_gc_low_gain,1.069954581409947e-14,22.747212681203834,9.22825290683431e-16,-4.785246989074326e-15,4.177583625307229e-16,1.8851881717895712e-13,-0.7000000000000002,4.490792619805723e-16,-6.188191757477092,-8.477658222495165e-15,8.310785256042088e-16,-0.5866908426271508,-2.2,2.543638706594345e-16,21.736176148060565,-4.338609734206922e-15,3.1857527011000276e-16,0.6322073204265688,1.600000000000001,-4.553400459622001e-16,2.4365367922955707,0.7999999999999998,4.615670462582951e-16,-0.0031962575749501657
0.376,pd_gc_low_gain,1.0697596920320222e-14,22.747212681203834,4.454081606737168e-16,-4.784411605593669e-15,4.1769174032851237e-16,1.8848557102525797e-13,-0.7000000000000002,4.528722986474662e-16,-6.188191757477092,-8.475996190950362e-15,8.310157724014944e-16,-0.5866908426271508,-2.2,2.585468168499152e-16,21.736176148060565,-4.337972511499657e-15,3.1861135363248755e-16,0.6322073204265688,1.600000000000001,-4.879003557296175e-16,2.436536792295571,0.7999999999999998,4.647593488147141e-16,-0.003196257574950174
0.378,pd_gc_low_gain,1.0695648563180541e-14,22.747212681203834,1.6054408218667803e-16,-4.7835762339645295e-15,4.1768581456957447e-16,1.8845262204144717e-13,-0.7000000000000002,4.566643714002379e-16,-6.188191757477092,-8.474334443003023e-15,8.308739736696804e-16,-0.5866908426271509,-2.2,2.6273415437099054e-16,21.736176148060565,-4.337336029255135e-15,3.182411222609084e-16,0.6322073204265687,1.600000000000001,-5.204610233657753e-16,2.436536792295571,0.7999999999999998,4.679143885997116e-16,-0.00319625757495018
0.38,pd_gc_low_gain,1.0693700435109098e-14,22.747212681203834,3.4001479573354677e-17,-4.7827410001356296e-15,4.176169144498903e-16,1.8841924865659415e-13,-0.7000000000000002,4.60457408256754e-16,-6.188191757477092,-8.472672821018116e-15,8.308109924539441e-16,-0.5866908426271509,-2.2,2.669186358321262e-16,21.736176148060565,-4.33669969805167e-15,3.1816560173225503e-16,0.6322073204265687,1.600000000000001,-5.530210147745416e-16,2.436536792295571,0.7999999999999998,4.710317316519492e-16,-0.0031962575749501865
0.382,pd_gc_low_gain,1.0691752572478534e-14,22.747212681203834,1.1596122593904202e-16,-4.781905812045619e-15,4.1759404500516877e-16,1.8838632160427595e-13,-0.7000000000000002,4.642501582250454e-16,-6.188191757477092,-8.4710115080254e-15,8.306564963577703e-16,-0.586690842627151,-2.2,2.711011918875531e-16,21.736176148060565,-4.336063351515207e-15,3.181732682317936e-16,0.6322073204265687,1.600000000000001,-5.855804550996236e-16,2.436536792295571,0.7999999999999998,4.741127579504667e-16,-0.0031962575749501926
