Ovmem/robot-control-retargeting-framework/results/panda_control/raw/ablation_pd_gc_torque_clipped.csv
t,mode,err_norm,tau_norm,tau_smoothness_step,q1,qd1,tau1,q2,qd2,tau2,q3,qd3,tau3,q4,qd4,tau4,q5,qd5,tau5,q6,qd6,tau6,q7,qd7,tau7
0.0,pd_gc_torque_clipped,3.3246644747460025e-05,12.040528693794663,0.0,-1.7500967795612428e-08,-8.750483897806213e-06,0.0,-0.7000090211935581,-0.004510596779106084,-6.188191757487909,-3.191143068944521e-07,-0.00015955715344722604,-0.5866908431074782,-2.2000313002955263,-0.015650147763142462,10.0,1.1112040882747244e-06,0.0005556020441373622,0.6322073211695401,1.6000065504452938,0.0032752226468450007,2.4365367923063985,0.7999999391277494,-3.0436125366887476e-05,-0.003196257500585149
0.002,pd_gc_torque_clipped,8.049893585617768e-05,12.004136976262872,0.06622931248058354,-1.3001927476733039e-08,2.249520159439694e-06,0.000123906851992936,-0.7000193414573966,-0.005160131919281871,-6.124184747806352,-6.187062053487636e-07,-0.0001497959492271557,-0.5847555378829963,-2.200077248780145,-0.022974242309468124,10.0,1.967702733414132e-06,0.0004282493225697038,0.628843358054293,1.6000115907207264,0.0025201377162755757,2.4199738126956554,0.799999885814045,-2.6656852148596793e-05,-0.003072796456813383
0.004,pd_gc_torque_clipped,0.00013475463655541271,11.999797344211107,0.010679612181231077,4.6182566760985164e-09,8.810092076415777e-06,-3.045312803401707e-05,-0.7000284856401716,-0.004572091387516013,-6.114160870560838,-8.325618056182397e-07,-0.00010692780013473809,-0.5848544125231036,-2.2001308462506577,-0.02679873525624715,10.0,2.5274946648710625e-06,0.00027989596572846524,0.6295849449665756,1.6000148167234938,0.0016130013836776636,2.423578292670815,0.7999998504633631,-1.767534095619252e-05,-0.0030858758559194153
0.006,pd_gc_torque_clipped,0.00019297052535676446,12.004567253080484,0.008731897972630798,2.89292549264277e-08,1.2155499125164591e-05,-0.00012371074960390875,-0.7000358791633188,-0.0036967615736035633,-6.121637792545182,-9.682935306513833e-07,-6.78658625165718e-05,-0.5853569800209487,-2.2001888303744366,-0.02899206188936791,10.0,2.8928164208459965e-06,0.00018266087798746693,0.6304612984462924,1.6000168541610147,0.001018718760436653,2.427972750950728,0.799999828458162,-1.1002600567657516e-05,-0.0031197841924171174
0.008,pd_gc_torque_clipped,0.0002536509118090669,12.011178577765659,0.012086915198770285,5.592516812849014e-08,1.3497956601031221e-05,-0.0001724913281464185,-0.7000416080550181,-0.002864445849689093,-6.1333607673640795,-1.0474017403471282e-06,-3.95541048478724e-05,-0.5858193174874634,-2.20024953167175,-0.030350648656712748,10.0,3.1392021507181322e-06,0.00012319286493606786,0.6310366835163599,1.6000181799468502,0.0006628929178068633,2.4308218853051478,0.7999998145890357,-6.934563151245255e-06,-0.0031444902965882975
0.01,pd_gc_torque_clipped,0.00031597941372956773,12.017338507533292,0.011458856522067027,8.284790022280567e-08,1.3461366047157768e-05,-0.0001934454058647163,-0.7000459494242474,-0.0021706846146201803,-6.144687180988079,-1.089240601102042e-06,-2.091943037745686e-05,-0.5861563455329972,-2.200312018609342,-0.031243468795989243,10.0,3.310957289591614e-06,8.58775694367409e-05,0.6313889975053923,1.6000190744372673,0.00044724520855910155,2.4324890358576443,0.7999998054940103,-4.547512721464895e-06,-0.003158777458339783
0.012,pd_gc_torque_clipped,0.0003794657656156866,12.022446469555508,0.009610083630914944,1.0790445429237673e-07,1.2528277034785533e-05,-0.0001950869566780332,-0.7000491985976373,-0.00162458669494678,-6.15424283193444,-1.108021342680401e-06,-9.390370789179476e-06,-0.5863794796438585,-2.200375729629639,-0.031855510148706453,10.0,3.4336260463203503e-06,6.1334378364368e-05,0.63161062779758,1.6000196962240683,0.0003108934004675499,2.4334607734603058,0.7999997992733996,-3.110305334747812e-06,-0.0031663209005475096
0.014,pd_gc_torque_clipped,0.0004437911693132205,12.026480641290338,0.007645063684684642,1.301133216851849e-07,1.110443369640408e-05,-0.0001840282348303876,-0.7000516124365929,-0.0012069194777838503,-6.161863309367601,-1.1133247666244725e-06,-2.651711972035834e-06,-0.5865185611965018,-2.2004403039045117,-0.0322871374362044,10.0,3.5225919936799727e-06,4.448297367981119e-05,0.6317571046942663,1.6000201375983885,0.00022068716009546166,2.434039035640739,0.7999997948744212,-2.199489202155186e-06,-0.0031700396872903452
0.016,pd_gc_torque_clipped,0.0005087359278149795,12.029596475050507,0.005934860835412863,1.4910297130687277e-07,9.494824810843934e-06,-0.00016587113748447194,-0.7000533972341162,-0.0008923987616471351,-6.167786418880815,-1.1112874110406642e-06,1.0186777919041692e-06,-0.586600726052699,-2.2005054981664425,-0.03259713096546939,10.0,3.5876770677609175e-06,3.2542537040472424e-05,0.6318584527237157,1.6000204551057706,0.00015875369109211661,2.4343883093679843,0.7999997916931426,-1.5906392962653355e-06,-0.0031716292782650425
0.018000000000000002,pd_gc_torque_clipped,0.0005741428150090919,12.031980697257355,0.004560335580348126,1.6490359131297733e-07,7.900310003052275e-06,-0.0001448557850563649,-0.7000547124339375,-0.0006575999106543778,-6.172341108954479,-1.1056806691973798e-06,2.8033709216421717e-06,-0.5866462546325288,-2.20057114282795,-0.032822330753834054,10.0,3.635490017001388e-06,2.3906474620235208e-05,0.6319310623068022,1.6000206852798302,0.00011508702979973219,2.4345972882159463,0.7999997893617672,-1.1656877138966952e-06,-0.0031719914768011757
0.02,pd_gc_torque_clipped,0.0006398967541300646,12.03380182281582,0.0034975072898833183,1.7777522002338265e-07,6.43581435520266e-06,-0.00012379662734777002,-0.7000556788005945,-0.00048318332851744956,-6.175836068866995,-1.0987247148538893e-06,3.477977171745233e-06,-0.5866691243910598,-2.2006371170463193,-0.03298710918467783,10.0,3.6706547998291287e-06,1.758239141387027e-05,0.6319843733347738,1.6000208527887205,8.375444516482092e-05,2.4347156255388938,0.7999997876415987,-8.60084213314598e-07,-0.003171602882654204
0.022,pd_gc_torque_clipped,0.0007059124506781946,12.035197417854974,0.0026924247707054336,1.8808515617304684e-07,5.15496807483209e-06,-0.00010432341857470786,-0.7000563867845334,-0.00035399196946218274,-6.178527505691228,-1.0916562136496723e-06,3.5342506021084862e-06,-0.5866785364512483,-2.200703333518422,-0.03310823605147969,10.0,3.6964916578655447e-06,1.2918429018208e-05,0.6320241995698597,1.6000209748334622,6.102237079707126e-05,2.4347727593765938,0.7999997863692333,-6.361827099581901e-07,-0.0031707254311198673
0.024,pd_gc_torque_clipped,0.0007721262538948519,12.036274698924402,0.0020895710885258535,1.9622950328935972e-07,4.072173558156437e-06,-8.721636554149302e-05,-0.7000569037027321,-0.0002584590993540045,-6.180616738062841,-1.0851074032943247e-06,3.274405177673739e-06,-0.586680349568251,-2.200769728637896,-0.03319755973686988,10.0,3.715422924002809e-06,9.465633068632095e-06,0.6320543506690309,1.6000210636701355,4.441833668031742e-05,2.4347872138974966,0.7999997854284595,-4.7038689512780243e-07,-0.003169512666749518
0.026000000000000002,pd_gc_torque_clipped,0.0008384904919741136,12.03711524612647,0.0016411778305683185,2.0258789129172054e-07,3.179194001180417e-06,-7.27087900773389e-05,-0.7000572794724995,-0.00018788488371796743,-6.182257609580402,-1.0793516915244703e-06,2.8778558849272614e-06,-0.5866781840563533,-2.200836255827356,-0.03326359472998141,10.0,3.7292321930227268e-06,6.90463450995891e-06,0.6320774459992256,1.600021128152327,3.224109579493099e-05,2.4347712553807868,0.7999997847345971,-3.469311842174616e-07,-0.0031680612243795646
0.028,pd_gc_torque_clipped,0.0009049693876532343,12.037780320348023,0.0013090459338911714,2.0750066719174516e-07,2.456387950012311e-06,-6.071574731986348e-05,-0.700057551030341,-0.0001357789207270777,-6.183565921349176,-1.074458809492077e-06,2.446441016196647e-06,-0.5866742053830536,-2.200902880876037,-0.03331252434066775,10.0,3.739239385103788e-06,5.0035960405305356e-06,0.6320953468346161,1.6000211747300959,2.328888435755744e-05,2.434733323494207,0.7999997842250635,-2.547668323685523e-07,-0.0031664358379944225
0.03,pd_gc_torque_clipped,0.0009715360537709359,12.0383155822205,0.0010636991350579954,2.1126015575256377e-07,1.8797442804092995e-06,-5.098948467551197e-05,-0.7000577456736893,-9.732167418733921e-05,-6.184628103053552,-1.0703904063708317e-06,2.0342015606226604e-06,-0.5866696564741221,-2.200969578611325,-0.03334886764386388,10.0,3.7464237925767466e-06,3.5922037364793576e-06,0.6321094034255206,1.6000212081265475,1.6698225751109817e-05,2.434679379818838,0.7999997838532559,-1.859037883819494e-07,-0.0031646819297451714
0.032,pd_gc_torque_clipped,0.0010381702601057591,12.038754918766134,0.0008828122105669909,2.1411008445004334e-07,1.4249643487397888e-06,-4.321723238593529e-05,-0.7000578835616645,-6.894398763353861e-05,-6.185508350426194,-1.0670572815104829e-06,1.6665624301743746e-06,-0.5866652091276918,-2.201036330491364,-0.033375940019605886,10.0,3.7515128095482435e-06,2.5445084857485227e-06,0.6321206073314931,1.6000212318107707,1.1842111679264118e-05,2.434613707702601,0.7999997835843462,-1.3445486235549022e-07,-0.00316283235488739
0.034,pd_gc_torque_clipped,0.001104856765303507,12.039123416360566,0.0007496449104249689,2.1624930321784097e-07,1.0696093838988133e-06,-3.7078307638360505e-05,-0.7000579795753542,-4.8006844851894e-05,-6.186254211271169,-1.0643523958961053e-06,1.3524428071888076e-06,-0.586661190996392,-2.2011031228499203,-0.03339617927832542,10.0,3.7550469061704948e-06,1.7670483111256834e-06,0.6321296916767871,1.600021248335391,8.262310171174403e-06,2.4345394174330424,0.7999997833922706,-9.603776114518876e-08,-0.0031609113128800936
0.036000000000000004,pd_gc_torque_clipped,0.0011715840683927474,12.039439619100813,0.0006517153496940947,2.1783740390346212e-07,7.940503428105722e-07,-3.227447563201066e-05,-0.7000580446968938,-3.256076978419048e-05,-6.186900845243768,-1.0621689059204569e-06,1.091744987824262e-06,-0.5866577293742627,-2.2011699456106197,-0.03341138034971467,10.0,3.757427622628674e-06,1.1903582290895988e-06,0.632137200432795,1.6000212595806795,5.622644268547033e-06,2.434458782063746,0.7999997832575226,-6.73739999507167e-08,-0.0031589368052866228
0.038,pd_gc_torque_clipped,0.0012383434738029735,12.03971722315306,0.0005797507523767997,2.1900084039647954e-07,5.817182465087078e-07,-2.854369711162498e-05,-0.700058087029775,-2.116644058355817e-05,-6.187474226585096,-1.06040915764492e-06,8.798741377684889e-07,-0.5866548404877815,-2.2012367913423407,-0.03342286586055272,10.0,3.758953183922377e-06,7.627806468515328e-07,0.6321435378878291,1.6000212669325147,3.6759175353426e-06,2.434373469190674,0.7999997831655108,-4.600592406066299e-08,-0.003156922288890047
0.04,pd_gc_torque_clipped,0.0013051283911861638,12.039966338993393,0.000526883413548256,2.1983879082589658e-07,4.1897521470852216e-07,-2.566412268284027e-05,-0.7000581125528353,-1.276153016178919e-05,-6.187993532989757,-1.0589883943991355e-06,7.103816228923015e-07,-0.5866524836887702,-2.20130365456407,-0.03343161086452475,10.0,3.759844986732486e-06,4.4590140505448577e-07,0.6321490046894378,1.6000212714127489,2.240117141365111e-06,2.434284705023228,0.7999997831053297,-3.009052964681117e-08,-0.003154877843198654
0.042,pd_gc_torque_clipped,0.0013719338111776768,12.040194427910516,0.00048804220050265755,2.2042839774741288e-07,2.9480346075815285e-07,-2.3452756271991034e-05,-0.7000581256770602,-6.5621124185302885e-06,-6.188472919300554,-1.057835508008473e-06,5.764431953312744e-07,-0.5866505933996875,-2.201370531232823,-0.033438334376523306,10.0,3.7602673143808155e-06,2.111638241646124e-07,0.6321538244112346,1.6000212737749873,1.1811191610107566e-06,2.4341933924299806,0.7999997830688368,-1.82464363252517e-08,-0.0031528110210292605
0.044,pd_gc_torque_clipped,0.0014387559129483917,12.040406995179385,0.00045949343097367293,2.2082925447391813e-07,2.0042836325262625e-07,-2.176152027040717e-05,-0.7000581296566,-1.989769888866983e-06,-6.188922830968258,-1.0568922506829576e-06,4.7162866275771307e-07,-0.586649097192529,-2.201437418366203,-0.033443566690047555,10.0,3.7603420125755815e-06,3.7349097382973725e-08,0.6321581632590659,1.6000212745750726,4.0004269477319947e-07,2.434100196728843,0.7999997830499583,-9.43921598019959e-09,-0.0031507274793513775
0.046,pd_gc_torque_clipped,0.0015055917704090303,12.040608102412811,0.0004384948241469149,2.2108713463086287e-07,1.2894007847236868e-07,-2.0472337443450217e-05,-0.7000581268920997,1.3822501572605501e-06,-6.189350975197907,-1.0561117463613444e-06,3.9025216080664106e-07,-0.5866479253942593,-2.2015043137640977,-0.03344769894739858,10.0,3.760159410634264e-06,-9.130097065862079e-08,0.6321621447339156,1.6000212742230115,-1.7603054209308937e-07,2.434005608416437,0.7999997830441682,-2.8950979015164225e-09,-0.003148631451531092
0.048,pd_gc_torque_clipped,0.001572439132213412,12.040800745949417,0.0004230355794627737,2.212370273490979e-07,7.494635911751605e-08,-1.949213186908219e-05,-0.7000581191545225,3.868788581882996e-06,-6.1897630383474675,-1.055456779715235e-06,3.27483323054732e-07,-0.5866470156422553,-2.201571215803435,-0.03345101966875222,10.0,3.7597864446401332e-06,-1.864829970653777e-07,0.63216586055643,1.6000212730212484,-6.00881543250991e-07,2.4339099892029843,0.7999997830480963,1.9640557566240837e-09,-0.0031465261023222997
0.05,pd_gc_torque_clipped,0.0016392962569438047,12.040987136169413,0.00041164239762773015,2.2130556809733367e-07,3.427037411788359e-08,-1.8748211215573058e-05,-0.7000581077502926,5.702114952942443e-06,-6.19016321559761,-1.0548981202086158e-06,2.7932975330960733e-07,-0.5866463145320032,-2.2016381232868008,-0.03345374168286748,10.0,3.7592726958917973e-06,-2.5687437416807546e-07,0.6321693788085198,1.600021271192888,-9.141801358462607e-07,2.4338136058689486,0.7999997830592357,5.569735215691579e-09,-0.0031444137950660395
0.052000000000000005,pd_gc_torque_clipped,0.0017061617895387452,12.041168903619047,0.00040323581355331136,2.2131296138337543e-07,3.696643020875635e-09,-1.8184230685437065e-05,-0.7000580936431343,7.053579148220042e-06,-6.190554601894592,-1.0544130065102408e-06,2.425568491874485e-07,-0.5866457776744932,-2.201705035330774,-0.03345602198662981,10.0,3.758654876959751e-06,-3.089094660232154e-07,0.6321727499994172,1.6000212689025102,-1.145188970542548e-06,2.4337166551967844,0.799999783075723,8.24364743458929e-09,-0.0031422962927887444
0.054,pd_gc_torque_clipped,0.001773034668549116,12.041347251096951,0.0003970245079833831,2.2127448651812914e-07,-1.9237432623140895e-08,-1.775678991296229e-05,-0.70005807754396,8.049587187164262e-06,-6.190939480446351,-1.053983840015106e-06,2.14583247567408e-07,-0.5866453689561136,-2.2017719512835585,-0.03345797639234288,10.0,3.7579601624886054e-06,-3.4735723557281364e-07,0.6321760115829623,1.6000212662715214,-1.3154943764580187e-06,2.4336192823443885,0.7999997830961738,1.0225415347304384e-08,-0.003140174909389333
0.056,pd_gc_torque_clipped,0.0018399140564356413,12.04152306585797,0.00039242792373191327,2.2120166738323175e-07,-3.640956744869757e-08,-1.7432634864726357e-05,-0.7000580599771833,8.783388348043846e-06,-6.191319535593649,-1.0535970939287732e-06,1.9337304316641518e-07,-0.586645059464332,-2.201838870664222,-0.03345969033169802,10.0,3.7572086608676835e-06,-3.757508104608873e-07,0.6321791913193665,1.6000212633894808,-1.4410202535684313e-06,2.4335215943913946,0.7999997831195605,1.1693365424225263e-08,-0.0031380506231496307
0.058,pd_gc_torque_clipped,0.0019067992870974537,12.041697002388235,0.00038901974723105204,2.2110317514803652e-07,-4.924611759761323e-08,-1.7186399446376774e-05,-0.7000580413296404,9.323771421293328e-06,-6.1916960098691955,-1.053242422744225e-06,1.7733559227404435e-07,-0.5866448263385108,-2.2019057931178727,-0.03346122682530322,10.0,3.75641524741717e-06,-3.967067252566252e-07,0.6321823097753514,1.600021260322454,-1.53351346534435e-06,2.433423670328968,0.7999997831451208,1.2780098622140115e-08,-0.0031359241618518006
0.06,pd_gc_torque_clipped,0.0019736898262937065,12.041869543468025,0.00038648665681392943,2.2098552103546366e-07,-5.882705628642792e-08,-1.699880836547634e-05,-0.7000580218866796,9.721480416793058e-06,-6.1920698198727555,-1.0529119474631366e-06,1.6523764054423122e-07,-0.5866446516814304,-2.2019727183825957,-0.033462632361541365,10.0,3.7555909233690564e-06,-4.1216202405691203e-07,0.6321853821822524,1.600021257119175,-1.6016395301482467e-06,2.4333255684280473,0.799999783172289,1.358414547375922e-08,-0.0031337960665024107
0.062,pd_gc_torque_clipped,0.002040585241720539,12.042041045216692,0.00038459819747661806,2.2085358547027177e-07,-6.596778259594493e-08,-1.68552628948271e-05,-0.7000580018587843,1.0013947675417107e-05,-6.192441641758854,-1.0525996892972335e-06,1.5612908295155566e-07,-0.58664452159393,-2.2020396462650624,-0.0334639412333001,10.0,3.7547438228656153e-06,-4.235502517204607e-07,0.6321884198160669,1.6000212538155933,-1.6517908679226656e-06,2.4332273316745496,0.7999997832006464,1.417867024268548e-08,-0.003131666738992483
0.064,pd_gc_torque_clipped,0.002107485180323479,12.04221177032105,0.0003831847549712747,2.2071102063292985e-07,-7.1282418670957e-08,-1.674473788127851e-05,-0.7000579814012131,1.022878561578273e-05,-6.192811974304627,-1.0523011256073622e-06,1.4928184493567284e-07,-0.586644425353202,-2.2021065766225365,-0.03346517873710706,10.0,3.7538799588378046e-06,-4.3193201390527533e-07,0.6321914310218599,1.6000212504382272,-1.6886830430630748e-06,2.4331289917786183,0.7999997832298823,1.4617968313188133e-08,-0.0031295364776798406
0.066,pd_gc_torque_clipped,0.002174389351047048,12.04238191254681,0.0003821214283734259,2.2056055564917713e-07,-7.523249187635432e-08,-1.6658927789240988e-05,-0.7000579606284878,1.0386362650339234e-05,-6.1931811854367,-1.0520128445863565e-06,1.441405105029172e-07,-0.5866443547326523,-2.2021735093496027,-0.03346636353309405,10.0,3.753003775269198e-06,-4.380917843033619e-07,0.6321944219737134,1.600021247006638,-1.7157946093170558e-06,2.4330305721322922,0.799999783259767,1.494230940068521e-08,-0.0031274055039320794
0.068,pd_gc_torque_clipped,0.0022412975116658583,12.042551614819898,0.00038131620525744156,2.204042272728265e-07,-7.816418817531857e-08,-1.659158956566521e-05,-0.7000579396250809,1.0501703458093193e-05,-6.19354954655512,-1.0517322785642578e-06,1.4028301104936802e-07,-0.5866443034503523,-2.2022404443683743,-0.033467509385913134,10.0,3.7521185559656088e-06,-4.4260965179443794e-07,0.6321973972382537,1.6000212435352548,-1.7356915957088324e-06,2.432932089991381,0.79999978329013,1.5181548726328107e-08,-0.0031252739819042086
0.07,pd_gc_torque_clipped,0.0023082094586958806,12.042720982564138,0.00038070127990176496,2.2024355379682366e-07,-8.033673800142061e-08,-1.653803954737166e-05,-0.7000579184532992,1.0585890816042186e-05,-6.19391725785415,-1.0514574992101964e-06,1.3738967703072295e-07,-0.5866442667284947,-2.202307381621272,-0.03346862644897817,10.0,3.7512267270204413e-06,-4.459144725837697e-07,0.6322003601922866,1.6000212400347211,-1.7502668674562973e-06,2.432833558085042,0.7999997833208456,1.535780728132306e-08,-0.003123142033279258
0.07200000000000001,pd_gc_torque_clipped,0.0023751250196269954,12.042890093540187,0.00038022667334415273,2.2007966586480034e-07,-8.19439660116649e-08,-1.6494769971726004e-05,-0.7000578971590998,1.0647099712624162e-05,-6.194284467001861,-1.0511870610233107e-06,1.352190934428637e-07,-0.586644240945774,-2.2023743210656956,-0.03346972221183514,10.0,3.7503300805586137e-06,-4.483232309137657e-07,0.6322033133322184,1.6000212365128876,-1.7609167095293222e-06,2.4327349858031977,0.7999997833518205,1.548747009230275e-08,-0.0031210097482134774
0.074,pd_gc_torque_clipped,0.0024420440469155665,12.043059005102993,0.0003798555395759874,2.1991340466641207e-07,-8.313059919413e-08,-1.6459157745020716e-05,-0.7000578757763795,1.0691360200120619e-05,-6.194651282919462,-1.050919882217669e-06,1.3358940282090425e-07,-0.5866442233656183,-2.2024412626700935,-0.03347080219900554,10.0,3.74942994020389e-06,-4.5007017736182597e-07,0.6322062585031741,1.6000212329755454,-1.7686710926380107e-06,2.4326363800724224,0.7999997833829858,1.5582669418019255e-08,-0.0031188771934755294
0.076,pd_gc_torque_clipped,0.0025089664133105226,12.043227759555533,0.0003795607113608539,2.19745395517834e-07,-8.400457428902415e-08,-1.6429243984595146e-05,-0.7000578543301392,1.072312013016207e-05,-6.19501778594656,-1.0506551543870226e-06,1.3236391532315563e-07,-0.5866442119254218,-2.2025082064110646,-0.033471870485510674,10.0,3.748527283420189e-06,-4.5132839185051737e-07,0.6322091970686349,1.600021229426966,-1.7742897681928635e-06,2.432537746002167,0.7999997834142906,1.5652385469075723e-08,-0.0031167444185081035
0.078,pd_gc_torque_clipped,0.0025758920081959866,12.043396388097838,0.0003793221555754275,2.1957610291061543e-07,-8.464630360928664e-08,-1.6403567601380382e-05,-0.7000578328388187,1.0745660263668131e-05,-6.195384035339464,-1.0503922742051616e-06,1.3144009093047054e-07,-0.5866442050741062,-2.2025751522712187,-0.03347293007715496,10.0,3.7476228319468035e-06,-4.522257366927238e-07,0.6322121300359589,1.6000212258702997,-1.7783331590431621e-06,2.4324390873614283,0.7999997834456971,1.5703261798863896e-08,-0.0031146114599088512
0.08,pd_gc_torque_clipped,0.00264282073471237,12.043564913740118,0.00037912509900364275,2.1940587163842838e-07,-8.511563609352288e-08,-1.638103998231922e-05,-0.7000578113160177,1.0761400482620842e-05,-6.195750074802753,-1.0501307919241903e-06,1.307411404856804e-07,-0.586644201647596,-2.202642100237601,-0.03347398319104771,10.0,3.7467171186354726e-06,-4.528566556654681e-07,0.6322150581492604,1.6000212223078705,-1.7812146446220775e-06,2.4323404069304275,0.7999997834771775,1.5740213833561377e-08,-0.0031124783447566778
0.082,pd_gc_torque_clipped,0.002709752507470548,12.043733353451477,0.0003789586465752799,2.1923495748408827e-07,-8.545707717005363e-08,-1.636085082576495e-05,-0.7000577897717664,1.0772125666241827e-05,-6.196115936569456,-1.0498703726299583e-06,1.3020964711599813e-07,-0.5866442007738094,-2.202709050300526,-0.03347503146253178,10.0,3.745810536837902e-06,-4.532908987854982e-07,0.6322179819580944,1.6000212187413922,-1.7832391495893363e-06,2.432241706759961,0.7999997835087113,1.5766875164374408e-08,-0.0031103450930877476
0.084,pd_gc_torque_clipped,0.0027766872507285316,12.043901719745028,0.0003788147631857246,2.1906355009123428e-07,-8.57036964269914e-08,-1.634239751834631e-05,-0.7000577682134618,1.0779152309590571e-05,-6.196481644411007,-1.049610767154387e-06,1.2980273778566211e-07,-0.5866442018004513,-2.2027760024527216,-0.03347607609782154,10.0,3.7449033768930504e-06,-4.535799724256292e-07,0.6322209018682503,1.6000212151721291,-1.7846315848100719e-06,2.432142988362807,0.7999997835402831,1.5785934835602666e-08,-0.0031082117197231297
0.08600000000000001,pd_gc_torque_clipped,0.002843624896922814,12.04407002184701,0.0003786875226980588,2.1889178999378077e-07,-8.588004872675815e-08,-1.6325232257320862e-05,-0.700057746646559,1.0783451422693742e-05,-6.196847215857359,-1.0493517902775709e-06,1.2948843840808743e-07,-0.5866442042403184,-2.202842956688695,-0.033477117986601114,10.0,3.7439958530800507e-06,-4.537619064998459e-07,0.6322238181793061,1.6000212116010135,-1.7855578488631273e-06,2.4320442528548365,0.7999997835718818,1.5799378117552942e-08,-0.003106078235631829
0.088,pd_gc_torque_clipped,0.002910565385477032,12.044238266559285,0.00037857255448011046,2.18719781284119e-07,-8.600435483088552e-08,-1.630902251732785e-05,-0.7000577250750806,1.0785739189189204e-05,-6.197212663834801,-1.0490933044188583e-06,1.2924292935633106e-07,-0.5866442077299491,-2.202909913004265,-0.033478157785076866,10.0,3.7430881235250186e-06,-4.538647775160872e-07,0.6322267311123799,1.6000212080287328,-1.7861403097857284e-06,2.4319455010591935,0.7999997836034992,1.580867309072828e-08,-0.003103944648920032
0.09,pd_gc_torque_clipped,0.0029775086618283957,12.044406458895438,0.00037846663496724246,2.18547601029146e-07,-8.609012748650785e-08,-1.6293521535097123e-05,-0.7000577035019929,1.0786543834467876e-05,-6.197577997873892,-1.0488352074523e-06,1.2904848327912492e-07,-0.5866442119985145,-2.2029768713962197,-0.03347919597724191,10.0,3.7421803049019377e-06,-4.5390931154045224e-07,0.6322296408306406,1.6000212044557944,-1.7864692227878712e-06,2.4318467335830616,0.799999783635129,1.58149048372525e-08,-0.0031018109655892375
0.092,pd_gc_torque_clipped,0.003044454676624716,12.044574602550037,0.00037836738669284734,2.1837530626392289e-07,-8.614738261154964e-08,-1.627854629752057e-05,-0.700057681929483,1.0786254950072816e-05,-6.197943225000569,-1.0485774236150412e-06,1.288919186294646e-07,-0.586644216844418,-2.2030438318620598,-0.033480232920063906,10.0,3.741272483287601e-06,-4.5391080716823756e-07,0.6322325474544634,1.600021200882572,-1.786611160561855e-06,2.43174795087433,0.7999997836667668,1.581887524006143e-08,-0.003099677190078268
0.094,pd_gc_torque_clipped,0.0031114033850586685,12.044742700244752,0.0003782730561468819,2.1820293918266845e-07,-8.618354062720988e-08,-1.6263961144552138e-05,-0.7000576603591633,1.0785159876354615e-05,-6.198308350393372,-1.0483198967313373e-06,1.2876344185188352e-07,-0.5866442221177128,-2.2031107943998136,-0.03348126887681754,10.0,3.740364722176058e-06,-4.5388055577162556e-07,0.6322354510726252,1.6000211973093417,-1.7866152234891959e-06,2.431649153263424,0.7999997836984092,1.5821174898220593e-08,-0.003097543325676506
0.096,pd_gc_torque_clipped,0.0031783547463085523,12.04491075398365,0.000378182350121822,2.1803053098938762e-07,-8.620409664041132e-08,-1.624966556583254e-05,-0.7000576387922222,1.0783470534507123e-05,-6.1986733778683005,-1.0480625851676823e-06,1.2865578182746951e-07,-0.5866442277069881,-2.203177759007897,-0.033482304041674515,10.0,3.739457068395306e-06,-4.5382689037586513e-07,0.6322383517505699,1.6000211937363065,-1.786517627605849e-06,2.4315503409940615,0.7999997837300536,1.582224210027466e-08,-0.0030954093748096967
0.098,pd_gc_torque_clipped,0.0032453087230684,12.045078765241522,0.0003780943147740861,2.1785810475267093e-07,-8.621311835834071e-08,-1.6235585126185253e-05,-0.7000576172295357,1.0781343222253147e-05,-6.199038310236342,-1.0478054580800684e-06,1.2856354380699303e-07,-0.5866442335295193,-2.2032447256850127,-0.03348333855783238,10.0,3.738549556474308e-06,-4.5375596049901677e-07,0.6322412495365185,1.6000211901636163,-1.7863450849946342e-06,2.431451514246079,0.7999997837616984,1.5822400403006834e-08,-0.003093275339285913
0.1,pd_gc_torque_clipped,0.0033122652811488303,12.045246735102772,0.00037800824666906635,2.176856775211181e-07,-8.621361577641776e-08,-1.6221664723196906e-05,-0.7000575956717493,1.0778893210931823e-05,-6.199403149567271,-1.0475484926250034e-06,1.284827275324361e-07,-0.5866442395238995,-2.2033116944300746,-0.03348437253089601,10.0,3.7376422118668128e-06,-4.5367230374758053e-07,0.6322441444659846,1.6000211865913818,-1.7861172967604638e-06,2.431352673152156,0.7999997837933422,1.5821886196947185e-08,-0.00309114122044675
0.10200000000000001,pd_gc_torque_clipped,0.003379224389133817,12.045414664363848,0.0003779236269552653,2.1751326189024348e-07,-8.620781543730463e-08,-1.62078635808196e-05,-0.7000575741193382,1.0776205513538328e-05,-6.199767897384118,-1.0472916718881885e-06,1.2841036840748392e-07,-0.58664424564461,-2.203378665242152,-0.03348540603874318,10.0,3.7367350533304586e-06,-4.535792681770246e-07,0.6322470365650893,1.6000211830196842,-1.78584879250588e-06,2.431253817810183,0.799999783824984,1.5820877727333127e-08,-0.003089007019278512
0.10400000000000001,pd_gc_torque_clipped,0.0034461860180878415,12.045582553608854,0.0003778400730615548,2.1734086716250542e-07,-8.619736386902848e-08,-1.6194151535097216e-05,-0.7000575525726526,1.0773342827722982e-05,-6.200132554806767,-1.0470349833472253e-06,1.2834427048161012e-07,-0.5866442518578975,-2.2034456381204293,-0.033486439138798375,10.0,3.735828094682298e-06,-4.5347932408022015e-07,0.632249925853033,1.6000211794485837,-1.785550291131559e-06,2.431154948292414,0.7999997838566231,1.581950338428011e-08,-0.003086872736530229
0.106,pd_gc_torque_clipped,0.0035131501413006487,12.045750403265234,0.0003777573027324755,2.171685002058625e-07,-8.618347832145754e-08,-1.6180506278834036e-05,-0.7000575310319498,1.0770351391489042e-05,-6.2004971226576515,-1.0467784177315335e-06,1.2828280784594382e-07,-0.5866442581387634,-2.2035126130641762,-0.03348747187340564,10.0,3.734921346094686e-06,-4.5337429380597276e-07,0.6322528123439045,1.6000211758781242,-1.785229693575059e-06,2.431056064652185,0.7999997838882588,1.581785962875633e-08,-0.0030847383727474853
0.108,pd_gc_torque_clipped,0.0035801167340645946,12.04591821364494,0.00037767510792382315,2.1699616608895054e-07,-8.616705845598861e-08,-1.6166911319968596e-05,-0.7000575094974192,1.0767265304650304e-05,-6.200861601539947,-1.0465219681771266e-06,1.2822477720348067e-07,-0.5866442644687122,-2.203579590072724,-0.033488504273782575,10.0,3.734014815051011e-06,-4.532655218375513e-07,0.6322556960480208,1.6000211723083386,-1.784892830120178e-06,2.430957166928862,0.7999997839198908,1.581601721892514e-08,-0.0030826039283464424
0.11,pd_gc_torque_clipped,0.003647085773481388,12.046085984974699,0.00037759333511804016,2.1682386855085777e-07,-8.614876904637885e-08,-1.6153354468732205e-05,-0.7000574879691998,1.0764109714884122e-05,-6.201225991895038,-1.046265629600432e-06,1.2816928834724746e-07,-0.5866442708340266,-2.20364656914545,-0.03348953636294151,10.0,3.7331085070510786e-06,-4.531539999663595e-07,0.6322585769729155,1.6000211687392507,-1.784544002277538e-06,2.4308582551515343,0.7999997839515188,1.5814027708593837e-08,-0.0030804694036402967
0.112,pd_gc_torque_clipped,0.0037140572382915143,12.046253717418411,0.00037751187114065904,2.1665161034848252e-07,-8.612910118762202e-08,-1.6139826717419317e-05,-0.7000574664473934,1.0760903167249834e-05,-6.201590294045029,-1.0460093982346313e-06,1.281156829003437e-07,-0.5866442772245863,-2.2037135502817655,-0.03349056815784649,10.0,3.732202426131771e-06,-4.5304045965371346e-07,0.6322614551240712,1.600021165170878,-1.7841863770576402e-06,2.4307593293417127,0.7999997839831426,1.5811930739186827e-08,-0.0030783347988620675
0.114,pd_gc_torque_clipped,0.003781031108723106,12.0464214110936,0.0003774306324795039,2.1647939351327831e-07,-8.610841760210696e-08,-1.6126321411251893e-05,-0.7000574449320748,1.0757659338895692e-05,-6.201954508223993,-1.0457532712862971e-06,1.2806347416706094e-07,-0.5866442836328873,-2.2037805334811074,-0.03349159967099418,10.0,3.731296575250494e-06,-4.5292544063838745e-07,0.6322643305054508,1.6000211616032334,-1.7838222942240073e-06,2.4306603895152783,0.7999997840147621,1.5809754853393283e-08,-0.0030762001141968216
0.116,pd_gc_torque_clipped,0.003848007366358666,12.046589066083659,0.0003773495576511861,2.1630721954096723e-07,-8.608698615554285e-08,-1.6112833634632767e-05,-0.7000574234232981,1.0754388314458051e-05,-6.202318634601203,-1.0454972466815343e-06,1.2801230238138548e-07,-0.5866442900533927,-2.2038475187429305,-0.03349263091159405,10.0,3.730390956568884e-06,-4.5280934080495847e-07,0.632267203119905,1.6000211580363264,-1.783453477894143e-06,2.430561435684004,0.7999997840463772,1.5807520255157003e-08,-0.003074065349785651
0.11800000000000001,pd_gc_torque_clipped,0.003914985994015689,12.046756682446736,0.00037726860121262037,2.1613508953176035e-07,-8.606500460344033e-08,-1.6099359757099778e-05,-0.7000574019211031,1.0751097531762402e-05,-6.202682673298026,-1.0452413228780383e-06,1.2796190174795156e-07,-0.5866442964820032,-2.2039145060667034,-0.03349366188642598,10.0,3.729485571661438e-06,-4.526924537228777e-07,0.6322700729694568,1.600021154470164,-1.7830812005547563e-06,2.4304624678566156,0.7999997840779877,1.5805242079147615e-08,-0.0030719305057348993
0.12,pd_gc_torque_clipped,0.003981966975640518,12.046924260222424,0.00037718772972226863,2.1596300429388703e-07,-8.604261893666512e-08,-1.6085897098092663e-05,-0.7000573804255181,1.0747792474336735e-05,-6.203046624400581,-1.0449854987262387e-06,1.279120758997878e-07,-0.5866443029156914,-2.203981495451904,-0.03349469260048186,10.0,3.728580421669796e-06,-4.525749958210388e-07,0.6322729400555254,1.600021150904751,-1.7827064009779656e-06,2.4303634860396084,0.7999997841095935,1.5802932854449552e-08,-0.0030697955821297044
0.122,pd_gc_torque_clipped,0.004048950296214151,12.047091799436563,0.0003771069184449994,2.1579096442007154e-07,-8.601993690773869e-08,-1.6072443678397652e-05,-0.7000573589365637,1.0744477186864725e-05,-6.203410487968904,-1.04472977336656e-06,1.2786267983936477e-07,-0.5866443093522272,-2.204048486898019,-0.033495723057431384,10.0,3.7276755074162253e-06,-4.5245712678536696e-07,0.6322758043790747,1.6000211473400916,-1.7823297678715026e-06,2.430264490237799,0.7999997841411947,1.580060037065043e-08,-0.0030676605790439853
0.124,pd_gc_torque_clipped,0.0041159359416657075,12.047259300104905,0.00037702614922091577,2.156189703440241e-07,-8.599703802372861e-08,-1.6058998036897383e-05,-0.7000573374542545,1.0741154652164768e-05,-6.203774264043883,-1.0444741461535278e-06,1.2781360651604618e-07,-0.5866443157899573,-2.204115480404539,-0.03349675325996964,10.0,3.726770829487454e-06,-4.5233896438577744e-07,0.6322786659407429,1.600021143776188,-1.7819518138964519e-06,2.4301654804547734,0.7999997841727912,1.5798251466555085e-08,-0.0030655254965343947
0.126,pd_gc_torque_clipped,0.004182923898796115,12.04742676223577,0.00037694540864317974,2.1544702238208403e-07,-8.597398097003169e-08,-1.6045559095189727e-05,-0.7000573159786003,1.0737827068113663e-05,-6.204137952652278,-1.044218616599819e-06,1.2776477685435392e-07,-0.586644322227674,-2.2041824759709594,-0.033497783210077674,10.0,3.725866388296822e-06,-4.5222059531579823e-07,0.6322815247409223,1.6000211402130422,-1.7815729141986388e-06,2.430066456693262,0.7999997842043829,1.5795889968239586e-08,-0.0030633903346534066
0.128,pd_gc_torque_clipped,0.004249914155208473,12.047594185831931,0.000376864686766815,2.15275120764024e-07,-8.59508090300139e-08,-1.6032126056986276e-05,-0.7000572945096082,1.0734496056296845e-05,-6.204501553810353,-1.043963184334751e-06,1.277161325340349e-07,-0.5866443286644635,-2.2042494735967777,-0.03349881290920372,10.0,3.7249621841294812e-06,-4.5210208367047795e-07,0.6322843807798247,1.6000211366506556,-1.7811933465072253e-06,2.429967418955285,0.79999978423597,1.5793519450415607e-08,-0.0030612550934389195
0.13,pd_gc_torque_clipped,0.004316906699246102,12.047761570892167,0.00037678397636221693,2.1510326565577034e-07,-8.592755412682174e-08,-1.6018698334701726e-05,-0.7000572730472826,1.0731162812680729e-05,-6.204865067526752,-1.0437078490737302e-06,1.2766763051039626e-07,-0.5866443350996796,-2.2043164732814944,-0.03349984235840625,10.0,3.7240582171762316e-06,-4.5198347662476024e-07,0.6322872340575347,1.600021133089029,-1.7808133155325678e-06,2.4298683672424084,0.7999997842675522,1.5791142563600683e-08,-0.0030591197729320342
0.132,pd_gc_torque_clipped,0.0043839015199349145,12.047928917412204,0.00037670327196651603,2.149314571761344e-07,-8.590423981796644e-08,-1.6005275494686126e-05,-0.7000572515916261,1.0727828218263142e-05,-6.205228493804354,-1.0434526105957067e-06,1.2761923901177018e-07,-0.5866443415328136,-2.204383475024611,-0.03350087155845675,10.0,3.7231544875583264e-06,-4.5186480895254297e-07,0.6322900845740306,1.600021129528163,-1.780432970389926e-06,2.429769301555812,0.7999997842991298,1.578876148630859e-08,-0.0030569843731656113
0.134,pd_gc_torque_clipped,0.004450898606932223,12.048096225385605,0.0003766225696792451,2.147596954092004e-07,-8.588088346700404e-08,-1.599185721663922e-05,-0.7000572301426403,1.0724492923054698e-05,-6.205591832641921,-1.0431974687264836e-06,1.2757093461156424e-07,-0.5866443479635284,-2.204450478825631,-0.03350190050991339,10.0,3.722250995345683e-06,-4.5174610632167486e-07,0.6322929323292232,1.6000211259680581,-1.7800524246010115e-06,2.429670221896418,0.7999997843307025,1.5786377556400237e-08,-0.0030548488941726432
0.136,pd_gc_torque_clipped,0.0045178979504787295,12.048263494804324,0.00037654186660441164,2.1458798041341367e-07,-8.585749789336615e-08,-1.5978443264197976e-05,-0.7000572087003255,1.0721157405894587e-05,-6.205955084035162,-1.0429424233264463e-06,1.275227000186236e-07,-0.5866443543915476,-2.2045174846840574,-0.033502929213178406,10.0,3.721347740570421e-06,-4.516273876311615e-07,0.6322957773229732,1.6000211224087146,-1.7796717572806654e-06,2.4295711282649646,0.7999997843622705,1.5783990155258464e-08,-0.0030527133359827268
0.138,pd_gc_torque_clipped,0.0045848995413572905,12.048430725659049,0.00037646116047063496,2.1441631222836964e-07,-8.583409252201046e-08,-1.5965033462565967e-05,-0.7000571872646815,1.0717822019920478e-05,-6.206318247977382,-1.0426874742814695e-06,1.2747452248837332e-07,-0.5866443608166731,-2.2045844925993943,-0.033503957668538524,10.0,3.7204447232367983e-06,-4.5150866681127755e-07,0.6322986195550929,1.6000211188501325,-1.779291032676606e-06,2.4294720206620135,0.7999997843938337,1.5781601882128193e-08,-0.0030505776986176035
0.14,pd_gc_torque_clipped,0.00465190337085313,12.048597917939656,0.0003763804497973695,2.1424469087972496e-07,-8.581067432234231e-08,-1.5951627682961424e-05,-0.7000571658357074,1.0714487025774725e-05,-6.206681324460331,-1.0424326214962008e-06,1.274263926343562e-07,-0.5866443672387665,-2.2046515025711466,-0.033504985876193924,10.0,3.7195419433284264e-06,-4.513899541859232e-07,0.6323014590253748,1.600021115292312,-1.7789102921718489e-06,2.429372899088067,0.7999997844253921,1.5779213029068447e-08,-0.003048441982111816
0.14200000000000002,pd_gc_torque_clipped,0.004718909430717797,12.048765071635346,0.0003762997334141355,2.1407311638287846e-07,-8.578724842325385e-08,-1.5938225829865207e-05,-0.7000571444134022,1.0711152614978892e-05,-6.207044313474511,-1.0421778648891895e-06,1.273783035056642e-07,-0.5866443736577169,-2.2047185145988193,-0.03350601383628446,10.0,3.7186394008139466e-06,-4.512712572398989e-07,0.6323042957335877,1.600021111735253,-1.7785295708689297e-06,2.4292737635435078,0.7999997844569458,1.577682326111815e-08,-0.003046306186490608
0.14400000000000002,pd_gc_torque_clipped,0.004785917713136568,12.048932186734834,0.00037621901040538013,2.1390158874566695e-07,-8.576381860576547e-08,-1.5924827832704722e-05,-0.7000571229977643,1.0707818928698262e-05,-6.207407215009463,-1.0419232043891937e-06,1.2733024999791839e-07,-0.5866443800734646,-2.204785528681917,-0.033507041548902196,10.0,3.7177370956507432e-06,-4.511525816016361e-07,0.6323071296794807,1.6000211081789553,-1.7781488913584038e-06,2.429174614028686,0.7999997844884946,1.577443427213876e-08,-0.0030441703117767183
0.146,pd_gc_torque_clipped,0.004852928210698974,12.049099263226486,0.0003761382801611109,2.1373010797033986e-07,-8.574038766353839e-08,-1.5911433639172636e-05,-0.7000571015887922,1.0704486071362655e-05,-6.207770029054075,-1.0416686399324935e-06,1.2728222835011235e-07,-0.5866443864859374,-2.2048525448199454,-0.03350806901410424,10.0,3.7168350277879277e-06,-4.510339314077742e-07,0.6323099608627979,1.6000211046234187,-1.7777682711361997e-06,2.4290754505438907,0.7999997845200387,1.57720443054005e-08,-0.0030420343580010406
0.148,pd_gc_torque_clipped,0.004919940916370896,12.04926630109841,0.00037605754223597835,2.1355867405506174e-07,-8.571695763906456e-08,-1.589804321033765e-05,-0.7000570801864839,1.0701154119477705e-05,-6.2081327555967665,-1.0414141714609407e-06,1.272342357764491e-07,-0.5866443928950975,-2.2049195630124094,-0.03350909623192394,10.0,3.7159331971686454e-06,-4.50915309641079e-07,0.6323127892832692,1.6000211010686434,-1.7773877257144502e-06,2.428976273089394,0.799999784551578,1.576965442744302e-08,-0.0030398983251805614
0.15,pd_gc_torque_clipped,0.0049869558234688655,12.049433300338528,0.00037597679626694917,2.1338728699496633e-07,-8.569353004770273e-08,-1.5884656517458035e-05,-0.7000570587908377,1.0697823129345855e-05,-6.208495394625571,-1.041159798920497e-06,1.271862702219225e-07,-0.5866443993009094,-2.204986583258814,-0.03351012320237614,10.0,3.7150316037316073e-06,-4.507967185190205e-07,0.6323156149406206,1.600021097514629,-1.777007261848606e-06,2.4288770816654446,0.7999997845831126,1.5767264893346376e-08,-0.003037762213343631
0.152,pd_gc_torque_clipped,0.00505397292563814,12.049600260934612,0.0003758960420066763,2.1321594678296434e-07,-8.567010600100111e-08,-1.587127353892947e-05,-0.7000570374018514,1.069449314245175e-05,-6.208857946128255,-1.0409055222601318e-06,1.2713833018253228e-07,-0.5866444057033755,-2.205053605558665,-0.03351114992546109,10.0,3.714130247412187e-06,-4.506781597102997e-07,0.6323184378345763,1.6000210939613753,-1.77662688932644e-06,2.4287778762722616,0.7999997846146424,1.576487600300674e-08,-0.003035626022515317
0.154,pd_gc_torque_clipped,0.005120992216829953,12.049767182874328,0.00037581527926326897,2.1304465341031888e-07,-8.564668632272445e-08,-1.5857894258623133e-05,-0.7000570160195231,1.0691164188847263e-05,-6.209220410092382,-1.04065134143108e-06,1.2709041452592027e-07,-0.5866444121024522,-2.2051206299114674,-0.03351217640117067,10.0,3.7132291281434582e-06,-4.5055963436427036e-07,0.6323212579648511,1.600021090408882,-1.7762466126116763e-06,2.4286786569100687,0.7999997846461674,1.5762487209867572e-08,-0.00303348975272087
0.156,pd_gc_torque_clipped,0.005188013691281745,12.04993406614529,0.000375734507928659,2.128734068671069e-07,-8.562327160599067e-08,-1.584451866430737e-05,-0.7000569946438505,1.0687836291797282e-05,-6.209582786505399,-1.040397256386163e-06,1.2704252245855422e-07,-0.586644418498142,-2.2051876563167263,-0.03351320262948617,10.0,3.712328245856534e-06,-4.504411434620899e-07,0.6323240753311625,1.6000210868571492,-1.7758664342629699e-06,2.428579423579083,0.7999997846776876,1.5760099811044663e-08,-0.00303135340398215
0.158,pd_gc_torque_clipped,0.005255037343499795,12.050100910735036,0.0003756537278915171,2.1270220714249522e-07,-8.559986230583751e-08,-1.5831146746884682e-05,-0.7000569732748316,1.0684509467011167e-05,-6.209945075354625,-1.0401432670794667e-06,1.2699465334820928e-07,-0.5866444248904392,-2.205254684773947,-0.033514228610386464,10.0,3.71142760048139e-06,-4.503226875719903e-07,0.6323268899332233,1.6000210833061765,-1.7754863580797764e-06,2.4284801762794848,0.7999997847092031,1.5757712406934267e-08,-0.0030292169763284148
0.16,pd_gc_torque_clipped,0.005322063168241894,12.050267716631074,0.00037557293908873707,2.1253105422502221e-07,-8.557645873650221e-08,-1.581777849911789e-05,-0.7000569519124642,1.06811837268071e-05,-6.210307276627317,-1.0398893734659686e-06,1.269468067490678e-07,-0.5866444312793373,-2.2053217152826345,-0.033515254343845384,10.0,3.710527191947045e-06,-4.5020426717233734e-07,0.6323297017707467,1.6000210797559637,-1.7751063876231875e-06,2.428380915011479,0.7999997847407138,1.5755325433516143e-08,-0.0030270804697780994
0.162,pd_gc_torque_clipped,0.005389091160501284,12.050434483820862,0.00037549214142251834,2.123599481027277e-07,-8.555306114724951e-08,-1.5804413915690747e-05,-0.700056930556746,1.0677859079843475e-05,-6.210669390310625,-1.0396355755013003e-06,1.2689898233413869e-07,-0.5866444376648362,-2.205388747842294,-0.03351627982983296,10.0,3.7096270201817243e-06,-4.500858826603252e-07,0.6323325108434443,1.6000210762065108,-1.774726522712697e-06,2.4282816397752662,0.7999997847722197,1.575293845033958e-08,-0.003024943884357046
0.164,pd_gc_torque_clipped,0.005456121315493075,12.05060121229188,0.00037541133496048554,2.121888887633115e-07,-8.552966970810508e-08,-1.5791052992156722e-05,-0.7000569092076749,1.0674535531992832e-05,-6.21103141639176,-1.0393818731416164e-06,1.2685117984190503e-07,-0.5866444440469215,-2.2054557824524306,-0.03351730506831902,10.0,3.7087270851132734e-06,-4.49967534225534e-07,0.6323353171510279,1.6000210726578172,-1.7743467634485353e-06,2.428182350571025,0.7999997848037208,1.5750552816616887e-08,-0.003022807220087489
0.166,pd_gc_torque_clipped,0.0055231536286399355,12.050767902031556,0.0003753305195792046,2.120178761942095e-07,-8.55062845510052e-08,-1.577769572515145e-05,-0.7000568878652488,1.0671213088217093e-05,-6.211393354857809,-1.0391282663434058e-06,1.2680339910536366e-07,-0.5866444504256125,-2.205522819112549,-0.03351833005926896,10.0,3.707827386669014e-06,-4.4984922212955264e-07,0.632338120693207,1.600021069109883,-1.7739671126987732e-06,2.428083047398956,0.7999997848352172,1.5748167188301102e-08,-0.0030206704769990085
0.168,pd_gc_torque_clipped,0.005590188095560085,12.050934553027304,0.00037524969528290457,2.118469103826867e-07,-8.548290576139623e-08,-1.5764342111822687e-05,-0.7000568665294653,1.0667891751917975e-05,-6.2117552056958525,-1.0388747550634346e-06,1.2675563998559972e-07,-0.586644456800892,-2.2055898578221544,-0.03351935480264858,10.0,3.706927924776078e-06,-4.497309464680734e-07,0.6323409214696931,1.6000210655627078,-1.7735875699901135e-06,2.427983730259239,0.7999997848667088,1.5745782940695585e-08,-0.0030185336551102355
0.17,pd_gc_torque_clipped,0.005657224712055721,12.051101165266571,0.00037516886211138705,2.1167599131585402e-07,-8.545953341633927e-08,-1.575099214995539e-05,-0.7000568452003223,1.0664571524952142e-05,-6.212116968893014,-1.038621339258708e-06,1.2670790236341725e-07,-0.5866444631727665,-2.2056568985807514,-0.033520379298423844,10.0,3.7060286993614986e-06,-4.4961270728960405e-07,0.6323437194801945,1.6000210620162916,-1.7732081366290097e-06,2.4278843991520693,0.7999997848981956,1.5743398735601957e-08,-0.003016396754450766
0.17200000000000001,pd_gc_torque_clipped,0.0057242634741018145,12.051267738736742,0.00037508801996521756,2.1150511898073894e-07,-8.543616755753652e-08,-1.5737645837439574e-05,-0.7000568238778174,1.0661252409846744e-05,-6.212478644436306,-1.0383680188863318e-06,1.2666018618807838e-07,-0.5866444695412452,-2.2057239413878444,-0.03352140354655694,10.0,3.7051297103519836e-06,-4.4949450475755595e-07,0.6323465147244218,1.600021058470634,-1.7728288114115335e-06,2.4277850540776282,0.7999997849296776,1.5741015067632884e-08,-0.003014259775039336
0.17400000000000002,pd_gc_torque_clipped,0.005791304377836994,12.051434273425269,0.00037500716897026016,2.1133429336428508e-07,-8.541280822693329e-08,-1.5724303172653605e-05,-0.7000568025619486,1.0657934406526668e-05,-6.21284023231287,-1.0381147939035938e-06,1.2661249136898407e-07,-0.5866444759063174,-2.2057909862429383,-0.033522427547013706,10.0,3.7042309576743594e-06,-4.493763388120646e-07,0.6323493072020859,1.6000210549257348,-1.7724495958157266e-06,2.4276856950361,0.7999997849611549,1.5738632404838025e-08,-0.0030121227169019964
0.176,pd_gc_torque_clipped,0.0058583474195537675,12.051600769319533,0.00037492630899287917,2.111635144533886e-07,-8.538945544823294e-08,-1.5710964153965742e-05,-0.7000567812527135,1.065461751603704e-05,-6.213201732509709,-1.0378616642678472e-06,1.2656481787334327e-07,-0.5866444822679866,-2.205858033145538,-0.033523451299756944,10.0,3.703332441255285e-06,-4.4925820953712413e-07,0.632352096912894,1.6000210513815938,-1.7720704902291299e-06,2.4275863220276817,0.7999997849926274,1.5736250323768302e-08,-0.0030099855800647187
0.178,pd_gc_torque_clipped,0.005925392595688945,12.051767226406955,0.0003748454401048722,2.109927822348987e-07,-8.53661092449542e-08,-1.5697628779995826e-05,-0.7000567599501101,1.065130173863807e-05,-6.213563145013893,-1.0376086299365153e-06,1.2651716566591931e-07,-0.5866444886262534,-2.2059250820951473,-0.03352447480474949,10.0,3.7024341610213495e-06,-4.491401169677924e-07,0.6323548838565586,1.6000210478382109,-1.7716914934391678e-06,2.4274869350525634,0.7999997850240951,1.5733868414615198e-08,-0.003007848364549898
0.18,pd_gc_torque_clipped,0.0059924399028173005,12.05193364467495,0.0003747645623035528,2.108220966956677e-07,-8.534276961549615e-08,-1.568429704936254e-05,-0.700056738654136,1.0647987075023266e-05,-6.213924469812484,-1.0373556908670725e-06,1.2646953472142974e-07,-0.5866444949811306,-2.205992133091271,-0.03352549806195426,10.0,3.701536116899171e-06,-4.4902206108925884e-07,0.6323576680327886,1.6000210442955856,-1.7713126074626858e-06,2.4273875341109163,0.799999785055558,1.5731487159452146e-08,-0.0030057110703799717
0.182,pd_gc_torque_clipped,0.006059489337642669,12.052100024110924,0.00037468367557377065,2.1065145782251215e-07,-8.531943657777132e-08,-1.567096896103647e-05,-0.7000567173647889,1.0644673524732728e-05,-6.214285706892532,-1.0371028470170502e-06,1.2642192501116592e-07,-0.5866445013326101,-2.206059186133414,-0.03352652107133452,10.0,3.7006383088153525e-06,-4.4890404190928965e-07,0.6323604494412924,1.6000210407537179,-1.770933830991041e-06,2.427288119202952,0.7999997850870162,1.5729107040838505e-08,-0.0030035736975809924
0.184,pd_gc_torque_clipped,0.006126540896990874,12.052266364702293,0.00037460277992959327,2.1048086560222595e-07,-8.529611014310133e-08,-1.5657644513712175e-05,-0.7000566960820668,1.0641361087700702e-05,-6.214646856241092,-1.0368500983440178e-06,1.2637433651622774e-07,-0.5866445076807015,-2.2061262412210794,-0.03352754383285281,10.0,3.6997407366964736e-06,-4.487860594393588e-07,0.6323632280817806,1.6000210372126076,-1.7705551628808694e-06,2.427188690328844,0.7999997851184697,1.572672674511274e-08,-0.0030014362461789628
0.186,pd_gc_torque_clipped,0.006193594577803989,12.052432666436479,0.0003745218754034881,2.103103200216264e-07,-8.527279029977288e-08,-1.5644323706174656e-05,-0.7000566748059672,1.0638049764247036e-05,-6.21500791784525,-1.0365974448055497e-06,1.263267692340559e-07,-0.5866445140253976,-2.206193298353772,-0.033528566346470834,10.0,3.6988434004690648e-06,-4.486681137043081e-07,0.6323660039539651,1.6000210336722545,-1.770176605426857e-06,2.4270892474887797,0.7999997851499184,1.5724347649558198e-08,-0.0029992987161950105
0.188,pd_gc_torque_clipped,0.006260650377133706,12.052598929300885,0.0003744409619321394,2.1013982106751103e-07,-8.524947705768023e-08,-1.563100653753329e-05,-0.7000566535364882,1.0634739553625356e-05,-6.2153688916920276,-1.0363448863592842e-06,1.262792231327231e-07,-0.5866445203666968,-2.2062603575309967,-0.033529588612152474,10.0,3.6979463000598e-06,-4.485502046322937e-07,0.6323687770575528,1.600021030132658,-1.769798158798762e-06,2.426989790682958,0.7999997851813624,1.5721969325986298e-08,-0.002997161107656471
0.19,pd_gc_torque_clipped,0.006327708292134649,12.052765153282932,0.0003743600395632759,2.0996936872666518e-07,-8.522617042293205e-08,-1.5617693006593357e-05,-0.7000566322736272,1.06314304557899e-05,-6.215729777768489,-1.036092422962854e-06,1.2623169821506826e-07,-0.5866445267046236,-2.2063274187522564,-0.03353061062985899,10.0,3.6970494353951983e-06,-4.4843233230097044e-07,0.6323715473922562,1.6000210265938184,-1.7694198204186889e-06,2.426890319911572,0.7999997852128016,1.571959137013691e-08,-0.0029950234205857974
0.192,pd_gc_torque_clipped,0.0063947683200607135,12.052931338370039,0.00037427910830892,2.09798962985892e-07,-8.520287038659074e-08,-1.5604383112212166e-05,-0.7000566110173823,1.0628122470415466e-05,-6.2160905760617045,-1.035840054573946e-06,1.2618419445402536e-07,-0.5866445330391485,-2.2063944820170556,-0.03353163239955405,10.0,3.6961528064019688e-06,-4.483144966148091e-07,0.6323743149577845,1.6000210230557352,-1.7690415921272021e-06,2.426790835174795,0.799999785244236,1.5717213365543272e-08,-0.002992885655005496
0.194,pd_gc_torque_clipped,0.006461830458258191,12.053097484549632,0.0003741981681604409,2.0962860383199265e-07,-8.517957694967027e-08,-1.559107685345909e-05,-0.7000565897677511,1.062481559676953e-05,-6.216451286558738,-1.035587781150257e-06,1.2613671184454862e-07,-0.5866445393703033,-2.206461547324898,-0.03353265392120016,10.0,3.695256413006748e-06,-4.4819669761032545e-07,0.632377079753847,1.6000210195184084,-1.7686634743783675e-06,2.426691336472829,0.7999997852756656,1.5714836699817065e-08,-0.0029907478109379875
0.196,pd_gc_torque_clipped,0.0065288947041623165,12.053263591809122,0.00037411721911121494,2.0945829125177214e-07,-8.515629011025065e-08,-1.557777422926403e-05,-0.7000565685247314,1.0621509835268814e-05,-6.216811909246643,-1.0353356026494808e-06,1.2608925038813635e-07,-0.5866445456980702,-2.206528614675287,-0.03353367519475892,10.0,3.6943602551361572e-06,-4.480789352954194e-07,0.6323798417801559,1.6000210159818373,-1.7682854660531931e-06,2.426591823805875,0.7999997853070906,1.5712460057854365e-08,-0.0029886098884130377
0.198,pd_gc_torque_clipped,0.006595961055292337,12.053429660135942,0.0003740362611868216,2.0928802523203194e-07,-8.513300987010338e-08,-1.5564475238598263e-05,-0.700056547288321,1.0618205184495185e-05,-6.217172444112493,-1.0350835190293688e-06,1.260418100559909e-07,-0.5866445520224594,-2.2065956840677274,-0.0335346962201943,10.0,3.6934643327169313e-06,-4.4796120961291086e-07,0.6323826010364197,1.6000210124460221,-1.7679075672971636e-06,2.426492297174117,0.7999997853385108,1.5710084814299835e-08,-0.002986471887451655
0.2,pd_gc_torque_clipped,0.0066630295092468435,12.05359568951751,0.00037395529437994184,2.0911780575958568e-07,-8.5109736223129e-08,-1.5551179880381106e-05,-0.7000565260585178,1.0614901645250612e-05,-6.21753289114335,-1.0348315302476384e-06,1.259943908651885e-07,-0.5866445583434681,-2.206662755501722,-0.03353571699746681,10.0,3.6925686456756724e-06,-4.4784352062956584e-07,0.6323853575223493,1.6000210089109625,-1.767529777216565e-06,2.4263927565777417,0.7999997853699262,1.570770965513756e-08,-0.0029843338080813024
0.202,pd_gc_torque_clipped,0.006730100063700686,12.053761679941262,0.0003738743187068228,2.0894763282125166e-07,-8.508646916700396e-08,-1.553788815364305e-05,-0.7000565048353193,1.0611599216534651e-05,-6.217893250326292,-1.034579636262064e-06,1.2594699278724339e-07,-0.5866445646611049,-2.2067298289767754,-0.03353673752654024,10.0,3.69167319393916e-06,-4.477258682562974e-07,0.6323881112376553,1.6000210053766584,-1.7671520975607813e-06,2.426293202016951,0.7999997854013369,1.5705335063832282e-08,-0.00298219565032087
0.20400000000000001,pd_gc_torque_clipped,0.006797172716399915,12.053927631394622,0.0003737933341604683,2.087775064038528e-07,-8.506320869943806e-08,-1.5524600057362078e-05,-0.7000564836187235,1.0608297898077431e-05,-6.218253521648386,-1.0343278370304217e-06,1.2589961582121055e-07,-0.5866445709753665,-2.20679690449239,-0.03353775780737675,10.0,3.69077797743412e-06,-4.476082525199154e-07,0.6323908621820497,1.6000210018431094,-1.7667745270795508e-06,2.426193633491931,0.7999997854327427,1.5702961527808834e-08,-0.002980057414196403
0.20600000000000002,pd_gc_torque_clipped,0.006864247465159587,12.054093543865024,0.00037371234075480865,2.0860742649421225e-07,-8.503995482027301e-08,-1.5511315590516093e-05,-0.7000564624087281,1.060499768926968e-05,-6.2186137050967085,-1.0340761325105125e-06,1.2585225995454784e-07,-0.5866445772862608,-2.2068639820480698,-0.03353877783993905,10.0,3.6898829960873233e-06,-4.4749067339837913e-07,0.6323936103552403,1.6000209983103153,-1.7663970677416303e-06,2.4260940510028792,0.799999785464144,1.570058861963052e-08,-0.0029779190997340703
0.20800000000000002,pd_gc_torque_clipped,0.006931324307860016,12.054259417339917,0.0003736313385122893,2.0843739307915398e-07,-8.501670752913287e-08,-1.549803475205316e-05,-0.700056441205331,1.0601698589853871e-05,-6.218973800658363,-1.0338245226601525e-06,1.2580492518004958e-07,-0.5866445835937822,-2.206931061643318,-0.03353979762418963,10.0,3.6889882498255486e-06,-4.473731308872868e-07,0.6323963557569403,1.600020994778276,-1.7660197165305358e-06,2.4259944545500054,0.7999997854955404,1.5698215927285886e-08,-0.0029757807069585133
0.21,pd_gc_torque_clipped,0.006998403242443648,12.054425251806713,0.0003735503273832198,2.0826740614552647e-07,-8.49934668137528e-08,-1.548475754092446e-05,-0.7000564200085297,1.0598400599983139e-05,-6.219333808320385,-1.0335730074371456e-06,1.2575761150341415e-07,-0.5866445898979377,-2.206998143277638,-0.033540817160089914,10.0,3.6880937385755367e-06,-4.4725562500592135e-07,0.6323990983868607,1.600020991246991,-1.7656424755788368e-06,2.4258948441334804,0.7999997855269321,1.569584393659134e-08,-0.002973642235890011
0.212,pd_gc_torque_clipped,0.007065484266911672,12.054591047252858,0.00037346930742225505,2.0809746568016437e-07,-8.49702326810484e-08,-1.5471483956249578e-05,-0.7000563988183223,1.0595103718341356e-05,-6.219693728069875,-1.0333215867993582e-06,1.2571031889367441e-07,-0.5866445961987262,-2.2070652269505335,-0.03354183644760394,10.0,3.687199462264177e-06,-4.471381556800206e-07,0.6324018382447101,1.6000209877164602,-1.7652653432346773e-06,2.425795219753517,0.799999785558319,1.5693473128837906e-08,-0.002971503686554678
0.214,pd_gc_torque_clipped,0.00713256737932169,12.054756803665798,0.0003733882786343912,2.0792757166991162e-07,-8.494700512637035e-08,-1.545821399687847e-05,-0.7000563776347064,1.0591807944749866e-05,-6.2200535598939295,-1.0330702607046681e-06,1.256630473450154e-07,-0.5866446024961535,-2.207132312661507,-0.033542855486694514,10.0,3.6863054208183752e-06,-4.4702072290086265e-07,0.6324045753302014,1.6000209841866835,-1.764888321285958e-06,2.4256955814103027,0.7999997855897012,1.5691102180259713e-08,-0.002969365058978625
0.216,pd_gc_torque_clipped,0.007199652577785084,12.054922521032974,0.0003733072409948098,2.0775772410162683e-07,-8.492378414239164e-08,-1.5444947661823746e-05,-0.7000563564576798,1.0588513279350144e-05,-6.220413303779621,-1.0328190291109151e-06,1.2561579687645403e-07,-0.5866446087902235,-2.2071994004100617,-0.03354387427732203,10.0,3.6854116141648465e-06,-4.469033267643753e-07,0.6324073096430448,1.6000209806576606,-1.764511408767007e-06,2.425595929104047,0.7999997856210787,1.5688732481368688e-08,-0.002967226353182964
0.218,pd_gc_torque_clipped,0.0072667398604645455,12.05508819934183,0.0003732261945365052,2.0758792106529295e-07,-8.490151816693503e-08,-1.5431684950136664e-05,-0.7000563352872404,1.0585219685957296e-05,-6.220772959714046,-1.0325678940867742e-06,1.2556751207047924e-07,-0.5866446150809344,-2.2072664901957006,-0.03354489281945304,10.0,3.6845180387762774e-06,-4.467876942845453e-07,0.6324100411829529,1.6000209771293914,-1.7641346278697365e-06,2.425496262834938,0.7999997856524513,1.5686339512291033e-08,-0.0029650875691952074
0.22,pd_gc_torque_clipped,0.0073338292255717315,12.055253838579501,0.0003731451388103216,2.0741816511851569e-07,-8.487797338863352e-08,-1.5418412430886345e-05,-0.7000563141233859,1.0581927254510438e-05,-6.221132527683786,-1.032316853243876e-06,1.2552042144908596e-07,-0.5866446213555099,-2.207333582017927,-0.033545911113050754,10.0,3.6836247001707402e-06,-4.466693027686607e-07,0.6324127699602256,1.6000209736018756,-1.763757918040949e-06,2.425396582603287,0.7999997856838194,1.5683994331039082e-08,-0.002962948706929677
0.222,pd_gc_torque_clipped,0.007400920671364604,12.055419438733912,0.00037306407537201326,2.0724845640083957e-07,-8.485435883805948e-08,-1.5405161582040383e-05,-0.700056292966114,1.057863592957617e-05,-6.221492007677209,-1.0320659058857268e-06,1.254736790745558e-07,-0.5866446276408487,-2.2074006758762432,-0.033546929158063725,10.0,3.6827315976335134e-06,-4.4655126861344464e-07,0.6324154959471625,1.600020970075113,-1.7633813248440333e-06,2.425296888408987,0.7999997857151826,1.5681635809539812e-08,-0.0029608097667076015
0.224,pd_gc_torque_clipped,0.007468014196145773,12.05558499979264,0.00037298300245457145,2.0707879461628314e-07,-8.48308922782166e-08,-1.5391915488334333e-05,-0.7000562718154226,1.057534570035042e-05,-6.221851399680637,-1.0318150520428363e-06,1.254269214452428e-07,-0.5866446339268203,-2.207467771770152,-0.03354794695446545,10.0,3.681838730196153e-06,-4.4643371868017936e-07,0.632418219162156,1.6000209665491032,-1.7630048465806312e-06,2.4251971802524643,0.7999997857465412,1.5679267602451578e-08,-0.0029586707483097207
0.226,pd_gc_torque_clipped,0.007535109798260963,12.055750521742892,0.0003729019205993107,2.0690917948991375e-07,-8.48075631846982e-08,-1.5378671077407617e-05,-0.7000562506713095,1.057205656960102e-05,-6.222210703681029,-1.0315642919415262e-06,1.2538005065502103e-07,-0.5866446402090633,-2.2075348696991566,-0.033548964502220065,10.0,3.6809460973061423e-06,-4.463164450053289e-07,0.6324209396056993,1.6000209630238462,-1.7626284798793654e-06,2.425097458133918,0.799999785777895,1.567689728729235e-08,-0.002956531651777708
0.228,pd_gc_torque_clipped,0.007602207476096244,12.055916004572008,0.0003728208299540329,2.0673961083510005e-07,-8.4784327406845e-08,-1.5365428474607326e-05,-0.7000562295337724,1.0568768540206999e-05,-6.222569919665499,-1.0313136257947335e-06,1.253330733963621e-07,-0.5866446464863738,-2.2076019696627593,-0.03354998180129141,10.0,3.680053698693488e-06,-4.4619930632724274e-07,0.6324236572762704,1.6000209594993418,-1.7622522217626723e-06,2.424997722053525,0.799999785809244,1.5674527734802135e-08,-0.0029543924771635796
0.23,pd_gc_torque_clipped,0.007669307228076245,12.05608144826745,0.00037273973060516553,2.0657008853782204e-07,-8.476114863900555e-08,-1.5352188283112173e-05,-0.7000562084028092,1.056548161517271e-05,-6.222929047621251,-1.0310630537454056e-06,1.2528602466392405e-07,-0.5866446527588219,-2.2076690716604626,-0.03355099885163817,10.0,3.679161534223963e-06,-4.460822347624953e-07,0.6324263721727466,1.6000209559755896,-1.7618760748487347e-06,2.4248979720114696,0.7999997858405884,1.5672160246815687e-08,-0.002952253224502566
0.232,pd_gc_torque_clipped,0.00773640905266336,12.05624685281668,0.0003726586224583768,2.0640061253221607e-07,-8.473800280298776e-08,-1.5338951002079685e-05,-0.7000561872784177,1.056219579442504e-05,-6.223288087535391,-1.03081257586764e-06,1.2523893888279633e-07,-0.5866446590268094,-2.207736175691769,-0.03355201565322481,10.0,3.6782696038202434e-06,-4.459652018597529e-07,0.6324290842944383,1.6000209524525895,-1.7615000386583565e-06,2.4247982080079784,0.799999785871928,1.5669793269519783e-08,-0.0029501138938258674
0.234,pd_gc_torque_clipped,0.0078035129483557016,12.056412218207162,0.000372577505533167,2.062311827818813e-07,-8.471487516738477e-08,-1.5325716963335455e-05,-0.7000561661605955,1.0558911078710543e-05,-6.223647039395029,-1.0305621921832859e-06,1.2519184217701788e-07,-0.5866446652907567,-2.207803281756181,-0.03355303220601184,10.0,3.6773779074251938e-06,-4.458481975247207e-07,0.6324317936408902,1.6000209489303412,-1.7611241102781436e-06,2.42469843004323,0.7999997859032628,1.5667427784541428e-08,-0.002947974485148879
0.23600000000000002,pd_gc_torque_clipped,0.00787061891368513,12.056577544426409,0.0003724963798703597,2.0606179926746626e-07,-8.469175720751401e-08,-1.5312486370207118e-05,-0.7000561450493406,1.0555627467498448e-05,-6.224005903187324,-1.0303119026792646e-06,1.2514475201058077e-07,-0.58664467155097,-2.2078703898532006,-0.033554048509962776,10.0,3.6764864449871473e-06,-4.4573121902329207e-07,0.6324345002117577,1.6000209454088445,-1.7607482910537945e-06,2.4245986381174394,0.799999785934593,1.5665063665343164e-08,-0.0029458349984994516
0.23800000000000002,pd_gc_torque_clipped,0.007937726947216709,12.056742831461866,0.00037241524540325774,2.0589246197887578e-07,-8.466864429524938e-08,-1.5299259340492105e-05,-0.7000561239446507,1.0552344960491929e-05,-6.224364678899351,-1.0300617073209793e-06,1.2509767914265305e-07,-0.5866446778076619,-2.207937499982331,-0.033555064565039594,10.0,3.675595216453816e-06,-4.4561426666561437e-07,0.632437204006737,1.6000209418880993,-1.760372581051679e-06,2.4244988322307894,0.7999997859659184,1.5662699767502743e-08,-0.002943695433903247
0.24,pd_gc_torque_clipped,0.008004837047545992,12.056908079301023,0.0003723341021877164,2.0572317091056415e-07,-8.464553415581178e-08,-1.528603593817657e-05,-0.7000561028465235,1.0549063556919674e-05,-6.224723366518253,-1.0298116060616863e-06,1.2505062964657506e-07,-0.5866446840609528,-2.2080046121430734,-0.03355608037120524,10.0,3.6747042217704016e-06,-4.4549734170733493e-07,0.632439905025546,1.6000209383681054,-1.759996980096791e-06,2.424399012383505,0.7999997859972391,1.5660337574562073e-08,-0.002941555791377539
0.242,pd_gc_torque_clipped,0.008071949213299063,12.057073287931344,0.0003722529501959814,2.0555392605871808e-07,-8.462242592303234e-08,-1.5272816194663768e-05,-0.700056081754957,1.0545783256330457e-05,-6.225081966031128,-1.0295615988485573e-06,1.2500360656451898e-07,-0.5866446903109284,-2.2080717263349303,-0.03355709592842208,10.0,3.6738134608791202e-06,-4.45380445640575e-07,0.632442603267904,1.6000209348488625,-1.7596214881807806e-06,2.4242991785757737,0.799999786028555,1.5657974904132843e-08,-0.002939416070954604
0.244,pd_gc_torque_clipped,0.008139063443130845,12.057238457340306,0.00037217178944915386,2.0538472741973106e-07,-8.459931949351534e-08,-1.5259600121774995e-05,-0.700056060669949,1.0542504058247768e-05,-6.225440477425103,-1.0293116856264088e-06,1.2495661107427636e-07,-0.5866446965576317,-2.208138842557404,-0.03355811123665318,10.0,3.672922933719418e-06,-4.4526357985101937e-07,0.6324452987335327,1.6000209313303704,-1.7592461050852065e-06,2.424199330807813,0.7999997860598662,1.565561406266841e-08,-0.0029372762726476384
0.246,pd_gc_torque_clipped,0.008206179735723485,12.057403587515372,0.00037209061993215834,2.0521557498932087e-07,-8.457621520509615e-08,-1.524638772066927e-05,-0.7000560395914971,1.0539225962174982e-05,-6.225798900687278,-1.0290618663398656e-06,1.2490964327155495e-07,-0.5866447028010765,-2.2082059608099955,-0.03355912629586108,10.0,3.6720326402282737e-06,-4.4514674557219806e-07,0.6324479914221532,1.6000209278126287,-1.7588708323646941e-06,2.4240994690798194,0.7999997860911727,1.5653252819127224e-08,-0.0029351363964900145
0.248,pd_gc_torque_clipped,0.008273298089786121,12.057568678444024,0.0003720094416702735,2.0504646876217975e-07,-8.455311357056006e-08,-1.5233178986274325e-05,-0.7000560185195992,1.0535948967569296e-05,-6.2261572358047825,-1.0288121409345134e-06,1.2486270267603854e-07,-0.586644709041264,-2.2082730810922078,-0.03356014110600834,10.0,3.6711425803405824e-06,-4.4502994384574304e-07,0.6324506813334871,1.6000209242956374,-1.7584956666325815e-06,2.423999593392011,0.7999997861224745,1.5650892559638282e-08,-0.0029329964424992276
0.25,pd_gc_torque_clipped,0.008340418504052479,12.057733730113728,0.0003719282546619492,2.048774087318517e-07,-8.453001516402576e-08,-1.521997391098654e-05,-0.7000559974542531,1.053267307392227e-05,-6.226515482764732,-1.0285625093574418e-06,1.2481578853582407e-07,-0.5866447152781983,-2.2083402034035418,-0.03356115566705765,10.0,3.670252753989589e-06,-4.449131754966948e-07,0.6324533684672509,1.600020920779396,-1.7581206110305263e-06,2.423899703744572,0.7999997861537715,1.5648532839349207e-08,-0.0029308564107028362
0.252,pd_gc_torque_clipped,0.008407540977281643,12.05789874251198,0.00037184705893806343,2.0470839489076164e-07,-8.450692054502865e-08,-1.5206772486251774e-05,-0.7000559763954565,1.0529398281051408e-05,-6.226873641554283,-1.0283129715574028e-06,1.247689000194776e-07,-0.586644721511872,-2.2084073277434997,-0.033562169978971566,10.0,3.6693631611071853e-06,-4.447964412017843e-07,0.6324560528231636,1.6000209172639048,-1.7577456637596143e-06,2.423799800137732,0.7999997861850638,1.5646174121826515e-08,-0.0029287163011255113
0.254,pd_gc_torque_clipped,0.008474665508255746,12.058063715626258,0.00037176585447465984,2.0453942723030706e-07,-8.448383022729803e-08,-1.5193574703630529e-05,-0.7000559553432073,1.0526124588421682e-05,-6.2272317121605525,-1.0280635274847926e-06,1.2472203630509562e-07,-0.5866447277422762,-2.2084744541115833,-0.03356318404171321,10.0,3.6684738016242284e-06,-4.446797414784252e-07,0.6324587344009428,1.6000209137491632,-1.7573708262082659e-06,2.4236998825716847,0.7999997862163515,1.5643815965911088e-08,-0.0029265761137911394
0.256,pd_gc_torque_clipped,0.008541792095779058,12.058228649444027,0.0003716846412686392,2.0437050574098154e-07,-8.446074466276533e-08,-1.518038055524239e-05,-0.7000559342975033,1.052285199547593e-05,-6.227589694570656,-1.0278141770915005e-06,1.246751966460369e-07,-0.5866447339694083,-2.208541582507294,-0.03356419785524559,10.0,3.6675846754707227e-06,-4.445630767527329e-07,0.6324614132003038,1.600020910235171,-1.7569960964992663e-06,2.423599951046639,0.7999997862476343,1.564145794233179e-08,-0.0029244358487243967
0.258,pd_gc_torque_clipped,0.008608920738677982,12.058393543952784,0.0003716034193458548,2.0420163041252995e-07,-8.443766422578794e-08,-1.5167190033999808e-05,-0.7000559132583424,1.0519580501993787e-05,-6.227947588771734,-1.027564920330684e-06,1.2462838040830278e-07,-0.5866447401932592,-2.208608712930133,-0.03356521141952985,10.0,3.6666957825758733e-06,-4.4444644742462065e-07,0.6324640892209628,1.600020906721928,-1.7566214764127048e-06,2.4235000055628095,0.7999997862789126,1.5639100528590455e-08,-0.0029222955059456748
0.26,pd_gc_torque_clipped,0.00867605143579935,12.058558399140017,0.0003715221887203884,2.0403280123408187e-07,-8.441458922404429e-08,-1.5154003133841364e-05,-0.7000558922257222,1.0516310107434822e-05,-6.228305394750936,-1.0273157571566441e-06,1.2458158701991754e-07,-0.5866447464138235,-2.2086758453796023,-0.03356622473453036,10.0,3.665807122868596e-06,-4.443298536384697e-07,0.6324667624626329,1.6000209032094341,-1.7562469636937336e-06,2.4234000461204057,0.7999997863101861,1.5636744189743223e-08,-0.0029201550854833264
0.262,pd_gc_torque_clipped,0.008743184186010042,12.058723214993202,0.000371440949372835,2.0386401819424683e-07,-8.439151991751965e-08,-1.5140819849589929e-05,-0.7000558711996405,1.0513040811580663e-05,-6.228663112495381,-1.0270666875245654e-06,1.2453481603932442e-07,-0.5866447526310925,-2.2087429798552027,-0.03356723780020841,10.0,3.664918696277243e-06,-4.4421329567658723e-07,0.6324694329250302,1.600020899697689,-1.7558725617500185e-06,2.423300072719614,0.7999997863414549,1.5634387586338934e-08,-0.0029180145873635307
0.264,pd_gc_torque_clipped,0.008810318988196243,12.05888799149985,0.00037135970132707273,2.0369528128124253e-07,-8.436845650214705e-08,-1.5127640176694471e-05,-0.7000558501800953,1.0509772614191046e-05,-6.229020741992228,-1.0268177113903778e-06,1.2448806709383405e-07,-0.5866447588450714,-2.2088101163564358,-0.03356825061652643,10.0,3.664030502729905e-06,-4.440967736690847e-07,0.6324721006078683,1.6000208961866924,-1.7554982686995866e-06,2.423200085360682,0.799999786372719,1.5632032110790054e-08,-0.0029158740116029904
0.266,pd_gc_torque_clipped,0.008877455841262705,12.059052728647446,0.000371278444594323,2.035265914098454e-07,-8.434493569856092e-08,-1.5114464111469345e-05,-0.7000558291670842,1.0506505531530842e-05,-6.229378283228627,-1.02656882768011e-06,1.2444185513392007e-07,-0.5866447650557557,-2.2088772548828026,-0.03356926318344795,10.0,3.663142543842951e-06,-4.4397944347706846e-07,0.6324747655108628,1.6000208926764443,-1.7551240705084716e-06,2.4231000840438024,0.7999997864039783,1.5629688655881296e-08,-0.002913733358233796
0.268,pd_gc_torque_clipped,0.008944594744132058,12.059217426423622,0.0003711971793685426,2.0335794733694516e-07,-8.432203645012487e-08,-1.510129821300778e-05,-0.7000558081606052,1.0503239520218176e-05,-6.229735736191949,-1.026320037468171e-06,1.243951059695241e-07,-0.5866447712693768,-2.2089443954338046,-0.033570275500932535,10.0,3.6622548168574337e-06,-4.438634927586827e-07,0.6324774276285479,1.6000208891669443,-1.7547500028108661e-06,2.4230000687691087,0.799999786435233,1.5627322875478284e-08,-0.0029115926273272524
0.27,pd_gc_torque_clipped,0.009011735695743692,12.05938208481565,0.0003711159048933225,2.0318934898015463e-07,-8.42991783952626e-08,-1.5088127276653864e-05,-0.700055787160656,1.0499974605623165e-05,-6.230093100868712,-1.0260713410192284e-06,1.243482244712527e-07,-0.5866447774729808,-2.2090115380089426,-0.03357128756895138,10.0,3.661367322011367e-06,-4.437474230334356e-07,0.6324800869738969,1.6000208856581921,-1.7543760384034926e-06,2.4229000395370006,0.7999997864664828,1.56249646674181e-08,-0.0029094518187675476
0.272,pd_gc_torque_clipped,0.009078878695053576,12.05954670381099,0.0003710346221113822,2.030207964521182e-07,-8.427626401821527e-08,-1.5074959420878694e-05,-0.7000557661672344,1.0496710792563988e-05,-6.230450377246486,-1.0258227382656605e-06,1.243013767839588e-07,-0.5866447836714135,-2.2090786826077173,-0.03357229938746185,10.0,3.6604800596400445e-06,-4.436311856612011e-07,0.6324827435376406,1.6000208821501878,-1.754002182226727e-06,2.4227999963475573,0.7999997864977281,1.5622612149491848e-08,-0.0029073109326949167
0.274,pd_gc_torque_clipped,0.00914602374103409,12.059711283397231,0.00037095333066835217,2.0285228868867046e-07,-8.425388172387134e-08,-1.5061796019914444e-05,-0.7000557451803383,1.0493448057336805e-05,-6.230807565312445,-1.0255742303470968e-06,1.242539592818829e-07,-0.5866447898666782,-2.20914582922963,-0.033573310956426884,10.0,3.6595930277609544e-06,-4.435159395450498e-07,0.6324853973191895,1.6000208786429309,-1.7536284465263286e-06,2.422699939201001,0.7999997865289685,1.5620246609724173e-08,-0.0029051699691280885
0.276,pd_gc_torque_clipped,0.009213170832672554,12.05987582356175,0.00037087203028652644,2.0268382729302954e-07,-8.423069782045409e-08,-1.5048628750959438e-05,-0.7000557241999654,1.0490186453006178e-05,-6.231164665053435,-1.0253258157148442e-06,1.242073161262686e-07,-0.586644796051473,-2.209212977874182,-0.033574322275809865,10.0,3.658706229754365e-06,-4.433990032948632e-07,0.6324880483253457,1.6000208751364213,-1.7532547963484187e-06,2.422599868097622,0.7999997865602043,1.5617910326310565e-08,-0.002903028928007262
0.278,pd_gc_torque_clipped,0.00928031996897068,12.060040324292345,0.0003707907218993155,2.0251541240444674e-07,-8.420744429139928e-08,-1.5035476413956004e-05,-0.7000557032261135,1.0486925944835233e-05,-6.231521676457369,-1.0250774938400836e-06,1.2416093738029154e-07,-0.5866448022420203,-2.209280128540873,-0.03357533334556652,10.0,3.657819665225418e-06,-4.432822644734607e-07,0.632490696539565,1.6000208716306588,-1.7528812577114148e-06,2.4224997830374506,0.7999997865914354,1.5615565995999943e-08,-0.0029008878095344226
0.28,pd_gc_torque_clipped,0.009347471148944918,12.060204785576595,0.0003707094044326412,2.0234704387725577e-07,-8.418426359547707e-08,-1.5022328772276149e-05,-0.7000556822587805,1.0483666525768571e-05,-6.231878599510924,-1.0248292646558375e-06,1.2411459212311608e-07,-0.5866448084322397,-2.2093472812292045,-0.03357634416566521,10.0,3.6569333335859357e-06,-4.431658197412428e-07,0.6324933419728709,1.6000208681256431,-1.7525078306162247e-06,2.4223996840208346,0.7999997866226619,1.5613216075533913e-08,-0.0028987466135867806
0.28200000000000003,pd_gc_torque_clipped,0.00941462437162507,12.060369207401857,0.0003706280782263671,2.021787215603506e-07,-8.416115845259587e-08,-1.5009183819843785e-05,-0.700055661297964,1.0480408196325955e-05,-6.232235434201167,-1.0245811282388962e-06,1.2406820847065172e-07,-0.5866448146193471,-2.2094144359386765,-0.033577354736071124,10.0,3.656047234476342e-06,-4.4304955479685875e-07,0.6324959846255674,1.600020864621374,-1.752134513622963e-06,2.422299571047985,0.7999997866538836,1.561086467839421e-08,-0.002896605340199079
0.28400000000000003,pd_gc_torque_clipped,0.009481779636054684,12.06053358975558,0.0003705467433982634,2.0201044534414546e-07,-8.413810810256038e-08,-1.4996041506491707e-05,-0.7000556403436621,1.047715095859231e-05,-6.232592180515296,-1.024333084678196e-06,1.2402178035006166e-07,-0.5866448208024806,-2.20948159266879,-0.03357836505674625,10.0,3.655161367698178e-06,-4.429333890821572e-07,0.6324986244966898,1.6000208611178515,-1.7517613067314173e-06,2.4221994441191184,0.7999997866851006,1.5608513360612142e-08,-0.0028944639894098846
0.28600000000000003,pd_gc_torque_clipped,0.0095489369412897,12.060697932625255,0.0003704653999294344,2.0184221618625665e-07,-8.411457894440265e-08,-1.498290211409579e-05,-0.7000556193958725,1.047389483321768e-05,-6.232948838440484,-1.0240851328892166e-06,1.239758944897208e-07,-0.5866448269815532,-2.209548751419045,-0.033579375127650864,10.0,3.6542757350092653e-06,-4.428163444562309e-07,0.6325012615854754,1.6000208576150752,-1.751388195129981e-06,2.422099303234444,0.799999786716313,1.5606175572385178e-08,-0.002892322561251853
0.28800000000000003,pd_gc_torque_clipped,0.00961609628639845,12.06086223599855,0.00037038404807333147,2.016740326592986e-07,-8.4091763479026e-08,-1.4969773189678895e-05,-0.700055598454593,1.0470639771189496e-05,-6.2333054079641785,-1.023837274154594e-06,1.2392936731129102e-07,-0.5866448331636577,-2.2096159121889425,-0.03358038494874678,10.0,3.653390333316376e-06,-4.4270084644457134e-07,0.6325038958856474,1.6000208541130447,-1.751015213176099e-06,2.4219991483940935,0.7999997867475206,1.5603814384247618e-08,-0.0028901810558092174
0.29,pd_gc_torque_clipped,0.009683257670461218,12.061026499862763,0.0003703026870103356,2.015058935325848e-07,-8.406956335690885e-08,-1.4956637924037522e-05,-0.7000555775198214,1.0467385781470088e-05,-6.2336618890728985,-1.0235895100665845e-06,1.238820440047274e-07,-0.5866448393345133,-2.2096830749779826,-0.033581394520006864,10.0,3.652505160855606e-06,-4.425862303851542e-07,0.6325065274116228,1.6000208506117601,-1.7506423499505465e-06,2.4218989795984727,0.7999997867787235,1.560144762211692e-08,-0.0028880394729507205
0.292,pd_gc_torque_clipped,0.009750421092569407,12.06119072420518,0.00037022131743757184,2.0133780042256336e-07,-8.404655501071473e-08,-1.4943497595610059e-05,-0.7000555565915555,1.046413292259464e-05,-6.2340182817539525,-1.0233418392183524e-06,1.238354241160283e-07,-0.5866448454921923,-2.209750239785665,-0.033582403841387415,10.0,3.6516202212840587e-06,-4.424697857736397e-07,0.632509156159273,1.600020847111221,-1.7502695701365967e-06,2.4217987968477455,0.7999997868099218,1.559911409695212e-08,-0.002885897812765657
0.294,pd_gc_torque_clipped,0.009817586551826012,12.061354909013712,0.0003701399399468158,2.0116975354537743e-07,-8.40234385929688e-08,-1.4930372263655065e-05,-0.7000555356697932,1.0460881160163174e-05,-6.234374585995317,-1.0230942610565977e-06,1.2378908087738052e-07,-0.5866448516547613,-2.209817406611491,-0.033583412912842184,10.0,3.6507355144311244e-06,-4.4235342646721535e-07,0.6325117821118815,1.6000208436114272,-1.7498969005844446e-06,2.4216986001419447,0.7999997868411154,1.559677424438854e-08,-0.002883756075439183
0.296,pd_gc_torque_clipped,0.00988475404734436,12.061519054276038,0.0003700585534639376,2.010017528206516e-07,-8.400036236292094e-08,-1.4917252143328633e-05,-0.7000555147545322,1.0457630486032054e-05,-6.234730801783732,-1.0228467754460684e-06,1.2374280526468803e-07,-0.5866448578171446,-2.2098845754549594,-0.0335844217343405,10.0,3.6498510398233155e-06,-4.422373039044084e-07,0.6325144052806265,1.6000208401123786,-1.7495243421836257e-06,2.4215983894814253,0.7999997868723042,1.5594429807148814e-08,-0.0028816142608392467
0.298,pd_gc_torque_clipped,0.009951923578248197,12.061683159979543,0.0003699771582446994,2.0083379814186557e-07,-8.397733939300712e-08,-1.4904135152571233e-05,-0.7000554938457704,1.0454380899589588e-05,-6.23508692910624,-1.0225993823980528e-06,1.236965240077902e-07,-0.5866448639768359,-2.209951746315571,-0.03358543030584704,10.0,3.6489667971512677e-06,-4.421213360238685e-07,0.6325170256661373,1.6000208366140747,-1.7491518933442778e-06,2.421498164866409,0.7999997869034884,1.5592083870378798e-08,-0.002879472368995553
0.3,pd_gc_torque_clipped,0.010019095143671776,12.061847226111695,0.00036989575443697624,2.006658904550301e-07,-8.395384341773382e-08,-1.4891021099847145e-05,-0.7000554729435056,1.0451132421604092e-05,-6.235442967950046,-1.022352080809951e-06,1.2365079405086686e-07,-0.5866448701329403,-2.2100189191928257,-0.033586438627323266,10.0,3.6480827881080103e-06,-4.4200452162862005e-07,0.6325196432676429,1.6000208331165156,-1.7487795407406308e-06,2.421397926297123,0.7999997869346679,1.5589751238980773e-08,-0.0028773303999470633
0.302,pd_gc_torque_clipped,0.010086268742758198,12.062011252660149,0.0003698143422610892,2.004980283284391e-07,-8.393106329548784e-08,-1.4877917428554134e-05,-0.7000554520477356,1.0447885003287195e-05,-6.235798918302594,-1.0221048719593742e-06,1.236044252884285e-07,-0.5866448762922134,-2.2100860940862233,-0.033587446698732246,10.0,3.6471990095810897e-06,-4.4188926346037116e-07,0.6325222580787284,1.600020829619701,-1.748407316684227e-06,2.4212976737736893,0.7999997869658427,1.558739405507767e-08,-0.0028751883537834594
0.304,pd_gc_torque_clipped,0.010153444374659964,12.0621752396122,0.0003697329209237017,2.003302105290854e-07,-8.390889967685663e-08,-1.4864807380138301e-05,-0.7000554311584583,1.0444638654822038e-05,-6.236154780150424,-1.0218577574380434e-06,1.2355726066536997e-07,-0.5866448824402829,-2.210153270995263,-0.033588454520042915,10.0,3.6463154597994284e-06,-4.417748908306589e-07,0.6325248701136804,1.6000208261236306,-1.748035212641105e-06,2.421197407296517,0.7999997869970128,1.558503103798565e-08,-0.0028730462303721313
0.306,pd_gc_torque_clipped,0.01022062203853958,12.06233918695515,0.00036965149111313576,2.0016243866455364e-07,-8.388593226588432e-08,-1.485169224685084e-05,-0.7000554102756714,1.0441393433337308e-05,-6.23651055348086,-1.0216107358489248e-06,1.2351079455929434e-07,-0.5866448885751828,-2.2102204499194458,-0.03358946209121531,10.0,3.6454321424044203e-06,-4.4165869750396373e-07,0.6325274793683292,1.6000208226283041,-1.7476631908475883e-06,2.4210971268657744,0.7999997870281782,1.5582701802641948e-08,-0.002870904029801629
0.308,pd_gc_torque_clipped,0.010287801733567014,12.062503094676917,0.0003695700534132028,1.9999471294762039e-07,-8.386285846662773e-08,-1.4838592041441909e-05,-0.7000553893993728,1.0438149305802125e-05,-6.236866238281883,-1.0213638066449524e-06,1.2346460198621643e-07,-0.5866448947149461,-2.21028763085827,-0.03359046941220131,10.0,3.6445490572233456e-06,-4.415425905372714e-07,0.6325300858259857,1.6000208191337215,-1.7472912800047401e-06,2.4209968324814986,0.7999997870593389,1.558036682424883e-08,-0.0028687617522625036
0.31,pd_gc_torque_clipped,0.010354983458921647,12.06266696276521,0.0003694886067867324,1.998270332962549e-07,-8.38398256827449e-08,-1.4825497017276844e-05,-0.7000553685295603,1.0434906263475816e-05,-6.23722183454028,-1.0211169696947365e-06,1.234184751078984e-07,-0.5866449008544872,-2.2103548138112363,-0.03359147648297057,10.0,3.6436662037827887e-06,-4.4142672027835775e-07,0.6325326894977901,1.6000208156398825,-1.7469194791866011e-06,2.42089652414406,0.799999787090495,1.5578026075814737e-08,-0.0028666193976229575
0.312,pd_gc_torque_clipped,0.01042216721379022,12.062830791207423,0.0003694071514667828,1.9965939960300254e-07,-8.38168466261812e-08,-1.4812405104141965e-05,-0.7000553476662317,1.0431664306687588e-05,-6.237577342243109,-1.0208702250119814e-06,1.2337234137759926e-07,-0.5866449069913311,-2.2104219987778433,-0.033592483303487054,10.0,3.6427835817735598e-06,-4.4131100461443734e-07,0.6325352903843637,1.600020812146787,-1.7465477884268886e-06,2.4207962018536637,0.7999997871216464,1.557568445450238e-08,-0.002864476965907734
0.314,pd_gc_torque_clipped,0.010489352997367895,12.062994579991026,0.00036932568756300907,1.9949181280933482e-07,-8.379339683386149e-08,-1.4799316115473667e-05,-0.7000553268093848,1.0428423454444053e-05,-6.2379327613775555,-1.0206235715003397e-06,1.2332675582086788e-07,-0.5866449131245981,-2.2104891857575906,-0.033593489873715125,10.0,3.6419011928820026e-06,-4.411944457786435e-07,0.6325378884849354,1.6000208086544345,-1.7461761921624333e-06,2.42069586561054,0.7999997871527932,1.5573355815031325e-08,-0.002862334457160965
0.316,pd_gc_torque_clipped,0.010556540808857574,12.063158329103711,0.0003692442153697021,1.9932427042493318e-07,-8.377119220082064e-08,-1.4786237469072727e-05,-0.7000553059590174,1.0425183640317414e-05,-6.238288091931124,-1.0203770116147758e-06,1.2327994278192433e-07,-0.586644919261006,-2.2105563747499777,-0.033594496193614626,10.0,3.64101903206911e-06,-4.410804064463461e-07,0.6325404837931166,1.600020805162825,-1.7458047401122119e-06,2.420595515414835,0.7999997871839352,1.5570989435612942e-08,-0.002860191871468489
0.318,pd_gc_torque_clipped,0.010623730647469633,12.063322038532615,0.0003691627337917628,1.991567748069298e-07,-8.374780900168999e-08,-1.4773144943183167e-05,-0.7000552851151275,1.0421944963620149e-05,-6.238643333890074,-1.0201305432455827e-06,1.2323418459649707e-07,-0.5866449253790947,-2.210623565754504,-0.03359550226315672,10.0,3.6401371046142696e-06,-4.4096372742005054e-07,0.6325430763290738,1.6000208016719584,-1.7454333565925018e-06,2.4204951512670227,0.7999997872150725,1.5568670858757825e-08,-0.0028580492086376984
0.32,pd_gc_torque_clipped,0.01069092251242082,12.063485708265631,0.00036908124489373897,1.9898932365318905e-07,-8.372557687036725e-08,-1.4760072658530723e-05,-0.7000552642777128,1.0418707329045713e-05,-6.238998487243012,-1.0198841684868059e-06,1.231873793884424e-07,-0.5866449315063935,-2.2106907587706686,-0.033596508082290505,10.0,3.6392554054873645e-06,-4.4084956345256487e-07,0.6325456660612997,1.6000207981818342,-1.7450621195452916e-06,2.4203947731669446,0.7999997872462051,1.5566310575242294e-08,-0.0028559064690475934
0.322,pd_gc_torque_clipped,0.01075811640293579,12.063649338290118,0.00036899974629809744,1.9882191831093812e-07,-8.370267112546764e-08,-1.474698781606998e-05,-0.7000552434467712,1.041547081082509e-05,-6.239353551975825,-1.0196378862365432e-06,1.2314112513135936e-07,-0.5866449376175515,-2.2107579537979705,-0.03359751365099346,10.0,3.6383739379325096e-06,-4.407337774274396e-07,0.6325482530207037,1.6000207946924523,-1.7446909632412762e-06,2.4202943811152218,0.7999997872773331,1.5563981981453678e-08,-0.002853763652353677
0.324,pd_gc_torque_clipped,0.010825312318245569,12.06381292859372,0.00036891824007608155,1.986545589585593e-07,-8.367967618941e-08,-1.4733916069118504e-05,-0.7000552226223004,1.0412235382694804e-05,-6.239708528076766,-1.019391696059503e-06,1.2309508852005687e-07,-0.5866449437318088,-2.210825150835909,-0.03359851896921429,10.0,3.6374927018554325e-06,-4.406180385384014e-07,0.6325508371820335,1.6000207912038125,-1.7443199189115883e-06,2.420193975111758,0.7999997873084564,1.5561650614313605e-08,-0.0028516207588785173
0.326,pd_gc_torque_clipped,0.010892510257587773,12.063976479164179,0.0003688367250182968,1.9848724552627754e-07,-8.365671614088321e-08,-1.4720849250033003e-05,-0.7000552018042983,1.0409001037335409e-05,-6.240063415532697,-1.019145597850592e-06,1.2304910445550257e-07,-0.5866449498452031,-2.210892349883983,-0.03359952403692258,10.0,3.636611696868622e-06,-4.405024934054449e-07,0.6325534185550017,1.6000207877159145,-1.7439489832566322e-06,2.4200935551569276,0.7999997873395751,1.555931450546326e-08,-0.0028494777885101036
0.328,pd_gc_torque_clipped,0.010959710220205978,12.06413998998893,0.00036875520132730147,1.9831997894785323e-07,-8.363328921215643e-08,-1.4707785616129839e-05,-0.7000551809927626,1.0405767793645212e-05,-6.2404182143307105,-1.0188995904802949e-06,1.2300368514858345e-07,-0.5866449559557496,-2.2109595509416913,-0.033600528854080845,10.0,3.635730924577168e-06,-4.403861457269943e-07,0.6325559971402092,1.6000207842287582,-1.7435781431301004e-06,2.419993121250934,0.7999997873706891,1.555699037156667e-08,-0.0028473347412654405
0.33,pd_gc_torque_clipped,0.011026912205349956,12.064303461055658,0.0003686736693694171,1.9815275777901973e-07,-8.361058441675382e-08,-1.469473226685807e-05,-0.7000551601876914,1.0402535604362102e-05,-6.240772924458317,-1.0186536752262091e-06,1.2295762704283991e-07,-0.5866449620696508,-2.2110267540085324,-0.03360153342064971,10.0,3.634850381827251e-06,-4.4027137495853194e-07,0.632558572931276,1.6000207807423432,-1.7432074327923571e-06,2.419892673393954,0.7999997874017984,1.5554642000416655e-08,-0.002845191617242018
0.332,pd_gc_torque_clipped,0.011094116212275941,12.064466892351655,0.00036859212830017593,1.9798558077927552e-07,-8.358849987210158e-08,-1.4681672440487027e-05,-0.7000551393890825,1.039930447849721e-05,-6.241127545902055,-1.0184078536857008e-06,1.2291077025419098e-07,-0.5866449681723824,-2.2110939590840055,-0.033602537736602156,10.0,3.633970066833369e-06,-4.4015749694094774e-07,0.6325611459423458,1.6000207772566695,-1.7428368410558423e-06,2.419792211586375,0.799999787432903,1.5552287201089253e-08,-0.0028430484163139294
0.334,pd_gc_torque_clipped,0.011161322240245556,12.064630283864243,0.0003685105788432271,1.9781844954477246e-07,-8.356561725153606e-08,-1.466860746413262e-05,-0.7000551185969335,1.0396074474340948e-05,-6.24148207864929,-1.0181621244763869e-06,1.2286460465695124e-07,-0.5866449742619478,-2.211161166167609,-0.03360354180189557,10.0,3.6330899832195545e-06,-4.40041806907168e-07,0.6325637161691731,1.600020773771737,-1.7424663321355082e-06,2.419691735828384,0.7999997874640029,1.554996641021934e-08,-0.0028409051385662673
0.336,pd_gc_torque_clipped,0.011228530288526085,12.064793635581404,0.0003684290216432652,1.9765136428308714e-07,-8.354263084266066e-08,-1.4655557322060293e-05,-0.7000550978112423,1.0392845557672294e-05,-6.241836522688104,-1.0179164870611787e-06,1.2281870760411923e-07,-0.586644980356311,-2.211228375258842,-0.033604545616484724,10.0,3.6322101308101792e-06,-4.3992620468774585e-07,0.6325662835950803,1.600020770287545,-1.742095933949541e-06,2.419591246120018,0.7999997874950981,1.5547639264028467e-08,-0.002838761784192889
0.338,pd_gc_torque_clipped,0.011295740356390306,12.064956947490815,0.00036834745547957814,1.9748432490956003e-07,-8.351968676356317e-08,-1.4642512310849721e-05,-0.7000550770320069,1.0389617721085512e-05,-6.242190878005194,-1.0176709413149044e-06,1.227728731371645e-07,-0.586644986450434,-2.2112955863572026,-0.03360554918033664,10.0,3.63133050913166e-06,-4.398108392595959e-07,0.632568848231162,1.6000207668040938,-1.7417256458167735e-06,2.4194907424616487,0.7999997875261887,1.554530757926163e-08,-0.002836618353058595
0.34,pd_gc_torque_clipped,0.011362952443116319,12.065120219579944,0.0003682658807735612,1.973173313152967e-07,-8.349679713167e-08,-1.4629470378074917e-05,-0.7000550562592249,1.0386390964014642e-05,-6.242545144587732,-1.0174254872551412e-06,1.2272702988154624e-07,-0.5866449925418497,-2.2113627994621896,-0.03360655249341819,10.0,3.630451117875524e-06,-4.3969562806802635e-07,0.632571410078035,1.6000207633213828,-1.7413554652452083e-06,2.4193902248535086,0.7999997875572746,1.5542974463041692e-08,-0.002834474845195658
0.342,pd_gc_torque_clipped,0.011430166547986516,12.065283451836283,0.0003681842975688234,1.971503844351153e-07,-8.347344009069481e-08,-1.4616431345380357e-05,-0.7000550354928943,1.0383165306578917e-05,-6.242899322422936,-1.0171801237949148e-06,1.2268173011316814e-07,-0.5866449986296899,-2.211430014573301,-0.033607555555690026,10.0,3.629571958718004e-06,-4.3957957875995566e-07,0.6325739691349275,1.600020759839412,-1.7409853805819977e-06,2.4192896932958146,0.799999787588356,1.5540653713876723e-08,-0.00283233126064099
0.34400000000000003,pd_gc_torque_clipped,0.011497382670289644,12.065446644247546,0.00036810270612500215,1.9698348179240883e-07,-8.345132135323321e-08,-1.4603402593539495e-05,-0.7000550147330129,1.0379940681812393e-05,-6.243253411498317,-1.0169348533754777e-06,1.2263520971857106e-07,-0.5866450047206468,-2.211497231690035,-0.033608558367114856,10.0,3.628693026648519e-06,-4.394660347425426e-07,0.6325765253954815,1.6000207563581812,-1.740615438816253e-06,2.4191891477887344,0.7999997876194326,1.553829576815755e-08,-0.0028301875994824785
0.34600000000000003,pd_gc_torque_clipped,0.011564600809317996,12.06560979680092,0.00036802110541461086,1.9681662572952486e-07,-8.342803144198694e-08,-1.459036004444744e-05,-0.7000549939795785,1.0376717188607673e-05,-6.243607411800211,-1.0166896739019635e-06,1.2258973675713486e-07,-0.5866450107934023,-2.2115644508118906,-0.03360956092766296,10.0,3.627814326915414e-06,-4.3934986655262845e-07,0.6325790788797517,1.60002075287769,-1.740245566142261e-06,2.419088588332746,0.7999997876505045,1.5535985816452384e-08,-0.002828043861530148
0.34800000000000003,pd_gc_torque_clipped,0.011631820964369037,12.065772909484307,0.00036793949741732674,1.9664981395943233e-07,-8.340588504625952e-08,-1.457733761817417e-05,-0.700054973232589,1.037349473233074e-05,-6.243961323317203,-1.0164445874538665e-06,1.2254322404854638e-07,-0.5866450168752915,-2.211631671938365,-0.03361056323728389,10.0,3.6269358545208132e-06,-4.3923619730032387e-07,0.6325816295564108,1.6000207493979384,-1.739875838214323e-06,2.4189880149277028,0.7999997876815718,1.5533633806748815e-08,-0.002825900047161465
0.35000000000000003,pd_gc_torque_clipped,0.011699043134744843,12.065935982285094,0.0003678578798174852,1.964830478205002e-07,-8.33830694660594e-08,-1.4564302726106952e-05,-0.7000549524920423,1.0370273386894727e-05,-6.244315146035233,-1.01619959293694e-06,1.2249725846316878e-07,-0.5866450229411609,-2.211698895068957,-0.033611565295954104,10.0,3.6260576126879804e-06,-4.391209164165052e-07,0.632584177456177,1.600020745918926,-1.7395061927899445e-06,2.418887427574221,0.7999997877126344,1.5531313757596518e-08,-0.002823756156030071
0.352,pd_gc_torque_clipped,0.011766267319751958,12.066099015190963,0.00036777625467202473,1.9631632748996858e-07,-8.336016526581902e-08,-1.4551280853115184e-05,-0.7000549317579361,1.0367053125880166e-05,-6.2446688799425845,-1.0159546899189134e-06,1.2245150901332315e-07,-0.5866450290101243,-2.211766120203164,-0.03361256710362423,10.0,3.6251796013232185e-06,-4.3900568238090793e-07,0.6325867225539593,1.6000207424406527,-1.73913665706373e-06,2.4187868262722194,0.7999997877436923,1.552899038410882e-08,-0.0028216121884609108
0.354,pd_gc_torque_clipped,0.011833493518700817,12.066262008189673,0.0003676946207596833,1.9614965289856956e-07,-8.33372956995148e-08,-1.453826388547602e-05,-0.7000549110302682,1.0363833942424584e-05,-6.245022525026143,-1.015709878295325e-06,1.2240581179424775e-07,-0.5866450350782287,-2.2118333473404848,-0.03361356866026187,10.0,3.62430182004127e-06,-4.388906409742277e-07,0.6325892648594075,1.6000207389631182,-1.738767229580921e-06,2.4186862110220733,0.7999997877747457,1.552666354072381e-08,-0.0028194681443388108
0.356,pd_gc_torque_clipped,0.01190072173090609,12.066424961268721,0.00036761297833988205,1.959830249726233e-07,-8.331396297312053e-08,-1.4525250092092357e-05,-0.7000548903090364,1.0360615854989253e-05,-6.2453760812730845,-1.0154651569460194e-06,1.223606746527439e-07,-0.5866450411435082,-2.2119005764804163,-0.033614569965831155,10.0,3.6234242704344856e-06,-4.3877480339229077e-07,0.6325918043731203,1.6000207354863225,-1.738397898316772e-06,2.4185855818240083,0.7999997878057944,1.552434712242497e-08,-0.002817324023690318
0.358,pd_gc_torque_clipped,0.01196795195568698,12.066587874415792,0.0003675313276907902,1.9581644227898327e-07,-8.329134682002686e-08,-1.4512246516186178e-05,-0.7000548695942388,1.0357398815999877e-05,-6.245729548670903,-1.0152205271381738e-06,1.2231490392279953e-07,-0.5866450472121183,-2.211967807622457,-0.03361557102029462,10.0,3.62254694937283e-06,-4.3866053082770927e-07,0.6325943410887626,1.600020732010265,-1.7380286967388955e-06,2.4184849386781906,0.7999997878368384,1.5522006959677063e-08,-0.0028151798265993416
0.36,pd_gc_torque_clipped,0.0120351841923658,12.066750747618226,0.0003674496680397714,1.9564990358738445e-07,-8.326934579941332e-08,-1.4499236526838286e-05,-0.7000548488858731,1.0354182835191229e-05,-6.246082927206211,-1.014975990455099e-06,1.2226834153749843e-07,-0.5866450532696623,-2.212035040766104,-0.03361657182362244,10.0,3.6216698550853157e-06,-4.385471437571066e-07,0.6325968750203703,1.600020728534946,-1.737659612230254e-06,2.41838428158504,0.7999997878678777,1.551966088305555e-08,-0.002813035552948289
0.362,pd_gc_torque_clipped,0.012102418440269623,12.066913580863352,0.00036736800004059114,1.95483410481131e-07,-8.324655312671816e-08,-1.4486221445798967e-05,-0.7000548281839372,1.0350967970496167e-05,-6.246436216866353,-1.014731545525839e-06,1.2222246462991144e-07,-0.5866450593141365,-2.2121022759108557,-0.033617572375772425,10.0,3.6207929911671075e-06,-4.384319591040705e-07,0.6325994061637251,1.6000207250603646,-1.7372906106098346e-06,2.418283610544715,0.7999997878989125,1.551734813180287e-08,-0.002810891202822626
0.364,pd_gc_torque_clipped,0.012169654698728405,12.067076374139196,0.0003672863243880877,1.9531696316618874e-07,-8.32236574711318e-08,-1.4473221094716427e-05,-0.7000548074884287,1.0347754188223787e-05,-6.246789417639462,-1.0144871918176382e-06,1.2217685410042155e-07,-0.586645065363381,-2.2121695130562093,-0.033618572676698925,10.0,3.6199163574436176e-06,-4.3831686174498667e-07,0.6326019345022806,1.6000207215865212,-1.7369217194925615e-06,2.418182925557295,0.7999997879299425,1.551502934666842e-08,-0.0028087467764135346
0.366,pd_gc_torque_clipped,0.012236892967075778,12.067239127433476,0.0003672046398919383,1.9515056155859408e-07,-8.320080379732685e-08,-1.4460225848699255e-05,-0.7000547867993457,1.0344541480292148e-05,-6.247142529512309,-1.0142429292062694e-06,1.2213130568432424e-07,-0.5866450714123751,-2.212236752201662,-0.03361957272637106,10.0,3.619039953444856e-06,-4.382019993807072e-07,0.6326044600470461,1.6000207181134154,-1.7365529375092894e-06,2.418082226623146,0.7999997879609679,1.551270636987935e-08,-0.0028066022735876764
0.368,pd_gc_torque_clipped,0.012304133244648928,12.067401840733673,0.0003671229469014505,1.949842055503151e-07,-8.3178004139488e-08,-1.4447233671524952e-05,-0.700054766116686,1.034132984647099e-05,-6.247495552472062,-1.0139987577090021e-06,1.2208574863360628e-07,-0.5866450774586923,-2.2123039933467115,-0.03362057252475405,10.0,3.6181637788644408e-06,-4.380872902076746e-07,0.6326069827986298,1.6000207146410468,-1.7361842639675426e-06,2.4179815137425,0.7999997879919887,1.551038141577093e-08,-0.002804457694377484
0.37,pd_gc_torque_clipped,0.012371375530788969,12.067564514027302,0.0003670412454717481,1.9481789606770595e-07,-8.315474130457359e-08,-1.4434244386072378e-05,-0.7000547454404474,1.0338119306322124e-05,-6.247848486505954,-1.0137546762490188e-06,1.2204072999169987e-07,-0.5866450835014698,-2.212371236490855,-0.03362157207180948,10.0,3.617287835363442e-06,-4.379717504993739e-07,0.6326095027562642,1.6000207111694154,-1.7358156868342556e-06,2.417880786915593,0.7999997880230049,1.5508069069640198e-08,-0.0028023130388163645
0.372,pd_gc_torque_clipped,0.01243861982483994,12.06772714730213,0.0003669595359240289,1.9465163065629714e-07,-8.313270570441152e-08,-1.4421265307152446e-05,-0.7000547247706278,1.0334909793786928e-05,-6.2482013316015745,-1.0135106872444804e-06,1.21994502269185e-07,-0.5866450895473266,-2.21243848163359,-0.03362257136750105,10.0,3.6164121179751573e-06,-4.378586941423866e-07,0.6326120199136487,1.600020707698521,-1.7354472489615129e-06,2.4177800461426098,0.7999997880540163,1.5505720149231228e-08,-0.002800168306995287
0.374,pd_gc_torque_clipped,0.012505866126148726,12.067889740545338,0.00036687781714953867,1.9448541163714688e-07,-8.310950957512224e-08,-1.440827257264201e-05,-0.700054704107225,1.0331701407314928e-05,-6.248554087745238,-1.0132667886202593e-06,1.2194931211061644e-07,-0.5866450955751518,-2.2125057287744134,-0.03362357041179712,10.0,3.615536631900921e-06,-4.377430371180541e-07,0.6326145342906571,1.6000207042283632,-1.7350788821227069e-06,2.4176792914239877,0.7999997880850231,1.550341752820725e-08,-0.0027980234987260667
0.376,pd_gc_torque_clipped,0.012573114434066302,12.0680522937449,0.00036679609121485356,1.9431923674425205e-07,-8.308744644741754e-08,-1.4395299796920037e-05,-0.7000546834502369,1.0328494052161801e-05,-6.248906754925626,-1.0130229824355632e-06,1.21903092347986e-07,-0.5866451016120332,-2.212572977912823,-0.03362456920464888,10.0,3.6146613721876334e-06,-4.376298566437981e-07,0.6326170458562393,1.6000207007589418,-1.7347106593202904e-06,2.417578522759649,0.7999997881160253,1.5501075239251608e-08,-0.002795878614379068
0.378,pd_gc_torque_clipped,0.012640364747945422,12.068214806888207,0.0003667143557282941,1.9415310730364153e-07,-8.306472030525593e-08,-1.438231468927632e-05,-0.7000546627996613,1.0325287802362258e-05,-6.249259333128673,-1.0127792676064023e-06,1.218574145804517e-07,-0.5866451076330345,-2.212640229048315,-0.03362556774603218,10.0,3.613786342029174e-06,-4.3751507922964334e-07,0.6326195546408373,1.6000206972902566,-1.7343425184173508e-06,2.4174777401501806,0.7999997881470229,1.549876330754434e-08,-0.002793733653622218
