Ovmem/robot-control-retargeting-framework/results/panda_control/raw/ablation_computed_torque.csv
t,mode,err_norm,tau_norm,tau_smoothness_step,q1,qd1,tau1,q2,qd2,tau2,q3,qd3,tau3,q4,qd4,tau4,q5,qd5,tau5,q6,qd6,tau6,q7,qd7,tau7
0.0,computed_torque,2.985242003523109e-10,22.747211483223083,0.0,1.2660887058832732e-10,6.330443529416366e-08,7.288857076245492e-05,-0.6999999999952724,2.3637861532797548e-09,-6.188191091497088,1.4140623254847115e-10,7.070311627423558e-08,-0.5866008553535543,-2.199999999999737,1.3174991380024206e-10,21.73617644211187,2.3032320476455146e-10,1.1516160238227573e-07,0.6322421312527694,1.6000000000032102,1.6050347415119385e-09,2.436537308880347,0.8000000000031092,1.5545649736244344e-09,-0.003196257500585149
0.002,computed_torque,4.3375597133471697e-10,22.747212751688682,0.00012436346017850874,1.9393690194281472e-10,3.366401567724369e-08,-2.0356835796724926e-06,-0.6999999999936781,7.971379398602558e-10,-6.188191771842698,2.4958303792871785e-10,5.408840269012335e-08,-0.5866936021016187,-2.199999999998761,4.877268842639608e-10,21.736176159892622,2.969431471994971e-10,3.330997121747281e-08,0.6322067780417483,1.6000000000040422,4.160525014780272e-10,2.436536784590238,0.8000000000028207,-1.4424643651589112e-10,-0.0031962458877022176
0.004,computed_torque,5.12592319549252e-10,22.74721271143983,1.9508979049060752e-06,2.337976251285675e-10,1.993036159287641e-08,-8.454748235862992e-07,-0.6999999999935282,7.493196103034228e-11,-6.188191745007222,3.256256436565326e-10,3.8021302863907376e-08,-0.5866921115051665,-2.1999999999983735,1.9373910392171872e-10,21.736176153199494,3.193566749711032e-10,1.1206763885803058e-08,0.6322071863500048,1.600000000004449,2.0340732051543718e-10,2.436536789667372,0.8000000000021188,-3.5091659691223286e-10,-0.0031962505372968167
0.006,computed_torque,5.634907475088164e-10,22.747212694021496,8.456090254379732e-07,2.588961137040894e-10,1.2549244287760924e-08,-3.475318333657211e-07,-0.6999999999939125,-1.9211546430758982e-10,-6.188191737848374,3.7737202808869394e-10,2.5873192216080657e-08,-0.5866914439654874,-2.199999999998329,2.2162100234989735e-11,21.73617615051098,3.2866520384053127e-10,4.654264434714019e-09,0.6322073327346429,1.6000000000046828,1.1687426462891598e-10,2.436536791968593,0.8000000000015439,-2.8741781973763975e-10,-0.003196252975355745
0.008,computed_torque,5.977784331171179e-10,22.74721268627036,3.551872583526915e-07,2.753900814777416e-10,8.246983886826097e-09,-1.486768520658959e-07,-0.6999999999944173,-2.524032981333469e-10,-6.188191738339459,4.12338709658185e-10,1.7483340784745547e-08,-0.5866911521545526,-2.1999999999983886,-2.9732691137395126e-11,21.736176148945738,3.3379313045471744e-10,2.5639633070930764e-09,0.63220737088846,1.6000000000048187,6.794021957592121e-11,2.4365367926842754,0.8000000000011449,-1.995060239648399e-10,-0.0031962544403137906
0.01,computed_torque,6.207147562637054e-10,22.747212683683273,7.816255956444278e-08,2.862570347237102e-10,5.433476622984302e-09,-1.1996128185781783e-07,-0.6999999999948957,-2.3921189510004647e-10,-6.188191741652207,4.3573806626046283e-10,1.16996783011389e-08,-0.5866910830723019,-2.1999999999984463,-2.8854246665508638e-11,21.736176147837437,3.367831323926266e-10,1.4950009689545662e-09,0.632207348542652,1.6000000000048937,3.7485365914940305e-11,2.436536792436174,0.8000000000008732,-1.3584291277975728e-10,-0.0031962553595867066
0.012,computed_torque,6.361194859481659e-10,22.747212681692105,1.1613554342452044e-07,2.9348259288331226e-10,3.6127790798010433e-09,-5.9049855916014714e-08,-0.6999999999952965,-2.004013083504964e-10,-6.188191744526995,4.51366894898516e-10,7.814414319026585e-09,-0.5866909843528053,-2.1999999999984756,-1.456116201715306e-11,21.7361761474474,3.3872493500832796e-10,9.70901307850696e-10,0.6322073533290322,1.6000000000049384,2.2351820687241928e-11,2.436536792552999,0.8000000000006924,-9.043775274709969e-11,-0.0031962559792722603
0.014,computed_torque,6.464024150283112e-10,22.747212680892467,5.8039469579824594e-08,2.98275615723344e-10,2.396511420015871e-09,-3.094601240107816e-08,-0.6999999999956148,-1.5914735129553885e-10,-6.1881917471580286,4.6176240121978204e-10,5.197753160633034e-09,-0.5866909337102939,-2.1999999999984774,-7.910285831563188e-13,21.736176147305855,3.3999511468172356e-10,6.350898366978121e-10,0.6322073506870821,1.600000000004967,1.436489520569647e-11,2.436536792547335,0.8000000000005721,-6.013458751955786e-11,-0.003196256388838679
0.016,computed_torque,6.53260165140494e-10,22.747212680514973,4.3723876592705166e-08,3.014577809075051e-10,1.5910825920805594e-09,-9.056812680979565e-09,-0.6999999999958596,-1.223793270811558e-10,-6.18819174923678,4.686600716356126e-10,3.448835207915238e-09,-0.5866908959197324,-2.1999999999984605,8.404525827442134e-12,21.736176147346203,3.40859435925923e-10,4.321606220997054e-10,0.6322073503489174,1.6000000000049877,1.0293558422391188e-11,2.436536792570568,0.800000000000493,-3.9593549982985454e-11,-0.0031962566646178037
0.018000000000000002,computed_torque,6.578076869947048e-10,22.747212680569895,1.557419523809988e-08,3.035606296494485e-10,1.0514243709716976e-09,-3.742803820902415e-09,-0.6999999999960445,-9.24113626641858e-11,-6.188191750932215,4.732138309449731e-10,2.2768796546802243e-09,-0.5866908821440249,-2.199999999998434,1.3260139393257364e-11,21.736176147432943,3.4144873730924807e-10,2.946506916625541e-10,0.6322073456982226,1.6000000000050034,7.829605533413011e-12,2.436536792527029,0.8000000000004411,-2.593697177310812e-11,-0.003196256848646818
0.02,computed_torque,6.60782014649982e-10,22.747212680787246,6.629599110077898e-09,3.0493160925018154e-10,6.8548980036653e-10,-4.690670705311713e-09,-0.6999999999961826,-6.906748555245957e-11,-6.188191752251054,4.761873380880496e-10,1.4867535715382526e-09,-0.5866908784750371,-2.199999999998404,1.492400109928539e-11,21.736176147543606,3.418373362495734e-10,1.9429947016268074e-10,0.6322073404235992,1.6000000000050154,6.047080853488905e-12,2.4365367924713563,0.8000000000004073,-1.6917142166197435e-11,-0.003196256972446966
0.022,computed_torque,6.626960533683592e-10,22.74721268104224,5.4618410001816176e-09,3.058103752599749e-10,4.3938300489668636e-10,-7.467553053959765e-09,-0.6999999999962848,-5.1131325375553134e-11,-6.188191753251473,4.780977216914527e-10,9.551918017015887e-10,-0.5866908786400504,-2.199999999998375,1.460180649646913e-11,21.736176147660125,3.420918005237278e-10,1.2723213707720368e-10,0.6322073358334399,1.600000000005025,4.720107707937998e-12,2.4365367924228223,0.8000000000003856,-1.0833593715613223e-11,-0.0031962570565261163
0.024,computed_torque,6.63905643060967e-10,22.7472126813304,8.904147649381166e-09,3.0636248893244736e-10,2.7605683623622457e-10,-1.3116078353612651e-08,-0.6999999999963596,-3.743270657919454e-11,-6.188191754025502,4.792978838572237e-10,6.000810828854636e-10,-0.586690883413513,-2.199999999998348,1.3257182615590206e-11,21.73617614776118,3.422642575191113e-10,8.622849769173834e-11,0.6322073309368741,1.6000000000050325,3.724988855010672e-12,2.436536792366743,0.8000000000003723,-6.682243637921797e-12,-0.003196257113332988
0.026000000000000002,computed_torque,6.646271815888619e-10,22.74721268159971,9.373025030162849e-09,3.066887256311221e-10,1.6311834933738076e-10,-1.9035582163778266e-08,-0.6999999999964142,-2.7255512546321412e-11,-6.188191754612817,4.800145905569353e-10,3.5835334985577536e-10,-0.5866908892453944,-2.199999999998325,1.1499001439056324e-11,21.736176147848923,3.423684143941061e-10,5.2078437497418094e-11,0.632207326642035,1.600000000005038,2.8204680406987103e-12,2.4365367923166987,0.8000000000003643,-3.9968757193614395e-12,-0.0031962571513967438
0.028,computed_torque,6.650116808595175e-10,22.747212681788124,4.432752483694574e-09,3.0685903760448627e-10,8.515598668206527e-11,-2.1843577085973676e-08,-0.6999999999964536,-1.969663073472304e-11,-6.188191755030855,4.804005479458138e-10,1.9297869443923115e-10,-0.5866908917056823,-2.199999999998306,9.647753270179476e-12,21.73617614793174,3.4242134855699625e-10,2.646708144505433e-11,0.6322073242907456,1.6000000000050423,2.0659040224558996e-12,2.436536792292824,0.8000000000003599,-2.202732528062246e-12,-0.0031962571777666834
0.03,computed_torque,6.651742941664357e-10,22.747212681911964,1.1269706932960377e-09,3.0692660433223086e-10,3.3783363872291497e-11,-2.2369101048855774e-08,-0.6999999999964815,-1.3987905501201881e-11,-6.18819175532491,4.805649234287371e-10,8.218774146164823e-11,-0.5866908916622423,-2.19999999999829,7.917457703068625e-12,21.736176148006972,3.424461541073624e-10,1.2402775183061158e-11,0.6322073233423209,1.6000000000050454,1.5126492145989534e-12,2.4365367922875443,0.800000000000358,-9.267382754420581e-13,-0.003196257196076791
0.032,computed_torque,6.651873097427991e-10,22.747212682033048,2.6824092557788846e-09,3.0692494791162604e-10,-8.282103024081711e-13,-2.4064733949964002e-08,-0.699999999996501,-9.733544927767417e-12,-6.188191755553772,4.805800659152335e-10,7.571243248180156e-12,-0.5866908932854917,-2.199999999998277,6.418670368155848e-12,21.73617614806319,3.4245177229923673e-10,2.8090959371643294e-12,0.6322073220658508,1.6000000000050476,1.0705385174170693e-12,2.4365367922755423,0.8000000000003579,-7.211137517014664e-14,-0.0031962572083878388
0.034,computed_torque,6.650983771547778e-10,22.747212682137306,2.986171449093644e-09,3.0687613767254206e-10,-2.4405119541999698e-11,-2.5931974773152214e-08,-0.6999999999965142,-6.584649812302582e-12,-6.1881917557278285,4.804941254628571e-10,-4.2970226188174745e-11,-0.5866908952695574,-2.199999999998267,5.16065639718714e-12,21.736176148105763,3.424434381617849e-10,-4.167068725914494e-12,0.6322073208568106,1.600000000005049,7.166543438437157e-13,2.4365367922629853,0.8000000000003589,4.963343697458986e-13,-0.0031962572168192853
0.036000000000000004,computed_torque,6.649395797747049e-10,22.747212682222482,2.73480011482676e-09,3.0679501231709587e-10,-4.0562677723104607e-11,-2.7630485612673286e-08,-0.6999999999965227,-4.261283060186378e-12,-6.188191755858874,4.803393647401147e-10,-7.73803613712208e-11,-0.5866908971446736,-2.1999999999982585,4.128446717065547e-12,21.73617614813817,3.4242489005470214e-10,-9.274053541363121e-12,0.6322073198273687,1.6000000000050498,4.3898016755147574e-13,2.436536792251859,0.8000000000003606,8.764457002660611e-13,-0.0031962572226667124
0.038,computed_torque,6.64732710793198e-10,22.7472126822902,2.3293048864008452e-09,3.0669164801857023e-10,-5.168214926282952e-11,-2.9071077039816376e-08,-0.6999999999965278,-2.549324102763989e-12,-6.1881917559571376,4.801375383930495e-10,-1.009131735325923e-10,-0.5866908987678892,-2.199999999998252,3.2979225950711737e-12,21.736176148162716,3.423988984936938e-10,-1.2995780504165527e-11,0.6322073189876262,1.6000000000050503,2.22142681977393e-13,2.436536792242568,0.8000000000003629,1.1324782089826707e-12,-0.0031962572267671308
0.04,computed_torque,6.644926506451238e-10,22.747212682343335,1.91853350921298e-09,3.0657292364081255e-10,-5.93621888788406e-11,-3.025436485003172e-08,-0.6999999999965304,-1.2885641470868764e-12,-6.188191756030826,4.799033944967691e-10,-1.1707194814020906e-10,-0.5866909001182381,-2.1999999999982465,2.6410198785967404e-12,21.736176148181276,3.423675013111853e-10,-1.5698591254266275e-11,0.6322073183158237,1.6000000000050503,5.379297265232694e-14,2.4365367922350187,0.8000000000003655,1.305676704467784e-12,-0.003196257229676002
0.042,computed_torque,6.642295967395219e-10,22.747212682384593,1.5521256308658352e-09,3.064435530847472e-10,-6.468527803267559e-11,-3.1209991346588756e-08,-0.6999999999965312,-3.609198363939613e-13,-6.18819175608615,4.79646977141941e-10,-1.2820867741398805e-10,-0.5866909012178456,-2.199999999998242,2.1275771198495673e-12,21.73617614819519,3.423321807086758e-10,-1.7660301254739614e-11,0.6322073177834331,1.60000000000505,-7.515459080477682e-14,2.4365367922289516,0.8000000000003684,1.4234759873990814e-12,-0.0031962572317679916
0.044,computed_torque,6.639505593912459e-10,22.747212682416443,1.2419484489239792e-09,3.0630677781956145e-10,-6.838763259286833e-11,-3.1973921183323596e-08,-0.6999999999965305,3.2108671453341595e-13,-6.188191756127772,4.79375155159976e-10,-1.3591099098251434e-10,-0.5866909021014224,-2.1999999999982385,1.7294658980831022e-12,21.736176148205576,3.4229400755274277e-10,-1.9086577966531107e-11,0.632207317363584,1.6000000000050496,-1.727700737486357e-13,2.436536792224106,0.8000000000003714,1.503190067469409e-12,-0.0031962572332966655
0.046,computed_torque,6.636603764117048e-10,22.74721268244094,9.8600764688559e-10,3.061648348403909e-10,-7.097148958527752e-11,-3.2580296117016165e-08,-0.6999999999965288,8.223416370858342e-13,-6.18819175615925,4.790926446656751e-10,-1.412552471504295e-10,-0.5866909028045811,-2.199999999998236,1.4238950472588876e-12,21.736176148213307,3.4225375378391407e-10,-2.012688441433833e-11,0.6322073170333999,1.6000000000050492,-2.470757676763381e-13,2.436536792220256,0.8000000000003745,1.5578242106878013e-12,-0.0031962572344355882
0.048,computed_torque,6.633623972578018e-10,22.74721268245971,7.778032228127115e-10,3.0601927397151053e-10,-7.278043444017983e-11,-3.305888672837825e-08,-0.6999999999965265,1.190682567683368e-12,-6.188191756183167,4.788026967516048e-10,-1.44973957035137e-10,-0.5866909033596681,-2.1999999999982336,1.191578228015147e-12,21.736176148219045,3.422119766110377e-10,-2.088858643818536e-11,0.6322073167741853,1.6000000000050485,-3.030139261554458e-13,2.436536792217196,0.8000000000003777,1.5951914763913134e-12,-0.003196257235303003
0.05,computed_torque,6.630589559979307e-10,22.747212682474014,6.098830574429408e-10,3.058711735661643e-10,-7.405020267311091e-11,-3.343467106844189e-08,-0.6999999999965236,1.4609148001475003e-12,-6.188191756201435,4.785075619729239e-10,-1.475673893404746e-10,-0.586690903794506,-2.1999999999982314,1.015054867603854e-12,21.736176148223258,3.421690797190885e-10,-2.1448445974605674e-11,0.632207316570957,1.6000000000050478,-3.462581204100685e-13,2.4365367922147714,0.800000000000381,1.6205827340670487e-12,-0.0031962572359807606
0.052000000000000005,computed_torque,6.627516807450858e-10,22.74721268248487,4.75246041408818e-10,3.057212874234729e-10,-7.494307134570713e-11,-3.372818629504166e-08,-0.6999999999965203,1.6587328243279298e-12,-6.18819175621551,4.782088052529376e-10,-1.493783599931802e-10,-0.586690904132394,-2.1999999999982296,8.817434711001847e-13,21.736176148226335,3.421253567284091e-10,-2.1861495339696827e-11,0.6322073164118102,1.6000000000050472,-3.784380635097804e-13,2.4365367922128534,0.8000000000003843,1.638271809420484e-12,-0.003196257236525186
0.054,computed_torque,6.624417146723751e-10,22.747212682493092,3.6775742357005064e-10,3.0557014513659764e-10,-7.557114343762654e-11,-3.39561185107547e-08,-0.6999999999965167,1.8040106150140988e-12,-6.188191756226453,4.779075199635285e-10,-1.5064264470452442e-10,-0.5866909043925309,-2.199999999998228,7.825198339238746e-13,21.73617614822859,3.4208102235622435e-10,-2.2167186092382055e-11,0.6322073162873356,1.6000000000050463,-4.0287795391052394e-13,2.436536792211345,0.8000000000003876,1.6497867848817358e-12,-0.003196257236975391
0.056,computed_torque,6.621298668894244e-10,22.747212682499246,2.822298277977787e-10,3.054181207550988e-10,-7.601219074940335e-11,-3.4131921030523423e-08,-0.699999999996513,1.9097447955159874e-12,-6.188191756235056,4.776044738367816e-10,-1.515230633734896e-10,-0.5866909045905621,-2.1999999999982265,7.0749909558505e-13,21.736176148230197,3.420362346334785e-10,-2.2393861372919108e-11,0.632207316190111,1.6000000000050454,-4.203330256881527e-13,2.436536792210144,0.800000000000391,1.657840329364114e-12,-0.0031962572373589126
0.058,computed_torque,6.618167128439996e-10,22.74721268250391,2.1436136731509521e-10,3.05265479967424e-10,-7.632039383738495e-11,-3.426638171108883e-08,-0.699999999996509,1.986621935869458e-12,-6.188191756241941,4.773002089030119e-10,-1.5213246688482658e-10,-0.5866909047391332,-2.199999999998225,6.514625233500905e-13,21.73617614823142,3.41991110322655e-10,-2.25621554117641e-11,0.6322073161142964,1.6000000000050445,-4.330280164113646e-13,2.4365367922092105,0.8000000000003943,1.6632731519623114e-12,-0.0031962572376943296
0.06,computed_torque,6.615026622277186e-10,22.747212682507357,1.6063931092976205e-10,3.051124126032634e-10,-7.653368208030793e-11,-3.43681166808715e-08,-0.6999999999965049,2.0422143014372208e-12,-6.188191756247528,4.769951099770871e-10,-1.5254946296238216e-10,-0.5866909048484096,-2.199999999998224,6.090833354032598e-13,21.736176148232282,3.4194573630921295e-10,-2.268700672102254e-11,0.6322073160552958,1.6000000000050436,-4.4358793076230584e-13,2.436536792208479,0.8000000000003976,1.6665833169501994e-12,-0.0031962572379952685
0.062,computed_torque,6.611880098572495e-10,22.747212682509893,1.1825001156611566e-10,3.049590551060721e-10,-7.66787485956682e-11,-3.444398606551948e-08,-0.6999999999965006,2.0826653208103663e-12,-6.188191756252138,4.766894519086735e-10,-1.5282903420680082e-10,-0.5866909049265575,-2.1999999999982225,5.784325093751478e-13,21.73617614823291,3.4190017738329287e-10,-2.2779462960030272e-11,0.6322073160094945,1.6000000000050427,-4.507385588615329e-13,2.436536792207907,0.800000000000401,1.6686706613615391e-12,-0.0031962572382714122
0.064,computed_torque,6.608729671959035e-10,22.74721268251172,8.491530602268487e-11,3.0480550614442034e-10,-7.677448082586463e-11,-3.449943800278425e-08,-0.6999999999964964,2.1112880206649924e-12,-6.188191756256017,4.763834321087911e-10,-1.530098999412021e-10,-0.5866909049800751,-2.1999999999982216,5.545617864191805e-13,21.736176148233355,3.4185448241480637e-10,-2.2847484243261354e-11,0.6322073159740538,1.6000000000050418,-4.560997912431848e-13,2.4365367922074608,0.8000000000004043,1.6697869935323941e-12,-0.003196257238529326
0.066,computed_torque,6.605576905040952e-10,22.747212682513062,5.886254885483477e-11,3.046518375164607e-10,-7.683431397981779e-11,-3.453879076102944e-08,-0.6999999999964922,2.132099401518614e-12,-6.188191756259376,4.760771933328604e-10,-1.5311938796536545e-10,-0.5866909050141179,-2.1999999999982207,5.380258061312732e-13,21.736176148233717,3.418086880440104e-10,-2.2897185397979114e-11,0.632207315946747,1.600000000005041,-4.592786646146434e-13,2.436536792207125,0.8000000000004076,1.6703872837525824e-12,-0.00319625723877397
0.068,computed_torque,6.60242293929271e-10,22.74721268251399,3.882965700639948e-11,3.044981017719044e-10,-7.686787227812364e-11,-3.4565461067328396e-08,-0.6999999999964879,2.1462397992054537e-12,-6.18819175626232,4.757708393470793e-10,-1.531769928905639e-10,-0.5866909050328151,-2.19999999999822,5.251621868036101e-13,21.736176148233984,3.417628222323852e-10,-2.2932905812608183e-11,0.6322073159258187,1.60000000000504,-4.624790655520222e-13,2.4365367922068675,0.8000000000004109,1.6710351793079315e-12,-0.003196257239008665
0.07,computed_torque,6.599268604542302e-10,22.74721268251462,2.4134746206980495e-11,3.0434433760310904e-10,-7.688208439769409e-11,-3.458214834146049e-08,-0.6999999999964835,2.155926567598376e-12,-6.188191756264965,4.754644460952379e-10,-1.5319662592070182e-10,-0.5866909050394036,-2.199999999998219,5.158005070483363e-13,21.736176148234197,3.4171690614930377e-10,-2.295804154069611e-11,0.6322073159098975,1.6000000000050392,-4.653727289320494e-13,2.436536792206677,0.8000000000004143,1.6706115704429352e-12,-0.003196257239235753
0.07200000000000001,computed_torque,6.59611451971283e-10,22.747212682515,1.537748986694297e-11,3.041905736766504e-10,-7.68819632293255e-11,-3.4590983317458194e-08,-0.6999999999964792,2.162642960514645e-12,-6.188191756267373,4.751580694803963e-10,-1.531883074207993e-10,-0.5866909050364639,-2.199999999998218,5.093398882307581e-13,21.736176148234353,3.416709559529266e-10,-2.2975098188595443e-11,0.6322073158979027,1.6000000000050383,-4.659779050813527e-13,2.436536792206532,0.8000000000004176,1.6707485165432638e-12,-0.003196257239457788
0.074,computed_torque,6.592961145598552e-10,22.74721268251516,1.416006055609866e-11,3.040368313100938e-10,-7.687118327831503e-11,-3.459364568984742e-08,-0.6999999999964749,2.1664171114380236e-12,-6.188191756269589,4.748517508381854e-10,-1.531593211054339e-10,-0.5866909050260255,-2.199999999998217,5.038531233331784e-13,21.736176148234442,3.416249841055077e-10,-2.2985923709432918e-11,0.6322073158889875,1.6000000000050374,-4.670751670144103e-13,2.4365367922064243,0.8000000000004209,1.669526297442434e-12,-0.003196257239675212
0.076,computed_torque,6.589808826766002e-10,22.747212682515237,1.783909777394496e-11,3.0388312647687805e-10,-7.685241660786689e-11,-3.459145874434867e-08,-0.6999999999964706,2.168364860565204e-12,-6.188191756271693,4.745455209556085e-10,-1.5311494128842328e-10,-0.5866909050096938,-2.1999999999982163,4.997983779781947e-13,21.736176148234563,3.41579000078884e-10,-2.2992013311849025e-11,0.6322073158824888,1.6000000000050365,-4.686197451751564e-13,2.436536792206355,0.8000000000004243,1.6686510823252031e-12,-0.003196257239890205
0.078,computed_torque,6.586657822189391e-10,22.747212682515173,2.2372188535361702e-11,3.0372947118108065e-10,-7.682764789870832e-11,-3.458546410230275e-08,-0.6999999999964662,2.1692218619078556e-12,-6.18819175627368,4.742394028662461e-10,-1.5305904468122734e-10,-0.586690904988733,-2.1999999999982154,4.973525508046632e-13,21.736176148234634,3.4153301115110426e-10,-2.2994463889879333e-11,0.6322073158778818,1.6000000000050356,-4.689224790862222e-13,2.4365367922063057,0.8000000000004276,1.668065237572564e-12,-0.0031962572401025144
0.08,computed_torque,6.583508327554332e-10,22.747212682515038,2.644659642940271e-11,3.035758744842777e-10,-7.679834840148032e-11,-3.457648114891735e-08,-0.6999999999964619,2.1690073625530546e-12,-6.188191756275603,4.739334138545751e-10,-1.5299450583549397e-10,-0.5866909049641311,-2.1999999999982145,4.955602138283628e-13,21.736176148234705,3.4148702300613015e-10,-2.29940724870419e-11,0.6322073158747626,1.6000000000050347,-4.693736915895827e-13,2.43653679220628,0.8000000000004309,1.6677155561377195e-12,-0.003196257240312733
0.082,computed_torque,6.580360491306671e-10,22.74721268251484,2.981098443159818e-11,3.034223432538344e-10,-7.676561522163442e-11,-3.4565154233050906e-08,-0.6999999999964576,2.168120274398009e-12,-6.188191756277458,4.736275669470296e-10,-1.5292345377280083e-10,-0.5866909049366889,-2.1999999999982136,4.935335439611226e-13,21.736176148234765,3.4144104008927956e-10,-2.299145842530269e-11,0.6322073158728062,1.6000000000050338,-4.697108535507755e-13,2.4365367922062653,0.8000000000004343,1.6666719433771517e-12,-0.003196257240521354
0.084,computed_torque,6.577214425735408e-10,22.7472126825146,3.2530794559195817e-11,3.0326888270848174e-10,-7.673027267634983e-11,-3.45519896814598e-08,-0.6999999999964532,2.166894800660047e-12,-6.188191756279275,4.733218720332724e-10,-1.528474568785513e-10,-0.5866909049070155,-2.1999999999982127,4.923447022031389e-13,21.73617614823483,3.413950657001513e-10,-2.2987194564132937e-11,0.6322073158717629,1.600000000005033,-4.685009495169164e-13,2.4365367922062675,0.8000000000004376,1.6658115721055584e-12,-0.003196257240729239
0.08600000000000001,computed_torque,6.574070216481858e-10,22.747212682514313,3.4707319485088915e-11,3.0311549682869494e-10,-7.669293989339477e-11,-3.4537385399482205e-08,-0.6999999999964489,2.1653359562322875e-12,-6.188191756281058,4.73016336622773e-10,-1.5276770524973388e-10,-0.5866909048755833,-2.199999999998212,4.922289144769638e-13,21.73617614823488,3.4134910240932275e-10,-2.2981645414268492e-11,0.6322073158714352,1.600000000005032,-4.690659636937034e-13,2.43653679220628,0.8000000000004409,1.665105811994245e-12,-0.0031962572409360798
0.088,computed_torque,6.570927929201642e-10,22.747212682514007,3.64170506065275e-11,3.0296218864214584e-10,-7.665409327455587e-11,-3.4521653871245855e-08,-0.6999999999964446,2.1630869404923845e-12,-6.188191756282819,4.727109663977665e-10,-1.526851125032624e-10,-0.5866909048427882,-2.199999999998211,4.918308869718745e-13,21.736176148234932,3.4130315232005315e-10,-2.2975044634816407e-11,0.6322073158716685,1.6000000000050312,-4.694768249966358e-13,2.436536792206297,0.8000000000004442,1.663648668216811e-12,-0.003196257241142112
0.09,computed_torque,6.567787614108072e-10,22.747212682513666,3.776787264063598e-11,3.028089604884521e-10,-7.661407684688411e-11,-3.450504042711189e-08,-0.6999999999964402,2.1605286728451916e-12,-6.188191756284554,4.724057657078137e-10,-1.5260034497640075e-10,-0.5866909048089223,-2.19999999999821,4.913238073897684e-13,21.73617614823498,3.4125721702172524e-10,-2.2967649163953346e-11,0.6322073158723407,1.6000000000050303,-4.697244788822221e-13,2.4365367922063195,0.8000000000004476,1.6632193709189581e-12,-0.0031962572413479747
0.092,computed_torque,6.564649309599106e-10,22.747212682513304,3.8817123945015135e-11,3.026558141454332e-10,-7.6573171509467e-11,-3.44877377008387e-08,-0.6999999999964359,2.1580310597320235e-12,-6.188191756286263,4.721007378742311e-10,-1.5251391679132263e-10,-0.5866909047742324,-2.199999999998209,4.907502857281909e-13,21.736176148235014,3.4121129775369954e-10,-2.295963401284691e-11,0.6322073158733558,1.6000000000050294,-4.681483192837898e-13,2.4365367922063443,0.8000000000004509,1.6620252639108006e-12,-0.0031962572415527753
0.094,computed_torque,6.561513044914509e-10,22.747212682512952,3.9657770362535304e-11,3.02502750978886e-10,-7.653158327359228e-11,-3.44698967088648e-08,-0.6999999999964316,2.1552226606892775e-12,-6.1881917562879805,4.717958854319323e-10,-1.5242622114934683e-10,-0.5866909047388801,-2.1999999999982083,4.901851795999615e-13,21.73617614823507,3.4116539544845807e-10,-2.2951152620732334e-11,0.6322073158746431,1.6000000000050285,-4.680697791892383e-13,2.4365367922063808,0.8000000000004542,1.660945986810833e-12,-0.0031962572417576214
0.096,computed_torque,6.5583788425678e-10,22.74721268251258,4.029986004301442e-11,3.023497720388129e-10,-7.648947003653576e-11,-3.4451636144705004e-08,-0.6999999999964273,2.1524777776833566e-12,-6.188191756289676,4.714912103198112e-10,-1.523375560605784e-10,-0.5866909047030266,-2.1999999999982074,4.896791053343739e-13,21.736176148235117,3.4111951085029896e-10,-2.294229907954126e-11,0.6322073158761404,1.6000000000050276,-4.678218581411197e-13,2.4365367922064145,0.8000000000004576,1.659981960775165e-12,-0.0031962572419620577
0.098,computed_torque,6.555246719441245e-10,22.74721268251221,4.079915314816289e-11,3.0219687812731594e-10,-7.644695574847756e-11,-3.443304895515297e-08,-0.6999999999964229,2.150141810887316e-12,-6.188191756291375,4.711867140385776e-10,-1.5224814061677583e-10,-0.5866909046667859,-2.1999999999982065,4.904374250529631e-13,21.73617614823517,3.410736444471803e-10,-2.2933201559327586e-11,0.6322073158778017,1.6000000000050267,-4.676563233854139e-13,2.436536792206453,0.8000000000004609,1.6591320426033592e-12,-0.0031962572421661626
0.1,computed_torque,6.55211668896356e-10,22.74721268251182,4.118870351214423e-11,3.02044069844522e-10,-7.640414139696155e-11,-3.44142081162726e-08,-0.6999999999964186,2.1471333573654006e-12,-6.188191756293067,4.708823976640931e-10,-1.5215818724226467e-10,-0.5866909046302425,-2.1999999999982056,4.89851923355175e-13,21.736176148235213,3.410277968299329e-10,-2.2923808623695404e-11,0.6322073158795933,1.6000000000050258,-4.670597743730722e-13,2.4365367922064896,0.8000000000004642,1.6583885480464427e-12,-0.003196257242369914
0.10200000000000001,computed_torque,6.548988760770255e-10,22.747212682511435,4.148873203830119e-11,3.018913476522629e-10,-7.636109612955222e-11,-3.43951709172181e-08,-0.6999999999964143,2.144192631594221e-12,-6.188191756294752,4.705782620472358e-10,-1.5206780842866074e-10,-0.5866909045934671,-2.1999999999982047,4.8944775129557e-13,21.736176148235263,3.409819682941233e-10,-2.2914267904809868e-11,0.6322073158814855,1.600000000005025,-4.679543937374777e-13,2.436536792206531,0.8000000000004676,1.6568535286526343e-12,-0.003196257242573397
0.10400000000000001,computed_torque,6.545862942026264e-10,22.747212682511073,4.1713920861378474e-11,3.017387119073659e-10,-7.631787244849217e-11,-3.4375982241201007e-08,-0.6999999999964099,2.1416557593392197e-12,-6.188191756296441,4.702743078490845e-10,-1.5197709907566114e-10,-0.5866909045565204,-2.199999999998204,4.901828328634204e-13,21.736176148235337,3.409361590162291e-10,-2.2904638947095246e-11,0.632207315883457,1.600000000005024,-4.672564413593334e-13,2.4365367922065735,0.8000000000004709,1.6563269472140023e-12,-0.003196257242777155
0.106,computed_torque,6.542739238695262e-10,22.747212682510643,4.1901414387409724e-11,3.0158616286186226e-10,-7.627452275183372e-11,-3.4356677228582085e-08,-0.6999999999964056,2.1388247339175416e-12,-6.188191756298111,4.699705355009529e-10,-1.5188617406579886e-10,-0.5866909045194248,-2.199999999998203,4.897465826380902e-13,21.73617614823535,3.4089036935214697e-10,-2.289483204107963e-11,0.6322073158854903,1.6000000000050232,-4.661323771851234e-13,2.436536792206613,0.8000000000004742,1.655008620613702e-12,-0.0031962572429801335
0.108,computed_torque,6.539617648192534e-10,22.747212682510256,4.202563933104139e-11,3.014337007137538e-10,-7.623107405423071e-11,-3.433728347308031e-08,-0.6999999999964014,2.1364053925825393e-12,-6.188191756299787,4.696669453777773e-10,-1.5179506158774227e-10,-0.5866909044822382,-2.199999999998202,4.907007828407422e-13,21.73617614823541,3.4084459931529753e-10,-2.2885018424732462e-11,0.6322073158875713,1.6000000000050223,-4.667491113870989e-13,2.436536792206658,0.8000000000004776,1.653793430431442e-12,-0.0031962572431834175
0.11,computed_torque,6.536498179838055e-10,22.747212682509858,4.2127845260375465e-11,3.0128132559078333e-10,-7.618756148523728e-11,-3.431782289027968e-08,-0.6999999999963972,2.1333233675887044e-12,-6.188191756301452,4.693635376799703e-10,-1.5170384890349066e-10,-0.5866909044449724,-2.199999999998201,4.903044941664655e-13,21.736176148235455,3.4079884916569726e-10,-2.287507480014755e-11,0.6322073158896895,1.6000000000050214,-4.669278887997135e-13,2.4365367922067,0.8000000000004809,1.652680442777419e-12,-0.0031962572433864816
0.112,computed_torque,6.533380835418729e-10,22.747212682509456,4.218669426767019e-11,3.0112903759274667e-10,-7.614399901833553e-11,-3.4298312194484106e-08,-0.699999999996393,2.130313135395533e-12,-6.188191756303111,4.690603125807597e-10,-1.5161254960527248e-10,-0.5866909044076677,-2.1999999999982003,4.899572128524021e-13,21.736176148235504,3.4075311894853746e-10,-2.2865108579909713e-11,0.6322073158918372,1.6000000000050205,-4.669265628589991e-13,2.436536792206746,0.8000000000004842,1.6516721159755508e-12,-0.003196257243589342
0.114,computed_torque,6.530265616175291e-10,22.747212682509048,4.2247285640508934e-11,3.0097683678511526e-10,-7.610040381571721e-11,-3.427876471780465e-08,-0.6999999999963887,2.1273738238069526e-12,-6.1881917563047555,4.687572701888836e-10,-1.5152119593810665e-10,-0.5866909043703143,-2.1999999999981994,4.896580234993685e-13,21.736176148235547,3.407074087235736e-10,-2.2855112481911274e-11,0.6322073158940067,1.6000000000050196,-4.667442508774392e-13,2.4365367922067884,0.8000000000004875,1.6507681966801744e-12,-0.0031962572437919936
0.116,computed_torque,6.527152522561736e-10,22.747212682508643,4.2278711162722486e-11,3.008247232087679e-10,-7.605678817368675e-11,-3.425919082075582e-08,-0.6999999999963845,2.124855030246011e-12,-6.188191756306408,4.684544105898195e-10,-1.514297995320815e-10,-0.5866909043329407,-2.1999999999981985,4.906194863016333e-13,21.736176148235593,3.406617184536391e-10,-2.284513496727083e-11,0.6322073158961939,1.6000000000050187,-4.666337603956082e-13,2.436536792206836,0.8000000000004909,1.6499709418680442e-12,-0.003196257243994471
0.11800000000000001,computed_torque,6.524041555275082e-10,22.74721268250822,4.230392954085074e-11,3.0067269687431353e-10,-7.601316722718117e-11,-3.4239598660728195e-08,-0.6999999999963803,2.1216762555532453e-12,-6.188191756308056,4.681517337623811e-10,-1.5133841371918177e-10,-0.5866909042955486,-2.1999999999981976,4.902309563431564e-13,21.73617614823562,3.4061604832166066e-10,-2.2835065989223288e-11,0.6322073158983947,1.6000000000050179,-4.660850352011421e-13,2.436536792206877,0.8000000000004942,1.6492752453056718e-12,-0.003196257244196714
0.12,computed_torque,6.520932714074907e-10,22.747212682507808,4.231024601285774e-11,3.005207577828008e-10,-7.596954575634508e-11,-3.421999469460235e-08,-0.6999999999963761,2.1185717883446263e-12,-6.1881917563097035,4.678492397044012e-10,-1.5124702898994917e-10,-0.5866909042581562,-2.1999999999981967,4.898915712987493e-13,21.73617614823566,3.405703983132029e-10,-2.282500422888047e-11,0.6322073159006059,1.600000000005017,-4.653593102078823e-13,2.4365367922069243,0.8000000000004975,1.647789913573243e-12,-0.003196257244398809
0.122,computed_torque,6.517825998807508e-10,22.747212682507406,4.231790117222549e-11,3.00368905946726e-10,-7.592591803740436e-11,-3.4200383931829e-08,-0.6999999999963719,2.115919037070004e-12,-6.18819175631135,4.675469284026307e-10,-1.5115565088529918e-10,-0.5866909042207591,-2.199999999998196,4.897768789231801e-13,21.736176148235714,3.405247684356537e-10,-2.2814938774618546e-11,0.6322073159028248,1.600000000005016,-4.644578076526337e-13,2.436536792206968,0.8000000000005009,1.6473049060156026e-12,-0.003196257244601209
0.124,computed_torque,6.514721408507974e-10,22.747212682506994,4.231285893334624e-11,3.0021714133073705e-10,-7.588230799446124e-11,-3.4180770222025374e-08,-0.6999999999963676,2.1133097098479413e-12,-6.188191756312998,4.672447998285523e-10,-1.5106428703918778e-10,-0.5866909041833696,-2.199999999998195,4.908718450871129e-13,21.73617614823575,3.404791586043959e-10,-2.2804915628908662e-11,0.6322073159050484,1.6000000000050152,-4.652921915633944e-13,2.4365367922070114,0.8000000000005042,1.6460276880308378e-12,-0.003196257244802921
0.126,computed_torque,6.511618943081033e-10,22.747212682506586,4.2302406452861324e-11,3.0006546391192077e-10,-7.583870940813039e-11,-3.416115671665128e-08,-0.6999999999963634,2.1104153394311484e-12,-6.188191756314647,4.669428538845247e-10,-1.509729720137883e-10,-0.5866909041459921,-2.199999999998194,4.906657486929247e-13,21.736176148235792,3.404335689851759e-10,-2.2794809609996126e-11,0.632207315907277,1.6000000000050143,-4.640275449694701e-13,2.4365367922070558,0.8000000000005075,1.644859059304738e-12,-0.0031962572450049504
0.128,computed_torque,6.508518601545521e-10,22.74721268250617,4.229962697997327e-11,2.999138736645929e-10,-7.579512366394162e-11,-3.4141545773586316e-08,-0.6999999999963592,2.1075979874249827e-12,-6.18819175631629,4.666410905103681e-10,-1.5088168707829363e-10,-0.5866909041086165,-2.199999999998193,4.906348508876617e-13,21.736176148235828,3.403879995252034e-10,-2.2784729986271255e-11,0.6322073159095098,1.6000000000050134,-4.642504186968866e-13,2.4365367922070993,0.8000000000005109,1.643792168908055e-12,-0.0031962572452068076
0.13,computed_torque,6.505420382875641e-10,22.747212682505758,4.227826599791994e-11,2.997623705439796e-10,-7.575156030665938e-11,-3.41219393893383e-08,-0.699999999996355,2.1044736381659243e-12,-6.188191756317929,4.663395096226489e-10,-1.5079044385957847e-10,-0.5866909040712625,-2.1999999999981923,4.904763881463616e-13,21.73617614823587,3.40342450211937e-10,-2.2774656633178908e-11,0.6322073159117436,1.6000000000050125,-4.64285835609102e-13,2.4365367922071437,0.8000000000005142,1.6428316110751104e-12,-0.003196257245408516
0.132,computed_torque,6.502324286159422e-10,22.747212682505364,4.2267753343858756e-11,2.996109545159567e-10,-7.570801401145308e-11,-3.4102339014506235e-08,-0.6999999999963508,2.1014270256805525e-12,-6.188191756319577,4.660381111395923e-10,-1.5069924152831762e-10,-0.5866909040339178,-2.1999999999981914,4.903685750815862e-13,21.736176148235923,3.40296921042961e-10,-2.2764584487991594e-11,0.6322073159139796,1.6000000000050116,-4.641413458558811e-13,2.436536792207193,0.8000000000005175,1.6419779382579483e-12,-0.0031962572456100185
0.134,computed_torque,6.49923031053498e-10,22.747212682504955,4.223913208742521e-11,2.9945962555014857e-10,-7.566448290404973e-11,-3.408274579391991e-08,-0.6999999999963465,2.09883325874091e-12,-6.188191756321208,4.657368949811261e-10,-1.5060807923308695e-10,-0.586690903996601,-2.1999999999981905,4.904849755071411e-13,21.73617614823597,3.402514120198105e-10,-2.2754511575255505e-11,0.632207315916216,1.6000000000050107,-4.638210776205876e-13,2.4365367922072347,0.8000000000005209,1.6412316697691162e-12,-0.0031962572458113393
0.136,computed_torque,6.496138454742689e-10,22.747212682504543,4.2229654264748835e-11,2.9930838358413776e-10,-7.562098300541723e-11,-3.4063160560326764e-08,-0.6999999999963423,2.0959298877063023e-12,-6.188191756322859,4.654358610422315e-10,-1.505169694472999e-10,-0.5866909039592916,-2.1999999999981896,4.904722580373719e-13,21.736176148236005,3.4020592313040266e-10,-2.2744444703923787e-11,0.6322073159184527,1.6000000000050099,-4.633191653003461e-13,2.4365367922072805,0.8000000000005242,1.6396983593931482e-12,-0.0031962572460124887
0.138,computed_torque,6.493048717770303e-10,22.74721268250413,4.220696608988501e-11,2.9915722858638447e-10,-7.557749887665412e-11,-3.404358412082936e-08,-0.6999999999963381,2.0931005330856064e-12,-6.188191756324498,4.651350092298222e-10,-1.5042590620463597e-10,-0.5866909039220027,-2.1999999999981887,4.905089425655791e-13,21.736176148236044,3.401604543664038e-10,-2.273438199944137e-11,0.6322073159206897,1.600000000005009,-4.626350826825125e-13,2.436536792207325,0.8000000000005275,1.6391682109898648e-12,-0.0031962572462139686
0.14,computed_torque,6.489961098462708e-10,22.747212682503726,4.2187858280493685e-11,2.990061605052244e-10,-7.553404058003896e-11,-3.402401703031254e-08,-0.6999999999963339,2.0903498121429586e-12,-6.188191756326142,4.6483433944523306e-10,-1.503348922945778e-10,-0.5866909038847309,-2.199999999998188,4.907205059293155e-13,21.736176148236087,3.401150057175482e-10,-2.2724324427795106e-11,0.6322073159229272,1.600000000005008,-4.634396778502836e-13,2.436536792207368,0.8000000000005308,1.6378470818584997e-12,-0.0031962572464147502
0.14200000000000002,computed_torque,6.486875594667478e-10,22.747212682503324,4.2157156979852394e-11,2.988551792837494e-10,-7.549061073750417e-11,-3.400445969187835e-08,-0.6999999999963297,2.08728897941995e-12,-6.188191756327786,4.6453385157687455e-10,-1.502439341792604e-10,-0.5866909038474886,-2.199999999998187,4.906785468441909e-13,21.736176148236137,3.40069577179957e-10,-2.271426879560227e-11,0.6322073159251629,1.6000000000050072,-4.6239112325018e-13,2.4365367922074137,0.8000000000005341,1.6366399947802405e-12,-0.0031962572466158806
0.14400000000000002,computed_torque,6.483792206284267e-10,22.74721268250292,4.214259244623396e-11,2.9870428489209876e-10,-7.544719582531752e-11,-3.398491251991228e-08,-0.6999999999963255,2.084688880604246e-12,-6.188191756329429,4.642335455348122e-10,-1.501530210311712e-10,-0.5866909038102573,-2.199999999998186,4.909850801964326e-13,21.73617614823618,3.400241687414222e-10,-2.2704219267396572e-11,0.6322073159273985,1.6000000000050063,-4.628369973545538e-13,2.436536792207463,0.8000000000005373,1.6355392577027726e-12,-0.003196257246816585
0.146,computed_torque,6.480710932011048e-10,22.74721268250252,4.211206319750095e-11,2.985534772665052e-10,-7.540381279676607e-11,-3.396537570349996e-08,-0.6999999999963212,2.0817784966974277e-12,-6.188191756331077,4.6393342120523054e-10,-1.5006216479082724e-10,-0.5866909037730554,-2.199999999998185,4.910422482865203e-13,21.736176148236225,3.3997878039499057e-10,-2.269417321580682e-11,0.6322073159296342,1.6000000000050054,-4.614323527011778e-13,2.4365367922075043,0.8000000000005405,1.6345539870605339e-12,-0.0031962572470171065
0.148,computed_torque,6.477631764378778e-10,22.747212682502113,4.209812775580471e-11,2.9840275636509626e-10,-7.536045070447417e-11,-3.394584950796072e-08,-0.6999999999963171,2.0789491700167947e-12,-6.188191756332711,4.636334784876437e-10,-1.499713587934173e-10,-0.5866909037358631,-2.1999999999981843,4.912720746898287e-13,21.736176148236265,3.3993341212396513e-10,-2.268413551271571e-11,0.6322073159318689,1.6000000000050045,-4.615164154886704e-13,2.436536792207552,0.8000000000005437,1.6336752760456753e-12,-0.0031962572472174545
0.15,computed_torque,6.474554708517049e-10,22.747212682501694,4.206544733320549e-11,2.9825212213844165e-10,-7.531711332731504e-11,-3.3926334333493874e-08,-0.699999999996313,2.076207034605883e-12,-6.188191756334327,4.633337172774764e-10,-1.4988060508365868e-10,-0.586690903698701,-2.1999999999981834,4.915487624306817e-13,21.7361761482363,3.3988806392281564e-10,-2.2674100574747642e-11,0.6322073159341017,1.6000000000050036,-4.614207069302405e-13,2.4365367922075927,0.8000000000005469,1.6329080984836583e-12,-0.003196257247417616
0.152,computed_torque,6.471479763102544e-10,22.74721268250128,4.203736695864378e-11,2.981015745281193e-10,-7.527380516119267e-11,-3.3906830024540966e-08,-0.6999999999963089,2.0731739234622934e-12,-6.188191756335947,4.6303413746139267e-10,-1.4978990804186796e-10,-0.5866909036615652,-2.1999999999981825,4.916973471391131e-13,21.736176148236343,3.3984273577518313e-10,-2.2664073816258702e-11,0.6322073159363338,1.6000000000050028,-4.611411377989572e-13,2.4365367922076393,0.8000000000005502,1.6322524203315746e-12,-0.003196257247617623
0.154,computed_torque,6.468406926948217e-10,22.747212682500866,4.202146604233314e-11,2.979511134819366e-10,-7.523052309135259e-11,-3.388733676652802e-08,-0.6999999999963048,2.0702316658270605e-12,-6.188191756337567,4.627347389316028e-10,-1.4969926489492856e-10,-0.5866909036244414,-2.1999999999981816,4.918899851720054e-13,21.736176148236375,3.3979742767763416e-10,-2.2654048774482898e-11,0.6322073159385653,1.6000000000050019,-4.606849204665525e-13,2.436536792207683,0.8000000000005534,1.630814784418587e-12,-0.003196257247817431
0.156,computed_torque,6.465336198918329e-10,22.747212682500447,4.199710592750839e-11,2.9780073896192316e-10,-7.518726000671646e-11,-3.3867854573095765e-08,-0.6999999999963007,2.0673790833988485e-12,-6.188191756339177,4.6243552158663106e-10,-1.4960867248586433e-10,-0.586690903587339,-2.1999999999981807,4.921273333308481e-13,21.73617614823641,3.3975213961542653e-10,-2.2644031103830463e-11,0.6322073159407956,1.600000000005001,-4.600489053403515e-13,2.436536792207727,0.8000000000005566,1.6303850386972987e-12,-0.003196257248017562
0.158,computed_torque,6.462267577768784e-10,22.74721268250002,4.1969005508895664e-11,2.976504509120973e-10,-7.514402491292389e-11,-3.3848383541218325e-08,-0.6999999999962966,2.064620079928801e-12,-6.188191756340785,4.6213648532077084e-10,-1.4951813293011468e-10,-0.5866909035502623,-2.19999999999818,4.925342830341483e-13,21.73617614823644,3.3970687157475297e-10,-2.2634020336767498e-11,0.6322073159430243,1.600000000005,-4.609006457655084e-13,2.4365367922077685,0.8000000000005598,1.6291690598213104e-12,-0.0031962572482170117
0.16,computed_torque,6.459201062592286e-10,22.747212682499594,4.1940217340982255e-11,2.975002492799006e-10,-7.510081609835973e-11,-3.3828923677486945e-08,-0.6999999999962925,2.06159444737882e-12,-6.188191756342394,4.6183763000014395e-10,-1.494276603134456e-10,-0.5866909035132123,-2.199999999998179,4.916490485879466e-13,21.736176148236463,3.396616236411655e-10,-2.2623966793734906e-11,0.6322073159452516,1.6000000000049992,-4.596544254196937e-13,2.436536792207814,0.800000000000563,1.6280698098252623e-12,-0.003196257248416817
0.162,computed_torque,6.456136651636824e-10,22.747212682499196,4.192239673674383e-11,2.973501340200543e-10,-7.505762992312261e-11,-3.3809475025148624e-08,-0.6999999999962884,2.059015333110362e-12,-6.18819175634402,4.615389555573544e-10,-1.4933722139476783e-10,-0.5866909034761774,-2.199999999998178,4.921651016799024e-13,21.736176148236513,3.396163956427532e-10,-2.2613999206144483e-11,0.6322073159474791,1.6000000000049983,-4.601497872512387e-13,2.4365367922078605,0.8000000000005663,1.627082846363705e-12,-0.003196257248616422
0.164,computed_torque,6.45307434379392e-10,22.747212682498777,4.1903880536329203e-11,2.972001050733057e-10,-7.501447337432347e-11,-3.379003767019191e-08,-0.6999999999962843,2.056143860376442e-12,-6.188191756345631,4.612404618715443e-10,-1.4924684290503493e-10,-0.5866909034391566,-2.199999999998177,4.925478114404601e-13,21.73617614823655,3.395711876150039e-10,-2.2604013874637184e-11,0.6322073159497045,1.6000000000049974,-4.60458651548821e-13,2.4365367922079026,0.8000000000005695,1.6262103562018834e-12,-0.0031962572488158643
0.166,computed_torque,6.4500141382205e-10,22.747212682498375,4.186986512467418e-11,2.970501623898643e-10,-7.497134172071494e-11,-3.377061159585864e-08,-0.6999999999962802,2.053008095604688e-12,-6.188191756347254,4.609421488073398e-10,-1.491565321022516e-10,-0.586690903402169,-2.1999999999981763,4.91635351017956e-13,21.73617614823659,3.3952599965517475e-10,-2.2593979914575908e-11,0.6322073159519296,1.6000000000049965,-4.586702500561677e-13,2.4365367922079506,0.8000000000005727,1.62545537096284e-12,-0.003196257249015103
0.168,computed_torque,6.446956033142119e-10,22.747212682497963,4.184436276719977e-11,2.96900305918824e-10,-7.492823552013802e-11,-3.375119684785743e-08,-0.699999999996276,2.0503223934100563e-12,-6.188191756348861,4.6064401629384874e-10,-1.4906625674552788e-10,-0.5866909033652035,-2.1999999999981754,4.921253971416424e-13,21.736176148236634,3.3948083159695533e-10,-2.258402910969769e-11,0.6322073159541527,1.6000000000049956,-4.586275042030488e-13,2.436536792207993,0.8000000000005759,1.623919413958555e-12,-0.0031962572492141733
0.17,computed_torque,6.443900027632911e-10,22.747212682497548,4.1817276932383707e-11,2.967505356205399e-10,-7.488514914203713e-11,-3.373179343902064e-08,-0.6999999999962719,2.047724876707571e-12,-6.188191756350479,4.6034606422159457e-10,-1.4897603612709614e-10,-0.586690903328263,-2.1999999999981745,4.926590847531842e-13,21.736176148236662,3.394356834778577e-10,-2.2574059548830313e-11,0.632207315956374,1.6000000000049948,-4.584049068805443e-13,2.4365367922080354,0.8000000000005791,1.6233945662485792e-12,-0.0031962572494135667
0.17200000000000001,computed_torque,6.440846120762017e-10,22.747212682497132,4.1804094921039005e-11,2.9660085143442977e-10,-7.484209305508078e-11,-3.3712401312370163e-08,-0.6999999999962678,2.044866281280984e-12,-6.188191756352091,4.6004829245392787e-10,-1.4888588383335277e-10,-0.5866909032913312,-2.1999999999981736,4.920270657512151e-13,21.736176148236698,3.3939055538950973e-10,-2.2564044173984988e-11,0.6322073159585941,1.6000000000049939,-4.577544254316371e-13,2.436536792208083,0.8000000000005824,1.622089152680299e-12,-0.0031962572496122767
0.17400000000000002,computed_torque,6.437794310671013e-10,22.74721268249673,4.17686864830511e-11,2.964512533071021e-10,-7.479906366384535e-11,-3.3693020516899853e-08,-0.6999999999962637,2.0420767667866897e-12,-6.18819175635371,4.597507009131177e-10,-1.4879577040507155e-10,-0.5866909032544338,-2.1999999999981728,4.926213781769823e-13,21.736176148236744,3.3934544716129317e-10,-2.2554114108285725e-11,0.6322073159608137,1.600000000004993,-4.588381893973299e-13,2.4365367922081265,0.8000000000005856,1.6208987398513935e-12,-0.003196257249811318
0.176,computed_torque,6.434744596694132e-10,22.747212682496315,4.175044298830284e-11,2.9630174118885665e-10,-7.475605912272366e-11,-3.367365114447826e-08,-0.6999999999962596,2.0390230772053876e-12,-6.188191756355318,4.594532894592568e-10,-1.4870572693045483e-10,-0.5866909032175506,-2.199999999998172,4.919161910765461e-13,21.736176148236776,3.393003589299891e-10,-2.2544115652042202e-11,0.6322073159630328,1.600000000004992,-4.57823686805355e-13,2.436536792208166,0.8000000000005888,1.6198285338399045e-12,-0.0031962572500101832
0.178,computed_torque,6.431696977144713e-10,22.74721268249591,4.1725854689063014e-11,2.9615231503541355e-10,-7.471307672155209e-11,-3.3654293080486396e-08,-0.6999999999962555,2.0364195912119856e-12,-6.188191756356927,4.591560580235196e-10,-1.4861571786858667e-10,-0.5866909031806892,-2.199999999998171,4.92613897526017e-13,21.736176148236822,3.3925529053766505e-10,-2.2534196162023063e-11,0.6322073159652498,1.6000000000049912,-4.585508292383357e-13,2.4365367922082157,0.800000000000592,1.6188741347590608e-12,-0.003196257250208862
0.18,computed_torque,6.428651451329096e-10,22.747212682495487,4.169801626543289e-11,2.9600297479305293e-10,-7.467012118030686e-11,-3.36349464184702e-08,-0.6999999999962514,2.033551055406518e-12,-6.188191756358534,4.5885900646495084e-10,-1.4852577928437847e-10,-0.5866909031438531,-2.19999999999817,4.920158044813535e-13,21.736176148236847,3.39210242120626e-10,-2.2524208519510547e-11,0.6322073159674658,1.6000000000049903,-4.571806591175637e-13,2.4365367922082544,0.8000000000005952,1.6180404255485283e-12,-0.0031962572504073564
0.182,computed_torque,6.4256080175383e-10,22.74721268249509,4.166772865844395e-11,2.9585372041603855e-10,-7.46271885072027e-11,-3.361561104674067e-08,-0.6999999999962473,2.031130504881797e-12,-6.188191756360149,4.585621347132268e-10,-1.4843587586203664e-10,-0.5866909031070456,-2.199999999998169,4.928198215431566e-13,21.736176148236893,3.391652135201257e-10,-2.2514300250149194e-11,0.6322073159696796,1.6000000000049894,-4.575553507931287e-13,2.436536792208304,0.8000000000005985,1.617323003000184e-12,-0.0031962572506056748
0.184,computed_torque,6.422566674901095e-10,22.74721268249469,4.1649262269587455e-11,2.95704551836947e-10,-7.45842895457814e-11,-3.3596287064486465e-08,-0.6999999999962432,2.0280701043143345e-12,-6.188191756361769,4.5826544261808683e-10,-1.4834604756997974e-10,-0.5866909030702533,-2.1999999999981683,4.922783366013659e-13,21.73617614823694,3.391202048632468e-10,-2.2504328439460978e-11,0.6322073159718933,1.6000000000049885,-4.574954131195239e-13,2.4365367922083454,0.8000000000006017,1.6158276599039874e-12,-0.0031962572508037967
0.186,computed_torque,6.4195274153112e-10,22.747212682494283,4.163070517114122e-11,2.95555469020596e-10,-7.454140817549317e-11,-3.357697442609346e-08,-0.6999999999962392,2.0254553044848285e-12,-6.188191756363378,4.5796893010979764e-10,-1.482562541446074e-10,-0.5866909030334754,-2.1999999999981674,4.930055028148292e-13,21.736176148236975,3.3907521600159456e-10,-2.2494430826102337e-11,0.6322073159741052,1.6000000000049877,-4.575067497142923e-13,2.436536792208393,0.8000000000006049,1.615349408834627e-12,-0.003196257251002281
0.188,computed_torque,6.416490244511532e-10,22.747212682493853,4.1597233894487694e-11,2.9540647190830956e-10,-7.449855614322145e-11,-3.355767343062259e-08,-0.6999999999962352,2.022595152360331e-12,-6.188191756364965,4.5767259704807103e-10,-1.4816653086330312e-10,-0.5866909029967282,-2.1999999999981665,4.925660081889495e-13,21.736176148237,3.3903024706568193e-10,-2.2484467956314544e-11,0.6322073159763159,1.6000000000049868,-4.570917212427202e-13,2.4365367922084338,0.8000000000006081,1.6140940472611959e-12,-0.0031962572512000413
0.19,computed_torque,6.413455161085178e-10,22.74721268249342,4.157170773746391e-11,2.9525756045282463e-10,-7.445572774246645e-11,-3.3538383733433724e-08,-0.6999999999962312,2.0198398372766797e-12,-6.188191756366537,4.5737644333450685e-10,-1.4807685678209492e-10,-0.5866909029600033,-2.1999999999981656,4.921820744269701e-13,21.736176148237018,3.389852979914717e-10,-2.2474537105118005e-11,0.6322073159785248,1.6000000000049859,-4.564989500950835e-13,2.4365367922084764,0.8000000000006113,1.6129598502803758e-12,-0.003196257251398157
0.192,computed_torque,6.41042216339611e-10,22.747212682493036,4.154778242259091e-11,2.9510873459706096e-10,-7.441292788182393e-11,-3.351910541327737e-08,-0.6999999999962272,2.0171607659527233e-12,-6.188191756368144,4.570804688842195e-10,-1.4798722514368437e-10,-0.586690902923301,-2.1999999999981648,4.92891243470612e-13,21.736176148237078,3.389403686638862e-10,-2.2464663792764538e-11,0.6322073159807335,1.600000000004985,-4.55978101240912e-13,2.436536792208522,0.8000000000006146,1.6119490703872854e-12,-0.0031962572515960817
0.194,computed_torque,6.407391250818733e-10,22.747212682492613,4.152684419081465e-11,2.949599942956108e-10,-7.437015072509376e-11,-3.3499838474740384e-08,-0.6999999999962232,2.014237370284961e-12,-6.188191756369732,4.5678467355860034e-10,-1.478976628095784e-10,-0.5866909028866154,-2.199999999998164,4.92430566025269e-13,21.736176148237107,3.388954592212995e-10,-2.245472129335994e-11,0.6322073159829406,1.600000000004984,-4.550275441371047e-13,2.436536792208567,0.8000000000006178,1.6110574822409084e-12,-0.0031962572517938172
0.196,computed_torque,6.404362421957632e-10,22.7472126824922,4.150096495049476e-11,2.9481133950207797e-10,-7.432739676642124e-11,-3.348058286559582e-08,-0.6999999999962192,2.0114267479855654e-12,-6.188191756371319,4.564890572628514e-10,-1.478081478744828e-10,-0.5866909028499531,-2.199999999998163,4.921534756293998e-13,21.736176148237142,3.388505695981931e-10,-2.2444811553178912e-11,0.6322073159851458,1.6000000000049832,-4.555653391851768e-13,2.4365367922086114,0.800000000000621,1.6102830164946513e-12,-0.003196257251991358
0.198,computed_torque,6.401335675318823e-10,22.74721268249177,4.1472781542848796e-11,2.9466277016668716e-10,-7.428466769539492e-11,-3.346133863787396e-08,-0.6999999999962152,2.009071985588979e-12,-6.188191756372904,4.5619361991906317e-10,-1.477186718941053e-10,-0.5866909028133165,-2.199999999998162,4.93145114801954e-13,21.736176148237163,3.388056996907092e-10,-2.2434953741948022e-11,0.6322073159873504,1.6000000000049823,-4.56179176937235e-13,2.436536792208655,0.8000000000006242,1.6096329512482133e-12,-0.003196257252188766
0.2,computed_torque,6.398311010068564e-10,22.74721268249136,4.145013329155328e-11,2.945142862208981e-10,-7.424197289452947e-11,-3.344210569513449e-08,-0.6999999999962112,2.0060872475529328e-12,-6.188191756374491,4.5589836137327624e-10,-1.4762927289346873e-10,-0.5866909027766997,-2.199999999998161,4.926675401861159e-13,21.7361761482372,3.3876084963850443e-10,-2.2425026102384602e-11,0.6322073159895537,1.6000000000049814,-4.5469483442079994e-13,2.4365367922086985,0.8000000000006274,1.6082131753218541e-12,-0.0031962572523859486
0.202,computed_torque,6.395288424831488e-10,22.74721268249094,4.1426246017727887e-11,2.94365887626247e-10,-7.41992973255665e-11,-3.342288410018672e-08,-0.6999999999962072,2.0032169127574202e-12,-6.188191756376071,4.556032815304896e-10,-1.4753992139329405e-10,-0.5866909027401035,-2.1999999999981603,4.923704600596171e-13,21.73617614823723,3.3871601937327627e-10,-2.2415132614085723e-11,0.6322073159917551,1.6000000000049805,-4.5470115944566284e-13,2.4365367922087415,0.8000000000006307,1.6069127865844341e-12,-0.0031962572525834547
0.20400000000000001,computed_torque,6.392267918166625e-10,22.747212682490524,4.140167755427258e-11,2.942175743419937e-10,-7.41566421266668e-11,-3.3403673906583424e-08,-0.6999999999962032,2.0008055542373406e-12,-6.188191756377663,4.553083803180527e-10,-1.4745060621848212e-10,-0.5866909027035296,-2.1999999999981594,4.933440941884981e-13,21.736176148237263,3.3867120878635827e-10,-2.2405293458987384e-11,0.6322073159939556,1.6000000000049797,-4.54781195843796e-13,2.4365367922087855,0.8000000000006339,1.6066330920571928e-12,-0.0031962572527808038
0.20600000000000002,computed_torque,6.389249489248921e-10,22.747212682490115,4.1378249130646135e-11,2.940693462994365e-10,-7.41140212785903e-11,-3.338447501667688e-08,-0.6999999999961992,1.9977714144689482e-12,-6.1881917563792515,4.5501365758599506e-10,-1.4736136602880258e-10,-0.5866909026669761,-2.1999999999981585,4.929762147028296e-13,21.7361761482373,3.386264180136375e-10,-2.239538636038103e-11,0.632207315996155,1.6000000000049788,-4.544291356785045e-13,2.43653679220883,0.8000000000006371,1.6055796287428334e-12,-0.0031962572529774308
0.20800000000000002,computed_torque,6.386233136716096e-10,22.7472126824897,4.134729145132308e-11,2.9392120345544726e-10,-7.407142199461804e-11,-3.336528746425536e-08,-0.6999999999961952,1.994848891501194e-12,-6.188191756380833,4.547191132364781e-10,-1.4727217475848042e-10,-0.5866909026304513,-2.1999999999981577,4.926631342325768e-13,21.73617614823733,3.38581646997213e-10,-2.2385508212265297e-11,0.6322073159983533,1.6000000000049779,-4.53901717589701e-13,2.4365367922088716,0.8000000000006403,1.6046509898093578e-12,-0.003196257253174407
0.21,computed_torque,6.383218859352003e-10,22.747212682489295,4.1324101903940196e-11,2.937731457623125e-10,-7.402884656736925e-11,-3.3346111274703146e-08,-0.6999999999961912,1.992037129241719e-12,-6.188191756382417,4.5442474716877235e-10,-1.4718303385288346e-10,-0.5866909025939469,-2.1999999999981568,4.92408193476571e-13,21.736176148237373,3.385368957146686e-10,-2.237564127219265e-11,0.6322073160005507,1.600000000004977,-4.531982313419324e-13,2.43653679220892,0.8000000000006435,1.6038473672143242e-12,-0.0031962572533711917
0.212,computed_torque,6.380206655644416e-10,22.747212682488847,4.130845034088138e-11,2.936251731687083e-10,-7.398629680210228e-11,-3.3326946389535895e-08,-0.6999999999961872,1.9896883994111694e-12,-6.188191756383982,4.5413055930404676e-10,-1.4709393236278518e-10,-0.5866909025574532,-2.199999999998156,4.935450362746789e-13,21.736176148237377,3.38492164061552e-10,-2.2365826558320602e-11,0.6322073160027453,1.600000000004976,-4.54238286010472e-13,2.436536792208957,0.8000000000006467,1.602272520957521e-12,-0.003196257253567796
0.214,computed_torque,6.377196524882621e-10,22.747212682488442,4.127583606942812e-11,2.9347728562247053e-10,-7.394377311888645e-11,-3.330779278141414e-08,-0.6999999999961832,1.9867136986178533e-12,-6.188191756385572,4.538365494947192e-10,-1.4700490466379044e-10,-0.5866909025209915,-2.199999999998155,4.932156470864009e-13,21.736176148237416,3.384474521775071e-10,-2.235594202243734e-11,0.6322073160049395,1.6000000000049752,-4.531770714256147e-13,2.436536792209004,0.80000000000065,1.6017206941233119e-12,-0.00319625725376473
0.216,computed_torque,6.374188465649031e-10,22.747212682488037,4.124662679528413e-11,2.9332948307205757e-10,-7.390127520649472e-11,-3.3288650514137215e-08,-0.6999999999961792,1.983857540493377e-12,-6.188191756387155,4.535427176435067e-10,-1.4691592560623084e-10,-0.5866909024845567,-2.199999999998154,4.930722329349105e-13,21.73617614823745,3.384027600008325e-10,-2.234608833731249e-11,0.6322073160071325,1.6000000000049743,-4.536099321938247e-13,2.4365367922090506,0.8000000000006532,1.6003958153614053e-12,-0.0031962572539609674
0.218,computed_torque,6.371182476743474e-10,22.74721268248764,4.123252234390875e-11,2.9318176547077787e-10,-7.385880063983652e-11,-3.326951959416552e-08,-0.6999999999961752,1.9811115180394835e-12,-6.1881917563887425,4.532490636489011e-10,-1.4682699730280023e-10,-0.5866909024481319,-2.199999999998153,4.929825426209407e-13,21.736176148237497,3.3835808751229813e-10,-2.233624426716661e-11,0.6322073160093244,1.6000000000049734,-4.538657389264052e-13,2.4365367922090937,0.8000000000006564,1.5991983482801024e-12,-0.0031962572541575315
0.22,computed_torque,6.368178556975779e-10,22.747212682487213,4.1208791398892786e-11,2.930341327676659e-10,-7.381635155599536e-11,-3.3250399939772416e-08,-0.6999999999961712,1.9784697859620843e-12,-6.1881917563903155,4.5295558740559506e-10,-1.4673812165303047e-10,-0.5866909024117274,-2.1999999999981523,4.928235612448979e-13,21.736176148237522,3.383134347033601e-10,-2.2326404469024662e-11,0.6322073160115147,1.6000000000049726,-4.522793876595073e-13,2.4365367922091354,0.8000000000006596,1.5981332864892855e-12,-0.003196257254353921
0.222,computed_torque,6.365176705017499e-10,22.747212682486808,4.118127627680277e-11,2.928865849088761e-10,-7.377392939489694e-11,-3.323129156690554e-08,-0.6999999999961672,1.975564911488561e-12,-6.188191756391896,4.526622888049239e-10,-1.4664930033556266e-10,-0.5866909023753484,-2.1999999999981514,4.926741456046598e-13,21.736176148237558,3.3826880154643715e-10,-2.2316578461477006e-11,0.6322073160137048,1.6000000000049717,-4.5218051688554e-13,2.436536792209181,0.8000000000006628,1.5971910553904089e-12,-0.003196257254550118
0.224,computed_torque,6.362176919738779e-10,22.747212682486403,4.1148761615999525e-11,2.9273912184842894e-10,-7.373153022360084e-11,-3.32121945548022e-08,-0.6999999999961632,1.972774493994643e-12,-6.188191756393473,4.523691677436355e-10,-1.4656053064421213e-10,-0.5866909023389999,-2.1999999999981505,4.92584450974469e-13,21.736176148237597,3.3822418803727515e-10,-2.230675458099317e-11,0.6322073160158918,1.6000000000049708,-4.519056122518008e-13,2.4365367922092256,0.8000000000006661,1.596376928227065e-12,-0.003196257254746118
0.226,computed_torque,6.359179193264459e-10,22.74721268248599,4.112893139889458e-11,2.9259174353818015e-10,-7.368915512438429e-11,-3.3193108805274084e-08,-0.6999999999961594,1.970097048183642e-12,-6.188191756395055,4.5207622411849905e-10,-1.4647181256821631e-10,-0.5866909023026681,-2.1999999999981497,4.925539508545166e-13,21.73617614823763,3.3817959416592196e-10,-2.2296935676596865e-11,0.6322073160180777,1.60000000000497,-4.514562785961612e-13,2.436536792209267,0.8000000000006693,1.5956911214075072e-12,-0.003196257254941946
0.228,computed_torque,6.35618353093628e-10,22.747212682485557,4.1110748539250305e-11,2.9244444991355523e-10,-7.364681231246354e-11,-3.317403456109597e-08,-0.6999999999961555,1.9671626970764358e-12,-6.188191756396606,4.5178345781396877e-10,-1.4638315226513799e-10,-0.5866909022663495,-2.1999999999981488,4.923986502974237e-13,21.736176148237647,3.381350199204797e-10,-2.2287122721138233e-11,0.6322073160202639,1.600000000004969,-4.5082800504309014e-13,2.436536792209311,0.8000000000006725,1.5942395045373357e-12,-0.0031962572551375913
0.23,computed_torque,6.353189931372389e-10,22.747212682485138,4.108005593349967e-11,2.9229724094397084e-10,-7.360448479220363e-11,-3.3154971618514604e-08,-0.6999999999961516,1.96471026375897e-12,-6.188191756398169,4.51490868757617e-10,-1.4629452817587436e-10,-0.58669090223006,-2.199999999998148,4.936411545348069e-13,21.736176148237675,3.3809046519485074e-10,-2.2277362814483373e-11,0.6322073160224477,1.6000000000049681,-4.5194269342291144e-13,2.436536792209352,0.8000000000006757,1.593809837247129e-12,-0.003196257255333547
0.232,computed_torque,6.350198393923575e-10,22.747212682484715,4.1052021188880114e-11,2.921501165681314e-10,-7.356218791973489e-11,-3.313591995144442e-08,-0.6999999999961477,1.9620247763585513e-12,-6.188191756399724,4.511984568042474e-10,-1.4620597668482007e-10,-0.586690902193796,-2.199999999998147,4.9358612077779e-13,21.7361761482377,3.3804593014439513e-10,-2.2267525227797434e-11,0.6322073160246309,1.6000000000049672,-4.50965538031941e-13,2.436536792209395,0.800000000000679,1.5926174088043029e-12,-0.0031962572555288104
0.234,computed_torque,6.347208917056259e-10,22.747212682484268,4.102912131726115e-11,2.920030767340995e-10,-7.351991701593705e-11,-3.3116879470728465e-08,-0.6999999999961438,1.959091101352273e-12,-6.188191756401267,4.5090622185066314e-10,-1.4611747679212338e-10,-0.5866909021575514,-2.199999999998146,4.935398315412659e-13,21.736176148237703,3.380014146940205e-10,-2.2257725187315632e-11,0.6322073160268109,1.6000000000049663,-4.514758225658467e-13,2.4365367922094343,0.8000000000006822,1.5915507036915797e-12,-0.003196257255724393
0.23600000000000002,computed_torque,6.344221499599053e-10,22.747212682483873,4.101263338551658e-11,2.9185612139360355e-10,-7.347767024797993e-11,-3.309785035567758e-08,-0.6999999999961399,1.9562796522570847e-12,-6.188191756402833,4.5061416379415937e-10,-1.4602902825188936e-10,-0.5866909021213205,-2.199999999998145,4.93424497006781e-13,21.736176148237753,3.3795691883289284e-10,-2.2247930563826366e-11,0.6322073160289916,1.6000000000049655,-4.501439094174186e-13,2.4365367922094814,0.8000000000006854,1.5906197243005586e-12,-0.003196257255919811
0.23800000000000002,computed_torque,6.341236140369029e-10,22.74721268248344,4.097947709083425e-11,2.9170925050301555e-10,-7.343544529399089e-11,-3.3078832456282667e-08,-0.699999999996136,1.9535990442553065e-12,-6.188191756404379,4.5032228253629e-10,-1.4594062893467497e-10,-0.5866909020851202,-2.1999999999981443,4.93488996089074e-13,21.736176148237767,3.379124425383294e-10,-2.2238147281731848e-11,0.6322073160311703,1.6000000000049646,-4.5030416084166846e-13,2.4365367922095227,0.8000000000006886,1.5898151643732806e-12,-0.0031962572561150255
0.24,computed_torque,6.338252838193201e-10,22.747212682483035,4.095620162435874e-11,2.9156246401302515e-10,-7.339324499520099e-11,-3.305982581482672e-08,-0.6999999999961322,1.951043414935303e-12,-6.188191756405943,4.500305779735812e-10,-1.4585228135440195e-10,-0.5866909020489411,-2.1999999999981434,4.936101627664641e-13,21.736176148237806,3.378679858011352e-10,-2.222836859708089e-11,0.6322073160333488,1.6000000000049637,-4.502898411634729e-13,2.436536792209567,0.8000000000006918,1.5891419569000749e-12,-0.0031962572563100687
0.242,computed_torque,6.335271591734869e-10,22.74721268248262,4.0937191309786445e-11,2.914157618585904e-10,-7.335107721738144e-11,-3.304083037279204e-08,-0.6999999999961283,1.9482329905625467e-12,-6.188191756407499,4.4973904999138734e-10,-1.4576399109692492e-10,-0.5866909020127772,-2.1999999999981426,4.936117320384826e-13,21.736176148237835,3.378235486098551e-10,-2.221859564002509e-11,0.6322073160355243,1.6000000000049628,-4.50099204077113e-13,2.43653679220961,0.800000000000695,1.5877059788297192e-12,-0.0031962572565049086
0.244,computed_torque,6.332292399855968e-10,22.747212682482193,4.0904668287338804e-11,2.9126914399887487e-10,-7.330892985778053e-11,-3.3021846193795064e-08,-0.6999999999961244,1.9455505376072623e-12,-6.1881917564090525,4.4944769848663773e-10,-1.4567575237481007e-10,-0.586690901976644,-2.1999999999981417,4.936713594135026e-13,21.736176148237853,3.3777913095398657e-10,-2.2208827934283162e-11,0.6322073160376993,1.600000000004962,-4.4973404976465056e-13,2.436536792209653,0.8000000000006983,1.5864033524120168e-12,-0.0031962572567000988
0.246,computed_torque,6.329315261440896e-10,22.74721268248177,4.088373804799212e-11,2.9112261039387267e-10,-7.326680250108897e-11,-3.300287324476088e-08,-0.6999999999961205,1.9429947127793664e-12,-6.1881917564106,4.491565233607858e-10,-1.4558756292595938e-10,-0.5866909019405282,-2.1999999999981408,4.937890733623226e-13,21.73617614823788,3.3773473282050537e-10,-2.2199066740607142e-11,0.6322073160398727,1.600000000004961,-4.4919359272845293e-13,2.4365367922096937,0.8000000000007015,1.5861283030938385e-12,-0.003196257256895077
0.248,computed_torque,6.326340175147578e-10,22.747212682481358,4.0861568598987217e-11,2.909761609762539e-10,-7.322470880940339e-11,-3.2983911525087577e-08,-0.6999999999961166,1.9401848257247296e-12,-6.188191756412163,4.4886552449949477e-10,-1.4549943064550816e-10,-0.5866909019044323,-2.19999999999814,4.937876500607685e-13,21.73617614823791,3.3769035419850157e-10,-2.218931100189528e-11,0.6322073160420458,1.6000000000049601,-4.4847845044167995e-13,2.436536792209738,0.8000000000007047,1.5850911234403062e-12,-0.003196257257089365
0.25,computed_torque,6.323367139841093e-10,22.74721268248092,4.083485613201957e-11,2.9082979570691794e-10,-7.31826346679634e-11,-3.2964961042449515e-08,-0.6999999999961127,1.9375087418122238e-12,-6.188191756413707,4.485747018023805e-10,-1.4541134855713253e-10,-0.5866909018683597,-2.199999999998139,4.939672504185582e-13,21.73617614823792,3.3764599507299653e-10,-2.2179562752509882e-11,0.6322073160442162,1.6000000000049592,-4.492538826368212e-13,2.436536792209778,0.8000000000007079,1.5841831694682325e-12,-0.003196257257283976
0.252,computed_torque,6.320396154375824e-10,22.747212682480523,4.0814458974806393e-11,2.906835145351254e-10,-7.314058589628169e-11,-3.294602176856136e-08,-0.6999999999961088,1.9349548724015946e-12,-6.188191756415264,4.4828405516427776e-10,-1.4532331905139442e-10,-0.586690901832305,-2.199999999998138,4.940778480103992e-13,21.736176148237966,3.376016554433899e-10,-2.216981480331138e-11,0.632207316046387,1.6000000000049583,-4.4818871935186826e-13,2.4365367922098247,0.8000000000007111,1.5834141277930034e-12,-0.0031962572574784054
0.254,computed_torque,6.317427216144562e-10,22.747212682480107,4.0787244612838064e-11,2.905373174009164e-10,-7.309856710449446e-11,-3.2927093665919424e-08,-0.699999999996105,1.932153423734429e-12,-6.188191756416819,4.479935844737661e-10,-1.452353452558235e-10,-0.5866909017962749,-2.1999999999981372,4.94196726374301e-13,21.73617614823799,3.375573352866836e-10,-2.2160078353129505e-11,0.632207316048556,1.6000000000049575,-4.4861495349284806e-13,2.436536792209869,0.8000000000007143,1.5818803751892032e-12,-0.0031962572576726338
0.256,computed_torque,6.314460325311308e-10,22.747212682479702,4.0760747975972144e-11,2.9039120426906936e-10,-7.305656592350261e-11,-3.2908176830480013e-08,-0.6999999999961011,1.9294837832834546e-12,-6.188191756418368,4.4770328963218136e-10,-1.451474207923825e-10,-0.5866909017602686,-2.1999999999981363,4.943759471135865e-13,21.73617614823803,3.3751303459276444e-10,-2.2150346959596055e-11,0.6322073160507232,1.6000000000049566,-4.488643335191136e-13,2.436536792209913,0.8000000000007174,1.5813777118099534e-12,-0.003196257257866976
0.258,computed_torque,6.311495480686541e-10,22.747212682479276,4.073894444718528e-11,2.902451750828346e-10,-7.301459311737977e-11,-3.288927118576863e-08,-0.6999999999960972,1.926941927885825e-12,-6.188191756419912,4.4741317053409673e-10,-1.4505954904230616e-10,-0.5866909017242808,-2.1999999999981354,4.946125994729647e-13,21.736176148238048,3.3746875335832593e-10,-2.2140617219244362e-11,0.6322073160528897,1.6000000000049557,-4.489415572741125e-13,2.4365367922099535,0.8000000000007205,1.5801167141866086e-12,-0.003196257258060597
0.26,computed_torque,6.308532680974499e-10,22.747212682478864,4.071739760257897e-11,2.900992297879468e-10,-7.29726474438896e-11,-3.287037669649291e-08,-0.6999999999960933,1.9241491293008726e-12,-6.188191756421467,4.4712322706840777e-10,-1.449717328444824e-10,-0.586690901688312,-2.1999999999981346,4.947319849684304e-13,21.736176148238076,3.3742449156557347e-10,-2.2130896376222134e-11,0.6322073160550548,1.6000000000049548,-4.488401333544888e-13,2.436536792209994,0.8000000000007236,1.5789928606900007e-12,-0.0031962572582545493
0.262,computed_torque,6.305571925047805e-10,22.747212682478445,4.0687630722356355e-11,2.899533683409824e-10,-7.293072348221725e-11,-3.285149343366581e-08,-0.6999999999960894,1.921487989619568e-12,-6.188191756423013,4.468334591335145e-10,-1.4488396744662657e-10,-0.5866909016523704,-2.1999999999981337,4.949112515622634e-13,21.736176148238098,3.37380249206279e-10,-2.212117964722618e-11,0.6322073160572175,1.600000000004954,-4.485658601657867e-13,2.436536792210037,0.8000000000007267,1.5780066756894108e-12,-0.003196257258448307
0.264,computed_torque,6.302613211758725e-10,22.747212682478015,4.0659794143630035e-11,2.898075906948827e-10,-7.288882304985285e-11,-3.28326213413884e-08,-0.6999999999960855,1.9189570163420363e-12,-6.188191756424555,4.465438666280328e-10,-1.4479625274085306e-10,-0.5866909016164542,-2.199999999998133,4.951497182204461e-13,21.736176148238116,3.3733602627124805e-10,-2.211146751548685e-11,0.6322073160593799,1.600000000004953,-4.4811871095464544e-13,2.436536792210075,0.8000000000007298,1.5771583491602394e-12,-0.003196257258641868
0.266,computed_torque,6.299656540087039e-10,22.747212682477628,4.0644187573798875e-11,2.8966189679143506e-10,-7.284695172381766e-11,-3.281376040189061e-08,-0.6999999999960816,1.9158255471769232e-12,-6.188191756426117,4.4625444941666236e-10,-1.4470860568521078e-10,-0.5866909015805507,-2.199999999998132,4.940582286588399e-13,21.73617614823816,3.372918228295525e-10,-2.2101720847775995e-11,0.632207316061541,1.6000000000049521,-4.472407213592514e-13,2.4365367922101253,0.8000000000007329,1.5764454147889768e-12,-0.00319625725883525
0.268,computed_torque,6.296701901405979e-10,22.74721268247721,4.061800042586373e-11,2.895162865802272e-10,-7.280510560392108e-11,-3.279491068028832e-08,-0.6999999999960779,1.9131785901012642e-12,-6.188191756427652,4.459652074302283e-10,-1.4462099321703256e-10,-0.5866909015446696,-2.199999999998131,4.942489793524862e-13,21.73617614823819,3.372476387269531e-10,-2.209205129970962e-11,0.6322073160637004,1.6000000000049512,-4.4644651534945413e-13,2.436536792210167,0.800000000000736,1.574979143827249e-12,-0.0031962572590284663
0.27,computed_torque,6.2937493017142e-10,22.74721268247678,4.0589512300644476e-11,2.8937076002782235e-10,-7.276327620244729e-11,-3.277607234383074e-08,-0.6999999999960741,1.9106783599821926e-12,-6.188191756429183,4.456761405670979e-10,-1.4453343156520513e-10,-0.5866909015088146,-2.19999999999813,4.946191125231888e-13,21.736176148238204,3.37203473989796e-10,-2.2082368578551275e-11,0.6322073160658594,1.6000000000049504,-4.4714356776722647e-13,2.4365367922102097,0.8000000000007391,1.5745420838754142e-12,-0.0031962572592219595
0.272,computed_torque,6.290798739743727e-10,22.747212682476363,4.056720563781543e-11,2.892253170645655e-10,-7.272148162843628e-11,-3.2757245127223113e-08,-0.6999999999960703,1.9079361434133723e-12,-6.188191756430717,4.4538724870826876e-10,-1.4444592941457294e-10,-0.5866909014729791,-2.1999999999981292,4.947471109366548e-13,21.736176148238233,3.3715932862914233e-10,-2.20726803268317e-11,0.6322073160680168,1.6000000000049495,-4.4599913711942303e-13,2.4365367922102528,0.8000000000007422,1.5733540531152883e-12,-0.0031962572594147944
0.274,computed_torque,6.287850214365051e-10,22.747212682475958,4.054363477375438e-11,2.8907995765288646e-10,-7.267970583950057e-11,-3.2738429061479735e-08,-0.6999999999960665,1.9053419754288903e-12,-6.18819175643225,4.450985317536561e-10,-1.4435847730634094e-10,-0.5866909014371643,-2.1999999999981283,4.950548966592458e-13,21.73617614823827,3.3711520262934246e-10,-2.2062999899926454e-11,0.6322073160701737,1.6000000000049486,-4.4634841889836856e-13,2.436536792210296,0.8000000000007453,1.5723016645205896e-12,-0.00319625725960792
0.276,computed_torque,6.284903724719067e-10,22.74721268247552,4.0522247307673756e-11,2.889346817440227e-10,-7.263795443186882e-11,-3.2719624144410704e-08,-0.6999999999960628,1.902540436137677e-12,-6.188191756433766,4.448099895763469e-10,-1.442710886546178e-10,-0.5866909014013669,-2.1999999999981275,4.942065328970586e-13,21.736176148238282,3.370710960701738e-10,-2.2053279584349695e-11,0.6322073160723274,1.6000000000049477,-4.462708665694509e-13,2.436536792210337,0.8000000000007484,1.5713874596450606e-12,-0.003196257259800867
0.278,computed_torque,6.281959268969826e-10,22.74721268247509,4.0490257579948994e-11,2.8878948928123536e-10,-7.259623139367274e-11,-3.270083033473613e-08,-0.699999999996059,1.89985432377071e-12,-6.188191756435289,4.4452162210162426e-10,-1.4418373736131468e-10,-0.5866909013656002,-2.1999999999981266,4.944659319484011e-13,21.736176148238293,3.370270087871819e-10,-2.204364149595528e-11,0.6322073160744806,1.6000000000049468,-4.4626813887354407e-13,2.436536792210377,0.8000000000007516,1.570616126864597e-12,-0.003196257259993621
0.28,computed_torque,6.279016846166207e-10,22.74721268247467,4.0476321343695e-11,2.886443802147641e-10,-7.255453323563917e-11,-3.26820477090826e-08,-0.6999999999960552,1.897313226726082e-12,-6.1881917564368125,4.4423342921873226e-10,-1.4409644144599615e-10,-0.5866909013298434,-2.1999999999981257,4.94782453759507e-13,21.73617614823832,3.369829408225479e-10,-2.2033982316988014e-11,0.6322073160766332,1.600000000004946,-4.4609477269160654e-13,2.4365367922104215,0.8000000000007547,1.5690916797712298e-12,-0.003196257260186195
0.28200000000000003,computed_torque,6.276076455128448e-10,22.747212682474245,4.0439086673395685e-11,2.884993544995916e-10,-7.251285758623225e-11,-3.266327613353355e-08,-0.6999999999960514,1.8945370616115976e-12,-6.188191756438335,4.4394541081908254e-10,-1.4400919982486064e-10,-0.5866909012941227,-2.199999999998125,4.949815300433838e-13,21.736176148238336,3.3693889216886746e-10,-2.2024326840237285e-11,0.632207316078784,1.600000000004945,-4.4574190218913204e-13,2.4365367922104655,0.8000000000007578,1.5686036374808019e-12,-0.0031962572603790756
0.28400000000000003,computed_torque,6.273138094715791e-10,22.747212682473826,4.042708779146742e-11,2.8835441208297095e-10,-7.247120831032254e-11,-3.2644515747864176e-08,-0.6999999999960477,1.8919060103154276e-12,-6.188191756439858,4.436575667981032e-10,-1.4392201048967103e-10,-0.5866909012584097,-2.199999999998124,4.952342131900452e-13,21.73617614823836,3.368948628273179e-10,-2.201467077477444e-11,0.6322073160809335,1.6000000000049441,-4.452207163800915e-13,2.436536792210507,0.8000000000007609,1.567362892691019e-12,-0.0031962572605712535
0.28600000000000003,computed_torque,6.270201764060868e-10,22.7472126824734,4.03959417905554e-11,2.882095529200519e-10,-7.242958145953894e-11,-3.262576643750371e-08,-0.6999999999960439,1.889070557598594e-12,-6.188191756441382,4.4336989702914873e-10,-1.4383488447722698e-10,-0.5866909012227262,-2.199999999998123,4.943322791859814e-13,21.73617614823838,3.368508528722432e-10,-2.2004977537357912e-11,0.6322073160830821,1.6000000000049432,-4.4427437084608196e-13,2.4365367922105476,0.800000000000764,1.5662628579351029e-12,-0.0031962572607637414
0.28800000000000003,computed_torque,6.267267461452244e-10,22.747212682473,4.037033007180794e-11,2.8806477696674403e-10,-7.238797665393574e-11,-3.260702821885537e-08,-0.6999999999960401,1.886735904645999e-12,-6.188191756442911,4.430824014492097e-10,-1.4374778996951408e-10,-0.5866909011870659,-2.199999999998122,4.948410797892855e-13,21.736176148238417,3.368068621364223e-10,-2.199536791046878e-11,0.6322073160852297,1.6000000000049424,-4.4507629104809207e-13,2.4365367922105907,0.8000000000007671,1.5653037280747874e-12,-0.0031962572609560594
0.29,computed_torque,6.264335185836905e-10,22.747212682472565,4.03529805449821e-11,2.879200841628641e-10,-7.234640193995132e-11,-3.2588301093802275e-08,-0.6999999999960363,1.884158821879369e-12,-6.1881917564444295,4.427950799394004e-10,-1.436607549046525e-10,-0.5866909011514189,-2.1999999999981212,4.95103839707264e-13,21.736176148238425,3.3676289066258887e-10,-2.1985736916717237e-11,0.6322073160873747,1.6000000000049415,-4.440349485874002e-13,2.4365367922106334,0.8000000000007702,1.5644924034708835e-12,-0.0031962572611481856
0.292,computed_torque,6.261404936405965e-10,22.74721268247214,4.032404523941796e-11,2.877754744673523e-10,-7.230484775589293e-11,-3.256958502985529e-08,-0.6999999999960326,1.881383700268447e-12,-6.1881917564459545,4.4250793237391787e-10,-1.4357378274127413e-10,-0.586690901115799,-2.1999999999981203,4.943433180475653e-13,21.736176148238442,3.367189385315297e-10,-2.1976065529574943e-11,0.6322073160895194,1.6000000000049406,-4.442354763978414e-13,2.436536792210677,0.8000000000007733,1.5638176088765758e-12,-0.003196257261340124
0.294,computed_torque,6.258476711313353e-10,22.74721268247174,4.03032950674521e-11,2.8763094781701614e-10,-7.226332516807282e-11,-3.255088007676943e-08,-0.6999999999960288,1.878725452025951e-12,-6.1881917564474875,4.422209586746064e-10,-1.4348684965573125e-10,-0.5866909010801972,-2.1999999999981195,4.946866874138487e-13,21.73617614823848,3.3667500558740897e-10,-2.1966472060364308e-11,0.6322073160916637,1.6000000000049397,-4.4451387682973377e-13,2.436536792210721,0.8000000000007764,1.5623946738202818e-12,-0.003196257261531865
0.296,computed_torque,6.255550509707938e-10,22.747212682471325,4.0277114971813424e-11,2.874865041793278e-10,-7.222181884417941e-11,-3.253218622514268e-08,-0.699999999996025,1.8762147481020426e-12,-6.188191756449005,4.419341587375144e-10,-1.43399968545993e-10,-0.5866909010446183,-2.1999999999981186,4.950893930405637e-13,21.736176148238506,3.366310918671731e-10,-2.1956860117945617e-11,0.6322073160938053,1.6000000000049388,-4.446169029310989e-13,2.4365367922107612,0.8000000000007795,1.5620112682598174e-12,-0.00319625726172392
0.298,computed_torque,6.252626330624663e-10,22.74721268247089,4.025827550648493e-11,2.873421434859968e-10,-7.218034666550785e-11,-3.2513503414125604e-08,-0.6999999999960212,1.873116338579281e-12,-6.188191756450516,4.4164753242097457e-10,-1.4331315826992808e-10,-0.5866909010090546,-2.1999999999981177,4.940350870368067e-13,21.736176148238517,3.365871974665588e-10,-2.1947200307157802e-11,0.6322073160959469,1.600000000004938,-4.426269649455561e-13,2.436536792210799,0.8000000000007826,1.5608800833365376e-12,-0.0031962572619152778
0.3,computed_torque,6.249704172385364e-10,22.747212682470472,4.0224570343849067e-11,2.871978657013597e-10,-7.213889231853727e-11,-3.2494831708533124e-08,-0.6999999999960175,1.8705247837470096e-12,-6.188191756452031,4.413610796623703e-10,-1.4322637930213988e-10,-0.5866909009735233,-2.199999999998117,4.943903424696939e-13,21.736176148238542,3.3654332221717973e-10,-2.1937624689526943e-11,0.6322073160980856,1.600000000004937,-4.4238604526154184e-13,2.436536792210843,0.8000000000007857,1.5598925107595605e-12,-0.0031962572621069543
0.302,computed_torque,6.246784034090519e-10,22.747212682470053,4.020714965231204e-11,2.870536707795724e-10,-7.209746089365746e-11,-3.2476171087653806e-08,-0.6999999999960137,1.86808124398907e-12,-6.188191756453547,4.410748003554595e-10,-1.4313965345538204e-10,-0.5866909009380059,-2.199999999998116,4.948090882932324e-13,21.736176148238563,3.3649946616131606e-10,-2.192802793184827e-11,0.6322073161002245,1.6000000000049361,-4.4197797748983237e-13,2.4365367922108865,0.8000000000007889,1.5590509577704978e-12,-0.0031962572622984326
0.304,computed_torque,6.243865914506015e-10,22.74721268246964,4.018006460390957e-11,2.869095586674998e-10,-7.205605603629137e-11,-3.2457521440417985e-08,-0.6999999999960099,1.865411141967479e-12,-6.1881917564550735,4.4078869439101434e-10,-1.4305298222256984e-10,-0.5866909009025137,-2.199999999998115,4.952381814355922e-13,21.736176148238584,3.3645562928921e-10,-2.1918436053021426e-11,0.632207316102361,1.6000000000049353,-4.430588799221042e-13,2.436536792210928,0.800000000000792,1.5583505739920595e-12,-0.0031962572624897128
0.306,computed_torque,6.24094981279552e-10,22.747212682469208,4.0161944504685314e-11,2.8676552930949586e-10,-7.201467900198967e-11,-3.243888288918172e-08,-0.6999999999960062,1.862535922607865e-12,-6.188191756456578,4.405027616361997e-10,-1.4296637740730605e-10,-0.5866909008670352,-2.199999999998114,4.943872144491158e-13,21.736176148238595,3.364118116979415e-10,-2.1908795634253576e-11,0.6322073161044963,1.6000000000049344,-4.4204936948458345e-13,2.4365367922109695,0.8000000000007951,1.5569049716758485e-12,-0.003196257262680816
0.308,computed_torque,6.238035727284718e-10,22.747212682468824,4.012714645463856e-11,2.8662158267326565e-10,-7.197331811509661e-11,-3.242025533118233e-08,-0.6999999999960024,1.860164738350927e-12,-6.18819175645811,4.4021700203182807e-10,-1.4287980218581566e-10,-0.5866909008315916,-2.1999999999981132,4.949450537851536e-13,21.73617614823865,3.3636801321272615e-10,-2.1899242607688284e-11,0.632207316106632,1.6000000000049335,-4.4278644406592003e-13,2.436536792211015,0.8000000000007982,1.5564992216810717e-12,-0.0031962572628722336
0.31,computed_torque,6.235123649766768e-10,22.7472126824684,4.010837153262469e-11,2.864777186902298e-10,-7.193199151791533e-11,-3.240163884539515e-08,-0.6999999999959987,1.8575567612169554e-12,-6.188191756459624,4.3993141545655334e-10,-1.4279328763736e-10,-0.5866909007961624,-2.1999999999981124,4.952630362908303e-13,21.736176148238663,3.363242338810387e-10,-2.1889665843718495e-11,0.632207316108765,1.6000000000049326,-4.416836838762795e-13,2.436536792211054,0.8000000000008013,1.5553506103028065e-12,-0.003196257263062937
0.312,computed_torque,6.23221358654483e-10,22.74721268246795,4.008720304852711e-11,2.863339373225391e-10,-7.189068384536045e-11,-3.238303356831448e-08,-0.699999999995995,1.854765840137688e-12,-6.188191756461109,4.3964600178529026e-10,-1.4270683563153444e-10,-0.5866909007607499,-2.1999999999981115,4.945526833404097e-13,21.73617614823866,3.3628047378096625e-10,-2.188005003621174e-11,0.6322073161108963,1.6000000000049317,-4.418233567464224e-13,2.436536792211094,0.8000000000008044,1.55434340379107e-12,-0.003196257263253958
0.314,computed_torque,6.229305535944964e-10,22.747212682467545,4.0060425881631096e-11,2.861902385237421e-10,-7.184939939851763e-11,-3.2364439335297055e-08,-0.6999999999959914,1.852486437230871e-12,-6.188191756462617,4.3936076095221837e-10,-1.4262041653593792e-10,-0.586690900725363,-2.1999999999981106,4.951255206855543e-13,21.736176148238695,3.3623673275872994e-10,-2.187051111815307e-11,0.632207316113028,1.6000000000049308,-4.420451437450268e-13,2.4365367922111383,0.8000000000008075,1.5534872668021465e-12,-0.0031962572634448238
0.316,computed_torque,6.226399497199884e-10,22.747212682467122,4.0033812314766295e-11,2.8604662223674885e-10,-7.180814349660762e-11,-3.234585608755329e-08,-0.6999999999959877,1.8496363900662096e-12,-6.188191756464114,4.39075692817165e-10,-1.4253406752666122e-10,-0.5866909006899999,-2.1999999999981097,4.943699259867084e-13,21.736176148238712,3.361930109348515e-10,-2.186091193922756e-11,0.6322073161151577,1.60000000000493,-4.4183842641593733e-13,2.4365367922111805,0.8000000000008106,1.5527772507881284e-12,-0.0031962572636354495
0.318,computed_torque,6.223495468649733e-10,22.747212682466692,4.0016320602273464e-11,2.8590308841233505e-10,-7.176691220691034e-11,-3.2327283849876433e-08,-0.6999999999959841,1.847297104384481e-12,-6.188191756465605,4.3879079730935e-10,-1.4244775390752583e-10,-0.5866909006546502,-2.199999999998109,4.948924790016596e-13,21.736176148238723,3.361493081671155e-10,-2.1851383867974777e-11,0.6322073161172845,1.600000000004929,-4.417152190119891e-13,2.436536792211222,0.8000000000008137,1.5513246326190679e-12,-0.0031962572638259135
0.32,computed_torque,6.220593449258018e-10,22.747212682466277,3.99917417256518e-11,2.857596369999883e-10,-7.172570617339476e-11,-3.2308722601853046e-08,-0.6999999999959804,1.8447396965230185e-12,-6.18819175646711,4.3850607431335583e-10,-1.423614979970892e-10,-0.5866909006193234,-2.199999999998108,4.953007934058419e-13,21.736176148238748,3.361056244882169e-10,-2.1841839449314684e-11,0.6322073161194124,1.6000000000049281,-4.414173692239333e-13,2.4365367922112644,0.8000000000008168,1.5500223947346754e-12,-0.0031962572640166775
0.322,computed_torque,6.217693438305775e-10,22.74721268246585,3.996407180603462e-11,2.856162679634939e-10,-7.168451824719604e-11,-3.229017235039564e-08,-0.6999999999959767,1.841994511007181e-12,-6.1881917564686,4.382215237057146e-10,-1.4227530382061544e-10,-0.5866909005840213,-2.199999999998107,4.94554750822544e-13,21.736176148238762,3.360619599878728e-10,-2.1832250172058806e-11,0.6322073161215379,1.6000000000049273,-4.406951278894997e-13,2.4365367922113066,0.8000000000008199,1.549762726273948e-12,-0.0031962572642072447
0.324,computed_torque,6.214795433940714e-10,22.747212682465445,3.9940218802146085e-11,2.854729812381088e-10,-7.164336269257316e-11,-3.2271633108461965e-08,-0.6999999999959731,1.8393832778339713e-12,-6.188191756470101,4.3793714541054095e-10,-1.4218914758682378e-10,-0.5866909005487408,-2.199999999998106,4.949167955123968e-13,21.736176148238798,3.3601831450825496e-10,-2.1822739808906558e-11,0.6322073161236635,1.6000000000049264,-4.4005491075790536e-13,2.4365367922113483,0.800000000000823,1.5487606746628833e-12,-0.0031962572643971137
0.326,computed_torque,6.211899435282993e-10,22.74721268246498,3.991756709395855e-11,2.853297767847272e-10,-7.160222669079597e-11,-3.225310487855356e-08,-0.6999999999959694,1.8369359004581495e-12,-6.188191756471578,4.376529393215391e-10,-1.4210304450091675e-10,-0.586690900513479,-2.1999999999981052,4.95337492614948e-13,21.73617614823878,3.3597468808939454e-10,-2.181320943021196e-11,0.6322073161257856,1.6000000000049255,-4.3924649639272065e-13,2.436536792211386,0.8000000000008262,1.5479098465180052e-12,-0.0031962572645872845
0.328,computed_torque,6.209005441371458e-10,22.747212682464582,3.989260710387157e-11,2.851866545444159e-10,-7.156112015562802e-11,-3.223458756090771e-08,-0.6999999999959657,1.8339286208363012e-12,-6.188191756473086,4.3736890530344407e-10,-1.420170090475241e-10,-0.5866909004782411,-2.1999999999981044,4.945588589768858e-13,21.736176148238815,3.3593108081077116e-10,-2.1803639311686966e-11,0.6322073161279079,1.6000000000049246,-4.396781402193689e-13,2.4365367922114287,0.8000000000008293,1.546308970077726e-12,-0.0031962572647772553
0.33,computed_torque,6.206113450620319e-10,22.747212682464163,3.986961079854286e-11,2.850436144840853e-10,-7.152003016532884e-11,-3.2216081264868094e-08,-0.6999999999959621,1.8314383184933597e-12,-6.188191756474569,4.370850432947838e-10,-1.4193100433013146e-10,-0.5866909004430223,-2.1999999999981035,4.950623472746709e-13,21.736176148238837,3.358874925183404e-10,-2.1794146215376204e-11,0.6322073161300288,1.6000000000049237,-4.4018862335785986e-13,2.4365367922114762,0.8000000000008324,1.5457576458022996e-12,-0.0031962572649675896
0.332,computed_torque,6.203223462370261e-10,22.74721268246374,3.9841163553122635e-11,2.849006565451583e-10,-7.147896946349684e-11,-3.2197585939344224e-08,-0.6999999999959584,1.8287570388509345e-12,-6.188191756476065,4.368013531596709e-10,-1.41845067556448e-10,-0.5866909004078303,-2.1999999999981026,4.942884422502303e-13,21.73617614823885,3.3584392334782156e-10,-2.1784585259435908e-11,0.6322073161321483,1.6000000000049228,-4.3861438049854886e-13,2.4365367922115153,0.8000000000008355,1.5444663638675637e-12,-0.0031962572651571875
0.334,computed_torque,6.200335474832012e-10,22.747212682463314,3.982418553757603e-11,2.847577806794516e-10,-7.143793285334148e-11,-3.217910149178994e-08,-0.6999999999959547,1.8262163445586227e-12,-6.188191756477548,4.3651783482602425e-10,-1.4175916682333886e-10,-0.5866909003726513,-2.1999999999981017,4.947504515302348e-13,21.736176148238865,3.3580037313430766e-10,-2.1775106756945402e-11,0.6322073161342662,1.600000000004922,-4.3878422492943367e-13,2.436536792211554,0.8000000000008386,1.5433258923563706e-12,-0.003196257265347096
0.336,computed_torque,6.19744948714751e-10,22.747212682462898,3.9797592356232336e-11,2.846149868447054e-10,-7.139691737309301e-11,-3.216062807482949e-08,-0.6999999999959511,1.8238408553693034e-12,-6.188191756479039,4.3623448818735735e-10,-1.4167331933343986e-10,-0.5866909003374968,-2.199999999998101,4.952756765203022e-13,21.73617614823889,3.357568419246893e-10,-2.176560480917899e-11,0.6322073161363838,1.600000000004921,-4.387852206690814e-13,2.4365367922115997,0.8000000000008417,1.5423389719879711e-12,-0.0031962572655368066
0.338,computed_torque,6.194565498396469e-10,22.747212682462457,3.9776538402475954e-11,2.8447227498502395e-10,-7.135592984071976e-11,-3.214216552129641e-08,-0.6999999999959474,1.8209013600911976e-12,-6.188191756480526,4.3595131310880295e-10,-1.4158753927720234e-10,-0.5866909003023602,-2.1999999999981,4.944759314380599e-13,21.736176148238886,3.35713329802705e-10,-2.1756060992152003e-11,0.6322073161384989,1.6000000000049202,-4.383594675554466e-13,2.436536792211636,0.8000000000008448,1.541503134524472e-12,-0.0031962572657263265
0.34,computed_torque,6.191683506933601e-10,22.747212682462056,3.974917851095606e-11,2.84329645058161e-10,-7.13149634314698e-11,-3.212371396217533e-08,-0.6999999999959438,1.8184786848839702e-12,-6.18819175648202,4.35668309525468e-10,-1.4150179166745946e-10,-0.586690900267249,-2.199999999998099,4.949578451686163e-13,21.736176148238926,3.356698366158188e-10,-2.174659344311421e-11,0.6322073161406141,1.6000000000049193,-4.380165556268077e-13,2.4365367922116814,0.8000000000008479,1.5408236531691363e-12,-0.0031962572659156654
0.342,computed_torque,6.188803511849697e-10,22.74721268246163,3.97338764126703e-11,2.8418709701897335e-10,-7.127401959383e-11,-3.210527332626841e-08,-0.6999999999959401,1.8162204707214442e-12,-6.18819175648351,4.353854773317101e-10,-1.414160968789643e-10,-0.5866909002321492,-2.199999999998098,4.955029327315308e-13,21.736176148238936,3.35626362402765e-10,-2.1737106526886347e-11,0.632207316142728,1.6000000000049184,-4.375080376442905e-13,2.4365367922117214,0.800000000000851,1.5402982191227008e-12,-0.0031962572661047837
0.34400000000000003,computed_torque,6.185925512164007e-10,22.747212682461218,3.9699932452892296e-11,2.8404463080672483e-10,-7.12331061242542e-11,-3.208684353788008e-08,-0.6999999999959364,1.8134016015416668e-12,-6.1881917564850095,4.351028163912803e-10,-1.4133047021488738e-10,-0.5866909001970824,-2.1999999999980973,4.948483481038476e-13,21.736176148238957,3.3558290724190204e-10,-2.1727580431489753e-11,0.6322073161448395,1.6000000000049175,-4.3823955589356963e-13,2.4365367922117653,0.8000000000008541,1.5390255668794658e-12,-0.0031962572662937046
0.34600000000000003,computed_torque,6.183049506250485e-10,22.747212682460795,3.9676506681670655e-11,2.839022463783702e-10,-7.119221417732036e-11,-3.206842470145505e-08,-0.6999999999959328,1.8110944588052353e-12,-6.188191756486489,4.348203266362609e-10,-1.4124487750970594e-10,-0.5866909001620354,-2.1999999999980964,4.953526510145752e-13,21.73617614823897,3.3553947098900503e-10,-2.1718126448514496e-11,0.6322073161469501,1.6000000000049166,-4.373872006837373e-13,2.436536792211804,0.8000000000008572,1.537916035398075e-12,-0.0031962572664829764
0.34800000000000003,computed_torque,6.180175493343222e-10,22.74721268246038,3.9657084833622397e-11,2.837599436834466e-10,-7.115134746178791e-11,-3.2050016753653756e-08,-0.6999999999959291,1.8082298013162055e-12,-6.188191756487981,4.3453800793151277e-10,-1.4115935237406668e-10,-0.5866909001270052,-2.1999999999980955,4.946591543898228e-13,21.736176148238993,3.354960537518474e-10,-2.1708618578825736e-11,0.6322073161490602,1.6000000000049157,-4.3777413824921503e-13,2.4365367922118453,0.8000000000008604,1.536955157379209e-12,-0.0031962572666720144
0.35000000000000003,computed_torque,6.177303471862141e-10,22.74721268245994,3.9628037950610585e-11,2.836177226767623e-10,-7.111050334214598e-11,-3.203161974830923e-08,-0.6999999999959254,1.805878347976931e-12,-6.188191756489455,4.342558602088407e-10,-1.410738613360538e-10,-0.5866909000920012,-2.1999999999980946,4.951252797263907e-13,21.736176148238993,3.354526553969648e-10,-2.169917744129424e-11,0.6322073161511681,1.6000000000049148,-4.365788359698209e-13,2.4365367922118857,0.8000000000008635,1.5361577099704408e-12,-0.0031962572668609
0.352,computed_torque,6.174433433727587e-10,22.74721268245954,3.9611734751565375e-11,2.8347558330716574e-10,-7.106968479826974e-11,-3.201323362336148e-08,-0.6999999999959219,1.80297012193178e-12,-6.188191756490952,4.339738833328773e-10,-1.4098843798169619e-10,-0.586690900057011,-2.1999999999980937,4.943940415693188e-13,21.73617614823903,3.354092760364348e-10,-2.1689680265009318e-11,0.6322073161532759,1.600000000004914,-4.3662445689678123e-13,2.436536792211926,0.8000000000008666,1.5355092347934173e-12,-0.0031962572670495397
0.354,computed_torque,6.171565384618127e-10,22.74721268245912,3.958173504089695e-11,2.833335255253235e-10,-7.102889092111432e-11,-3.199485865644866e-08,-0.6999999999959183,1.8005934252225405e-12,-6.188191756492418,4.336920772344923e-10,-1.409030491924727e-10,-0.5866909000220474,-2.199999999998093,4.949466950899596e-13,21.73617614823905,3.353659155315828e-10,-2.1680252425989214e-11,0.6322073161553821,1.600000000004913,-4.367561610566449e-13,2.4365367922119723,0.8000000000008697,1.5341257085286612e-12,-0.003196257267238024
0.356,computed_torque,6.16869932356133e-10,22.74721268245867,3.9564883143840063e-11,2.831915492876683e-10,-7.098811882760673e-11,-3.197649453959319e-08,-0.6999999999959148,1.7980166880447254e-12,-6.188191756493875,4.334104418029594e-10,-1.408177157664436e-10,-0.5866908999870967,-2.199999999998092,4.953861579459013e-13,21.736176148239043,3.353225739146304e-10,-2.16708084762022e-11,0.6322073161574858,1.6000000000049122,-4.3671402778911693e-13,2.4365367922120087,0.8000000000008728,1.5337941217927956e-12,-0.0031962572674267913
0.358,computed_torque,6.16583524976384e-10,22.747212682458244,3.9536640575355704e-11,2.8304965454184966e-10,-7.09473729093114e-11,-3.1958141315437143e-08,-0.6999999999959112,1.7952718810924501e-12,-6.18819175649534,4.3312897690900497e-10,-1.407324469772277e-10,-0.5866908999521725,-2.199999999998091,4.946753653957138e-13,21.736176148239053,3.352792512820402e-10,-2.166131629508832e-11,0.6322073161595894,1.6000000000049113,-4.362532037112043e-13,2.43653679221205,0.8000000000008759,1.5327230216269211e-12,-0.003196257267614849
0.36,computed_torque,6.162973161434813e-10,22.74721268245782,3.951124052791715e-11,2.8290784123649616e-10,-7.090665267676251e-11,-3.193979893786619e-08,-0.6999999999959077,1.7926791167952647e-12,-6.188191756496803,4.3284768248064633e-10,-1.4064721417932473e-10,-0.5866908999172712,-2.19999999999809,4.950733652973881e-13,21.736176148239068,3.352359474719267e-10,-2.165190505677765e-11,0.632207316161691,1.6000000000049104,-4.3587033979578e-13,2.436536792212092,0.800000000000879,1.5318126158776816e-12,-0.0031962572678032436
0.362,computed_torque,6.160113057994507e-10,22.74721268245739,3.948859426697685e-11,2.8276610932987885e-10,-7.08659533086589e-11,-3.192146747479345e-08,-0.6999999999959041,1.7899184726931773e-12,-6.188191756498271,4.3256655838890577e-10,-1.4056204587028242e-10,-0.58669089988239,-2.1999999999980893,4.943216099920382e-13,21.73617614823908,3.351926626106258e-10,-2.16424306504357e-11,0.6322073161637922,1.6000000000049095,-4.35067996049268e-13,2.4365367922121335,0.8000000000008821,1.5310585506399398e-12,-0.0031962572679914186
0.364,computed_torque,6.157254937770614e-10,22.747212682456965,3.946210730209348e-11,2.826244587737212e-10,-7.082527807881342e-11,-3.1903146822074167e-08,-0.6999999999959006,1.787694337765209e-12,-6.188191756499734,4.3228560456812815e-10,-1.4047691038880394e-10,-0.5866908998475328,-2.1999999999980884,4.949804751775328e-13,21.736176148239092,3.351493965473878e-10,-2.1633031619005456e-11,0.6322073161658918,1.6000000000049086,-4.3601778665335447e-13,2.4365367922121752,0.8000000000008852,1.5295669695420664e-12,-0.003196257268179414
0.366,computed_torque,6.154398799797526e-10,22.747212682456542,3.944753340325893e-11,2.824828895197715e-10,-7.078462697485725e-11,-3.1884837004283097e-08,-0.699999999995897,1.7852643136049233e-12,-6.1881917565011975,4.3200482090482276e-10,-1.4039183165270519e-10,-0.5866908998126863,-2.1999999999980875,4.954030303055361e-13,21.736176148239107,3.3510614932311915e-10,-2.162361213434586e-11,0.6322073161679901,1.6000000000049077,-4.3512700763538775e-13,2.436536792212216,0.8000000000008883,1.5291343645554633e-12,-0.0031962572683677244
0.368,computed_torque,6.151544643137254e-10,22.7472126824561,3.941533069255974e-11,2.8234140151034046e-10,-7.074400471551253e-11,-3.1866538017056784e-08,-0.6999999999958935,1.7822923160540748e-12,-6.18819175650266,4.3172420726451244e-10,-1.4030682015515727e-10,-0.5866908997778705,-2.1999999999980866,4.946265917501654e-13,21.736176148239103,3.350629210187096e-10,-2.1614152204785514e-11,0.6322073161700871,1.6000000000049068,-4.354778482272855e-13,2.4365367922122587,0.8000000000008914,1.5279594848187532e-12,-0.003196257268555311
0.37,computed_torque,6.148692466181689e-10,22.7472126824557,3.939457593871902e-11,2.821999947037272e-10,-7.07034033066197e-11,-3.184824993211802e-08,-0.6999999999958899,1.7798507230426766e-12,-6.188191756504121,4.3144376358146143e-10,-1.4022184152551465e-10,-0.5866908997430723,-2.1999999999980857,4.950098587479261e-13,21.736176148239142,3.3501971148990934e-10,-2.16047644001269e-11,0.6322073161721831,1.600000000004906,-4.342480247950457e-13,2.436536792212299,0.8000000000008946,1.5269526448519562e-12,-0.0031962572687432166
0.372,computed_torque,6.145842266404418e-10,22.747212682455256,3.937173997389285e-11,2.820586690605793e-10,-7.066282157396976e-11,-3.1829972655924506e-08,-0.6999999999958864,1.7775950406309523e-12,-6.188191756505577,4.311634897547108e-10,-1.4013691337533428e-10,-0.586690899708294,-2.199999999998085,4.955825636235353e-13,21.736176148239135,3.34976520765041e-10,-2.1595362434154688e-11,0.6322073161742782,1.600000000004905,-4.3451857432162474e-13,2.43653679221234,0.8000000000008975,1.5261020187500187e-12,-0.0031962572689309093
