Ovmem/robot-control-retargeting-framework/results/panda_control/raw/ablation_task_space_pd_gc.csv
t,mode,err_norm,tau_norm,tau_smoothness_step,q1,qd1,tau1,q2,qd2,tau2,q3,qd3,tau3,q4,qd4,tau4,q5,qd5,tau5,q6,qd6,tau6,q7,qd7,tau7
0.0,task_space_pd_gc,3.636759828731859e-12,22.74721268125129,0.0,1.5424078575759993e-12,7.712039287879996e-10,0.0,-0.6999999999999423,2.8796736914133858e-11,-6.188191757487909,1.722676169366781e-12,8.613380846833905e-10,-0.5866908431074782,-2.199999999999997,1.6050384504946408e-12,21.736176148071376,2.8059038767140384e-12,1.402951938357019e-09,0.6322073211695401,1.6000000000000392,1.9553276041616927e-11,2.4365367923063985,0.8000000000000379,1.893842997961711e-11,-0.003196257500585149
0.002,task_space_pd_gc,2.0736317526447667e-12,22.747212681593712,2.53018641151664e-08,9.633397811152042e-13,4.816698905576021e-10,-1.705733470350036e-08,-0.699999999999975,1.2469731111935609e-11,-6.188191757700811,1.5086953482816655e-12,7.543476741408328e-10,-0.5866908575297629,-2.1999999999999873,6.400621564919461e-12,21.736176148218792,1.044212840297814e-12,5.22106420148907e-10,0.6322073128679706,1.6000000000000147,7.2744781933202626e-12,2.4365367923398296,0.8000000000000662,3.3093406803555844e-11,-0.0031962490008715675
0.004,task_space_pd_gc,1.0480387666435572e-12,22.74721268149568,8.225175372189543e-09,4.392537811026847e-13,2.1962689055134234e-10,-1.198434864111418e-08,-0.7000000000000012,-6.166908438422651e-13,-6.188191757522757,9.430568939527718e-13,4.715284469763859e-10,-0.5866908552941131,-2.199999999999995,2.667522282389613e-12,21.736176148068555,1.1596223236619574e-13,5.7981116183097864e-11,0.6322073185267566,1.6000000000000034,1.6369551332019331e-12,2.4365367922841914,0.800000000000051,2.545754764150971e-11,-0.0031962512010905134
0.006,task_space_pd_gc,5.582909781921309e-13,22.74721268136535,8.437281184523519e-09,-1.6845228868421263e-14,-8.422614434210631e-12,-6.304345634291916e-09,-0.7000000000000179,-8.991811200168106e-12,-6.1881917574367264,2.947762208780574e-13,1.473881104390287e-10,-0.586690850403033,-2.2000000000000015,-6.357460905444134e-13,21.736176148013833,-4.727907940813905e-13,-2.3639539704069525e-10,0.6322073211496413,1.599999999999995,-2.5924373527880986e-12,2.4365367922675665,0.8000000000000251,1.2536701621995689e-11,-0.003196254049321335
0.008,task_space_pd_gc,5.057061960151818e-13,22.747212681236782,8.314236173950155e-09,-1.741178516421788e-13,-8.70589258210894e-11,-8.463602356178059e-10,-0.7000000000000188,-9.452336129772031e-12,-6.188191757395157,-6.733721822642562e-14,-3.3668609113212815e-11,-0.5866908450009616,-2.2000000000000046,-2.2584468056715393e-12,21.736176147994836,-4.695302665869849e-13,-2.3476513329349243e-10,0.632207322582576,1.599999999999994,-2.9971002505517694e-12,2.436536792267499,0.8000000000000042,2.0502960628637264e-12,-0.003196256895222229
0.01,task_space_pd_gc,6.401554780834264e-13,22.747212681173767,3.973363121609682e-09,-2.7886503326965245e-13,-1.3943251663482623e-10,1.4815741594790373e-09,-0.700000000000017,-8.570644712836077e-12,-6.188191757408646,-3.0691230634824786e-13,-1.5345615317412392e-10,-0.5866908420800981,-2.200000000000004,-2.0876171924883373e-12,21.736176148012525,-4.872455100404549e-13,-2.4362275502022746e-10,0.6322073222376334,1.599999999999993,-3.5050741596704976e-12,2.436536792278284,0.7999999999999916,-4.2129301702913075e-12,-0.0031962582056787167
0.012,task_space_pd_gc,7.060886807853692e-13,22.747212681132996,2.6337170929482003e-09,-3.2119080432530826e-13,-1.6059540216265412e-10,3.043664281113964e-09,-0.7000000000000137,-6.888081446320014e-12,-6.1881917574198,-4.351205999382152e-13,-2.175602999691076e-10,-0.5866908401554543,-2.2000000000000033,-1.6036475745376627e-12,21.736176148022857,-4.534011987565239e-13,-2.2670059937826193e-10,0.6322073220623965,1.5999999999999932,-3.413402801936366e-12,2.43653679228491,0.7999999999999843,-7.903673087846378e-12,-0.0031962590780909086
0.014,task_space_pd_gc,7.00823748775715e-13,22.747212681114338,1.3549947116026845e-09,-3.2167030679459423e-13,-1.6083515339729712e-10,3.781377065454698e-09,-0.7000000000000101,-5.029918746778483e-12,-6.188191757433821,-4.815578611530075e-13,-2.4077893057650375e-10,-0.5866908391347055,-2.2000000000000024,-1.092778327673977e-12,21.736176148033653,-3.9404608800048626e-13,-1.9702304400024312e-10,0.6322073218067231,1.599999999999994,-3.027817541347853e-12,2.4365367922903287,0.7999999999999808,-9.61267835288973e-12,-0.0031962595072193333
0.016,task_space_pd_gc,6.520860242995849e-13,22.74721268111168,4.9434856635256e-10,-2.9907503278965063e-13,-1.4953751639482532e-10,3.9421112662687895e-09,-0.7000000000000067,-3.370257303911607e-12,-6.188191757448033,-4.757479102232945e-13,-2.378739551116472e-10,-0.5866908387725868,-2.2000000000000015,-6.740258035050912e-13,21.736176148043985,-3.3009934327936074e-13,-1.6504967163968036e-10,0.6322073215349188,1.599999999999995,-2.554630928061929e-12,2.436536792294821,0.7999999999999802,-9.959388818262133e-12,-0.003196259622147624
0.018000000000000002,task_space_pd_gc,5.818967832365595e-13,22.74721268111855,3.1612665749450486e-10,-2.6589025948642087e-13,-1.3294512974321042e-10,3.76053960559186e-09,-0.7000000000000041,-2.051960411536916e-12,-6.188191757460406,-4.4050325378444677e-13,-2.2025162689222339e-10,-0.5866908388273983,-2.200000000000001,-3.8639703241513373e-13,21.7361761480528,-2.710483992605565e-13,-1.3552419963027824e-10,0.6322073212940437,1.5999999999999959,-2.0957794198567075e-12,2.4365367922983188,0.7999999999999811,-9.483889469809435e-12,-0.0031962595466515174
0.02,task_space_pd_gc,5.045498872857774e-13,22.747212681130094,5.291011821054356e-10,-2.295503387501986e-13,-1.1477516937509928e-10,3.4032482842360134e-09,-0.7000000000000021,-1.082397864234218e-12,-6.188191757470226,-3.913607430734422e-13,-1.9568037153672108e-10,-0.5866908391148119,-2.2000000000000006,-2.1472955802528768e-13,21.736176148059773,-2.200048369747004e-13,-1.1000241848735019e-10,0.6322073210977583,1.5999999999999968,-1.692621891554516e-12,2.436536792300888,0.7999999999999828,-8.579481116876667e-12,-0.0031962593705697835
0.022,task_space_pd_gc,4.2852846061506785e-13,22.74721268114306,6.408601726510064e-10,-1.9416694497426027e-13,-9.708347248713013e-11,2.9760676832480877e-09,-0.7000000000000007,-4.1248391318128937e-13,-6.188191757477465,-3.3804091411129736e-13,-1.6902045705564868e-10,-0.586690839510645,-2.2000000000000006,-1.2878130987413977e-13,21.736176148064914,-1.77289700827667e-13,-8.86448504138335e-11,0.6322073209437932,1.5999999999999974,-1.3555473082105007e-12,2.436536792302624,0.7999999999999851,-7.502566061153236e-12,-0.003196259152057796
0.024,task_space_pd_gc,3.5840453412887127e-13,22.747212681155563,6.608312178657083e-10,-1.6181036839577526e-13,-8.090518419788763e-11,2.5414236627862994e-09,-0.7,2.398313328455634e-14,-6.188191757482444,-2.861660637018282e-13,-1.430830318509141e-10,-0.5866908399378694,-2.2,-9.605008038751669e-14,21.736176148068424,-1.4216981978608323e-13,-7.108490989304161e-11,0.632207320824976,1.5999999999999979,-1.0794791903689349e-12,2.4365367923036536,0.7999999999999873,-6.408462990876747e-12,-0.0031962589259911483
0.026000000000000002,task_space_pd_gc,2.962578796885863e-13,22.74721268116663,6.265590677637255e-10,-1.3334252002770284e-13,-6.667126001385142e-11,2.133262316518139e-09,-0.6999999999999994,2.8879218706654204e-13,-6.188191757485565,-2.3867132865981926e-13,-1.1933566432990962e-10,-0.5866908403522695,-2.2,-9.199052531536941e-14,21.736176148070562,-1.1360044909490439e-13,-5.6800224547452196e-11,0.6322073207338148,1.5999999999999983,-8.568726412017927e-13,2.4365367923040964,0.7999999999999893,-5.3800119838734295e-12,-0.0031962587116822843
0.028,task_space_pd_gc,2.426549122226384e-13,22.74721268117592,5.649096998113157e-10,-1.0893626930060437e-13,-5.446813465030218e-11,1.7677820525248833e-09,-0.6999999999999991,4.331933177033449e-13,-6.188191757487273,-1.9682070766584414e-13,-9.841035383292206e-11,-0.5866908407309378,-2.2,-9.973131005088135e-14,21.73617614807164,-9.052322796992389e-14,-4.526161398496194e-11,0.632207320663932,1.5999999999999988,-6.79915967563957e-13,2.4365367923040955,0.7999999999999912,-4.459251035459117e-12,-0.003196258518628476
0.03,task_space_pd_gc,1.973217826144409e-13,22.7472126811834,4.928177616867761e-10,-8.83933007603579e-14,-4.419665038017895e-11,1.4505436917608358e-09,-0.699999999999999,4.965370646432721e-13,-6.18819175748794,-1.6089122500367375e-13,-8.044561250183687e-11,-0.586690841064162,-2.2,-1.0917881049406061e-13,21.736176148071902,-7.197639299824372e-14,-3.5988196499121857e-11,0.6322073206102887,1.599999999999999,-5.397424279461571e-13,2.4365367923037677,0.7999999999999927,-3.659654294790846e-12,-0.0031962583503651184
0.032,task_space_pd_gc,1.5953156073993704e-13,22.747212681189247,4.201595855952622e-10,-7.133543226984851e-14,-3.566771613492425e-11,1.1810967274451713e-09,-0.699999999999999,5.079367199367195e-13,-6.1881917574878855,-1.306142495560505e-13,-6.530712477802525e-11,-0.5866908413499652,-2.2000000000000006,-1.153311512719609e-13,21.736176148071607,-5.712762759554266e-14,-2.8563813797771327e-11,0.6322073205690197,1.5999999999999992,-4.290683323236531e-13,2.4365367923032246,0.799999999999994,-2.9799448304965953e-12,-0.0031962582070282743
0.034,task_space_pd_gc,1.2837198686779213e-13,22.747212681193698,3.522771210883783e-10,-5.731714906268716e-14,-2.8658574531343578e-11,9.558357524383866e-10,-0.699999999999999,4.867557249946287e-13,-6.18819175748736,-1.0545056682886594e-13,-5.272528341443297e-11,-0.5866908415906311,-2.2000000000000006,-1.1825572832215843e-13,21.736176148070935,-4.527537250009778e-14,-2.263768625004889e-11,0.6322073205371923,1.5999999999999994,-3.395951318632302e-13,2.436536792302554,0.7999999999999953,-2.4118582916160956e-12,-0.0031962580869349345
0.036000000000000004,task_space_pd_gc,1.029076329930721e-13,22.747212681196988,2.9168664119420947e-10,-4.5889104726024345e-14,-2.294455236301217e-11,7.697403469220358e-10,-0.6999999999999991,4.481628909370938e-13,-6.188191757486539,-8.47556028077473e-14,-4.237780140387365e-11,-0.5866908417905456,-2.2000000000000006,-1.1545179929215262e-13,21.736176148070033,-3.5838194796255326e-14,-1.7919097398127664e-11,0.6322073205125877,1.5999999999999996,-2.70557023001863e-13,2.436536792301811,0.7999999999999962,-1.9427151822411254e-12,-0.003196257987555113
0.038,task_space_pd_gc,8.223392028529529e-14,22.747212681199393,2.3919971066253673e-10,-3.6631797995247595e-14,-1.8315898997623797e-11,6.174050557754624e-10,-0.6999999999999992,4.008217032773247e-13,-6.1881917574855825,-6.787472431217988e-14,-3.3937362156089935e-11,-0.5866908419548905,-2.2,-1.1074415530741294e-13,21.736176148069035,-2.8338773574793757e-14,-1.4169386787396879e-11,0.6322073204935249,1.5999999999999996,-2.142527565357567e-13,2.436536792301064,0.7999999999999969,-1.5578640734768942e-12,-0.0031962579060973574
0.04,task_space_pd_gc,6.554253219607313e-14,22.747212681201102,1.9467077466674426e-10,-2.917108253901797e-14,-1.4585541269508985e-11,4.936066494834643e-10,-0.6999999999999993,3.5108441021906963e-13,-6.1881917574845815,-5.4193903117781513e-14,-2.7096951558890755e-11,-0.5866908420888984,-2.2,-1.0235842076523333e-13,21.73617614806801,-2.238940876741435e-14,-1.1194704383707176e-11,0.6322073204787256,1.5999999999999996,-1.7055262771619218e-13,2.4365367923003407,0.7999999999999976,-1.2458367519766414e-12,-0.0031962578398330916
0.042,task_space_pd_gc,5.212848679656474e-14,22.74721268120228,1.574947962333889e-10,-2.31830870462989e-14,-1.159154352314945e-11,3.9356705918782936e-10,-0.6999999999999994,3.0255783823594183e-13,-6.188191757483594,-4.316400690749497e-14,-2.1582003453747486e-11,-0.5866908421974781,-2.2,-9.359594264191317e-14,21.736176148067017,-1.767600230433113e-14,-8.838001152165565e-12,0.632207320467217,1.5999999999999999,-1.3497446840813e-13,2.436536792299665,0.799999999999998,-9.93068691854638e-13,-0.0031962577862395458
0.044,task_space_pd_gc,4.1384431382609195e-14,22.747212681203088,1.2679132788644798e-10,-1.839331330192978e-14,-9.196656650964889e-12,3.1310725004026283e-10,-0.6999999999999994,2.576541805236466e-13,-6.188191757482675,-3.4308654678068575e-14,-1.715432733903429e-11,-0.5866908422849969,-2.2,-8.335641729113066e-14,21.736176148066097,-1.3946327893035783e-14,-6.9731639465178915e-12,0.6322073204582527,1.5999999999999999,-1.0770629076120892e-13,2.436536792299053,0.7999999999999985,-7.8967080225214e-13,-0.0031962577431083458
0.046,task_space_pd_gc,3.280509010623964e-14,22.74721268120362,1.0167659640515953e-10,-1.457263945600386e-14,-7.28631972800193e-12,2.4863583133145516e-10,-0.6999999999999995,2.169490498426045e-13,-6.188191757481836,-2.7223548399893603e-14,-1.36117741999468e-11,-0.5866908423552485,-2.2,-7.337386938570122e-14,21.736176148065265,-1.0997843856895625e-14,-5.4989219284478124e-12,0.6322073204512614,1.5999999999999999,-8.568538591877601e-14,2.4365367922985115,0.7999999999999988,-6.269877431344834e-13,-0.003196257708529216
0.048,task_space_pd_gc,2.597294417003277e-14,22.747212681203948,8.127798892028181e-11,-1.1531990675245888e-14,-5.765995337622943e-12,1.9713288087896212e-10,-0.6999999999999996,1.809995733232106e-13,-6.188191757481085,-2.157079589860079e-14,-1.0785397949300394e-11,-0.5866908424114501,-2.2,-6.40440150925437e-14,21.73617614806452,-8.668860638633263e-15,-4.334430319316631e-12,0.6322073204458025,1.5999999999999999,-6.695938343131983e-14,2.4365367922980328,0.799999999999999,-4.969327905944608e-13,-0.003196257680892495
0.05,task_space_pd_gc,2.0540609072547417e-14,22.74721268120413,6.4796198768491e-11,-9.116731300333467e-15,-4.5583656501667334e-12,1.5609648228440223e-10,-0.6999999999999996,1.503792931706679e-13,-6.188191757480422,-1.7071324234968817e-14,-8.535662117484408e-12,-0.5866908424562839,-2.2,-5.423842731817276e-14,21.736176148063862,-6.830579414511418e-15,-3.415289707255709e-12,0.6322073204415357,1.6,-5.4175158604714425e-14,2.436536792297616,0.7999999999999993,-3.939016396638766e-13,-0.003196257658864302
0.052000000000000005,task_space_pd_gc,1.6231587827902296e-14,22.74721268120423,5.1549475096567746e-11,-7.201315319596084e-15,-3.600657659798042e-12,1.2346446875321342e-10,-0.6999999999999997,1.2387571390732838e-13,-6.18819175747986,-1.3496837300573297e-14,-6.748418650286649e-12,-0.5866908424919703,-2.2,-4.6162219026365095e-14,21.7361761480633,-5.380320241281823e-15,-2.6901601206409116e-12,0.6322073204381983,1.6,-4.221456075418907e-14,2.4365367922972663,0.7999999999999994,-3.119885730843667e-13,-0.003196257641340463
0.054,task_space_pd_gc,1.2813346140743965e-14,22.74721268120425,4.093138374856276e-11,-5.684313965920563e-15,-2.8421569829602817e-12,9.756421305683136e-11,-0.6999999999999997,1.015009694615349e-13,-6.188191757479369,-1.0661751839126007e-14,-5.330875919563003e-12,-0.5866908425203182,-2.2,-3.881337088475472e-14,21.736176148062814,-4.2368552898783735e-15,-2.1184276449391868e-12,0.6322073204355851,1.6,-3.281016220837137e-14,2.436536792296961,0.7999999999999996,-2.46668177910456e-13,-0.0031962576274281312
0.056,task_space_pd_gc,1.0113141456268016e-14,22.747212681204246,3.2447833036342146e-11,-4.484187112204708e-15,-2.242093556102354e-12,7.703897629529976e-11,-0.6999999999999998,8.306774729721626e-14,-6.1881917574789576,-8.416162352014948e-15,-4.208081176007474e-12,-0.5866908425427994,-2.2,-3.2302673074002874e-14,21.73617614806241,-3.3356208033589254e-15,-1.6678104016794626e-12,0.6322073204335382,1.6,-2.708084670534221e-14,2.4365367922967063,0.7999999999999996,-1.9447604261924446e-13,-0.003196257616401463
0.058,task_space_pd_gc,7.975028673017063e-15,22.747212681204232,2.5687587748338558e-11,-3.535664520472575e-15,-1.7678322602362874e-12,6.079430316146338e-11,-0.6999999999999998,6.74248008093589e-14,-6.188191757478622,-6.6395414052240865e-15,-3.319770702612043e-12,-0.5866908425606027,-2.2,-2.7531928077274798e-14,21.73617614806208,-2.6255264512074397e-15,-1.3127632256037199e-12,0.6322073204319338,1.6,-2.0842710404706988e-14,2.436536792296504,0.7999999999999997,-1.534801093232764e-13,-0.003196257607674035
0.06,task_space_pd_gc,6.285255860651754e-15,22.747212681204193,2.0320284706803797e-11,-2.7865868610650142e-15,-1.393293430532507e-12,4.794709372953725e-11,-0.6999999999999998,5.476110372736527e-14,-6.188191757478337,-5.2352506916026505e-15,-2.617625345801325e-12,-0.586690842574689,-2.2,-2.218357694596406e-14,21.736176148061798,-2.0663725069431786e-15,-1.0331862534715892e-12,0.6322073204306757,1.6,-1.6981520793045804e-14,2.4365367922963284,0.7999999999999998,-1.2100677261121668e-13,-0.0031962576007699877
0.062,task_space_pd_gc,4.9548797393292834e-15,22.74721268120415,1.605719243158864e-11,-2.1954122994156145e-15,-1.0977061497078073e-12,3.779737404854766e-11,-0.6999999999999998,4.445282303431469e-14,-6.188191757478101,-4.126189975019723e-15,-2.0630949875098614e-12,-0.5866908425858225,-2.2,-1.7723854221311484e-14,21.736176148061563,-1.6260149441554387e-15,-8.130074720777194e-13,0.6322073204296893,1.6,-1.4104769938022046e-14,2.4365367922961862,0.7999999999999998,-9.577371230806747e-14,-0.003196257595314961
0.064,task_space_pd_gc,3.901217685214802e-15,22.747212681204104,1.2682859833979802e-11,-1.7291292057360156e-15,-8.645646028680078e-13,2.9781894651218895e-11,-0.6999999999999998,3.5751221123692014e-14,-6.188191757477908,-3.2508985987181684e-15,-1.6254492993590842e-12,-0.5866908425946171,-2.2,-1.4605086275665233e-14,21.736176148061368,-1.2793037226818222e-15,-6.396518613409111e-13,0.6322073204289148,1.6,-1.0940953349189665e-14,2.43653679229607,0.7999999999999999,-7.54474802093734e-14,-0.0031962575910053866
0.066,task_space_pd_gc,3.0736556754837267e-15,22.747212681204058,1.0004156058413428e-11,-1.3615188914813706e-15,-6.807594457406853e-13,2.346032178455551e-11,-0.6999999999999998,2.893937395131251e-14,-6.188191757477747,-2.5604736537448025e-15,-1.2802368268724013e-12,-0.5866908426015557,-2.2,-1.1629788479096199e-14,21.736176148061208,-1.006453319713959e-15,-5.032266598569795e-13,0.6322073204283069,1.6,-8.084976927434966e-15,2.4365367922959704,0.7999999999999999,-5.958029958820169e-14,-0.0031962575876073995
0.068,task_space_pd_gc,2.4192619240235873e-15,22.74721268120401,7.891989272952995e-12,-1.0718340110147755e-15,-5.359170055073877e-13,1.8474271202471188e-11,-0.7,2.2779423289612104e-14,-6.188191757477614,-2.016177533169154e-15,-1.008088766584577e-12,-0.5866908426070297,-2.2,-1.0417204329433173e-14,21.736176148061073,-7.916453201795322e-16,-3.958226600897661e-13,0.6322073204278295,1.6,-5.531536619331195e-15,2.4365367922958883,0.7999999999999999,-4.705700545638105e-14,-0.0031962575849265847
0.07,task_space_pd_gc,1.905528027658957e-15,22.74721268120398,6.2205190756070105e-12,-8.436177300941123e-16,-4.218088650470561e-13,1.4544387574365915e-11,-0.7,1.8172708185272277e-14,-6.188191757477508,-1.5872008083740256e-15,-7.936004041870128e-13,-0.5866908426113449,-2.2,-8.295167281136973e-15,21.736176148060974,-6.227470047438635e-16,-3.1137350237193174e-13,0.6322073204274544,1.6,-5.6394277181634386e-15,2.4365367922958234,0.7999999999999999,-3.714155644676977e-14,-0.00319625758281357
0.07200000000000001,task_space_pd_gc,1.5012061393842646e-15,22.74721268120396,4.901547038791477e-12,-6.638808103942541e-16,-3.3194040519712704e-13,1.1448126232065993e-11,-0.7,1.4528666396258132e-14,-6.188191757477428,-1.2492615806416496e-15,-6.246307903208248e-13,-0.5866908426147457,-2.2,-6.831701520284931e-15,21.736176148060895,-4.897976051431092e-16,-2.448988025715546e-13,0.6322073204271603,1.6,-4.933745314480175e-15,2.4365367922957786,0.7999999999999999,-2.8680834212922784e-14,-0.0031962575811487442
0.074,task_space_pd_gc,1.1780363806995953e-15,22.747212681203937,3.854919708111199e-12,-5.223644002500029e-16,-2.6118220012500147e-13,9.013130545336898e-12,-0.7,1.1942721804429042e-14,-6.188191757477363,-9.830970532494461e-16,-4.915485266247231e-13,-0.5866908426174212,-2.2,-4.919614433620467e-15,21.73617614806083,-3.8526008292517483e-16,-1.9263004146258742e-13,0.632207320426929,1.6,-3.80925675714034e-15,2.4365367922957413,0.8,-2.290108022108101e-14,-0.0031962575798412493
0.076,task_space_pd_gc,9.268642863326466e-16,22.74721268120391,3.044696124193812e-12,-4.1097822475990096e-16,-2.0548911237995047e-13,7.090370177732626e-12,-0.7,9.407729747225076e-15,-6.188191757477304,-7.73555758502172e-16,-3.86777879251086e-13,-0.5866908426195332,-2.2,-4.080896167383712e-15,21.73617614806077,-3.0296170144138e-16,-1.5148085072069e-13,0.6322073204267474,1.6,-2.117748233121702e-15,2.436536792295704,0.8,-1.8049363430381735e-14,-0.003196257578806267
0.078,task_space_pd_gc,7.291648395849213e-16,22.747212681203884,2.394104831068492e-12,-3.23300283372634e-16,-1.6165014168631698e-13,5.57856773722851e-12,-0.7,7.73381182409682e-15,-6.188191757477254,-6.085879798048166e-16,-3.042939899024083e-13,-0.5866908426211942,-2.2,-2.7533294456912877e-15,21.73617614806072,-2.3828336260673055e-16,-1.1914168130336526e-13,0.6322073204266047,1.6,-1.869694646578751e-15,2.436536792295671,0.8,-1.3996482507752582e-14,-0.0031962575779933447
0.08,task_space_pd_gc,5.735865622604835e-16,22.747212681203866,1.882474874434691e-12,-2.5431728762484143e-16,-1.2715864381242072e-13,4.3898977371696544e-12,-0.7,5.867401908237043e-15,-6.188191757477216,-4.7877764813508045e-16,-2.3938882406754024e-13,-0.5866908426225007,-2.2,-2.5949182583893076e-15,21.736176148060682,-1.8733986566447704e-16,-9.366993283223852e-14,0.6322073204264925,1.6,-1.169731709852299e-15,2.4365367922956493,0.8,-1.1338960684377872e-14,-0.003196257577354774
0.082,task_space_pd_gc,4.511711342931711e-16,22.747212681203855,1.486078757294964e-12,-2.0003476274503481e-16,-1.0001738137251741e-13,3.4513870020765773e-12,-0.7,4.585486269465974e-15,-6.1881917574771865,-3.7661371618624997e-16,-1.8830685809312497e-13,-0.5866908426235314,-2.2,-2.181067851278966e-15,21.736176148060657,-1.4732139998420815e-16,-7.366069999210407e-14,0.6322073204264043,1.6,-3.192948296622161e-16,2.4365367922956325,0.8,-8.736866618758806e-15,-0.003196257576849137
0.084,task_space_pd_gc,3.548583873422991e-16,22.74721268120384,1.164822691753919e-12,-1.5732515874728044e-16,-7.866257937364022e-14,2.715900632774641e-12,-0.7,3.552344712244129e-15,-6.188191757477162,-2.9622134026471743e-16,-1.4811067013235872e-13,-0.5866908426243399,-2.2,-1.5453838486572944e-15,21.736176148060633,-1.1587142470900545e-16,-5.793571235450272e-14,0.6322073204263348,1.6,-1.0247719387599023e-15,2.436536792295616,0.8,-6.57838531006534e-15,-0.0031962575764542703
0.08600000000000001,task_space_pd_gc,2.790869894247844e-16,22.747212681203838,9.156226358270563e-13,-1.2372721886978619e-16,-6.186360943489309e-14,2.1378651436043345e-12,-0.7,2.7872248665622817e-15,-6.188191757477147,-2.3297065547818583e-16,-1.1648532773909293e-13,-0.5866908426249761,-2.2,-7.999122527572097e-16,21.73617614806062,-9.113614356007266e-17,-4.556807178003633e-14,0.6322073204262805,1.6,-1.6188338838923805e-15,2.43653679229561,0.8,-5.1492991923979364e-15,-0.0031962575761442266
0.088,task_space_pd_gc,2.1947379764551927e-16,22.747212681203834,7.225678828999812e-13,-9.730053288119287e-17,-4.865026644059644e-14,1.6815039954539744e-12,-0.7,1.960205349500172e-15,-6.188191757477132,-1.8323734188781522e-16,-9.161867094390761e-14,-0.5866908426254773,-2.2,-1.2692309386816897e-15,21.736176148060604,-7.159211333568912e-17,-3.5796056667844555e-14,0.6322073204262376,1.6,-2.1132773065111202e-16,2.436536792295603,0.8,-3.771565073838085e-15,-0.003196257575898693
0.09,task_space_pd_gc,1.7259269993483781e-16,22.747212681203823,5.663274407630285e-13,-7.651387371088525e-17,-3.825693685544262e-14,1.3240769277809392e-12,-0.7,1.4508738095289289e-15,-6.188191757477119,-1.4410628378821804e-16,-7.205314189410901e-14,-0.5866908426258706,-2.2,-1.4772489034768373e-15,21.73617614806059,-5.627829220313311e-17,-2.8139146101566557e-14,0.6322073204262038,1.6,-4.350372948463407e-16,2.4365367922955925,0.8,-3.5328622403046123e-15,-0.003196257575707135
0.092,task_space_pd_gc,1.3572547386188433e-16,22.747212681203827,4.528996927224695e-13,-6.016421076252286e-17,-3.0082105381261426e-14,1.0378769547546712e-12,-0.7,1.6142670065834263e-15,-6.188191757477116,-1.1329786772276382e-16,-5.6648933861381904e-14,-0.586690842626184,-2.2,-3.201128676765858e-16,21.73617614806059,-4.433131137053011e-17,-2.2165655685265055e-14,0.6322073204261772,1.6,-8.493697995531307e-16,2.4365367922955925,0.8,-2.7541130672644114e-15,-0.0031962575755513562
0.094,task_space_pd_gc,1.0673073208014784e-16,22.747212681203823,3.5114731817796744e-13,-4.732026228674915e-17,-2.3660131143374572e-14,8.162306113047184e-13,-0.7,1.0087830516271235e-15,-6.188191757477108,-8.91092570033342e-17,-4.45546285016671e-14,-0.5866908426264277,-2.2,-5.799274783844491e-16,21.73617614806058,-3.481066307600733e-17,-1.7405331538003664e-14,0.6322073204261569,1.6,-9.669697844040734e-16,2.4365367922955876,0.8,-2.465429992204808e-15,-0.0031962575754322913
0.096,task_space_pd_gc,8.392744048712879e-17,22.74721268120382,2.7865367130190987e-13,-3.7209940356732445e-17,-1.860497017836622e-14,6.401446509644675e-13,-0.7,7.481503979966722e-16,-6.188191757477105,-7.007691696785282e-17,-3.503845848392641e-14,-0.5866908426266206,-2.2,-6.818950339554923e-16,21.736176148060576,-2.7358021011206576e-17,-1.3679010505603288e-14,0.6322073204261403,1.6,-1.051050493654091e-15,2.4365367922955867,0.8,-1.8481848956088187e-15,-0.0031962575753368663
0.098,task_space_pd_gc,6.599587115493587e-17,22.747212681203823,2.1605255614641187e-13,-2.9257558813157925e-17,-1.4628779406578963e-14,5.039319083368242e-13,-0.7,4.615637371799328e-16,-6.188191757477103,-5.5106358162794326e-17,-2.7553179081397163e-14,-0.5866908426267712,-2.2,-7.9434616185867835e-16,21.736176148060576,-2.1511381913473888e-17,-1.0755690956736944e-14,0.6322073204261275,1.6,-1.1041100682198603e-15,2.4365367922955863,0.8,-9.833161564584414e-16,-0.0031962575752641047
0.1,task_space_pd_gc,5.188283935859829e-17,22.747212681203823,1.657772276635976e-13,-2.2995981628636863e-17,-1.1497990814318432e-14,3.9906629850159415e-13,-0.7,5.321834537339377e-16,-6.188191757477101,-4.332521251857024e-17,-2.166260625928512e-14,-0.5866908426268868,-2.2,-7.40749083567781e-16,21.736176148060576,-1.6909754849383137e-17,-8.454877424691568e-15,0.6322073204261173,1.6,-1.1412568201047707e-15,2.436536792295586,0.8,-8.278246620471458e-16,-0.003196257575209148
0.10200000000000001,task_space_pd_gc,3.6596501243569476e-15,22.747212681203827,1.3580401404273153e-13,-1.5553746862770783e-15,-7.776873431385391e-13,3.13390439136394e-13,-0.7000000000000001,-2.849848751008537e-14,-6.188191757477101,-1.7510272360579426e-15,-8.755136180289713e-13,-0.586690842626981,-2.2,-2.5957287381509944e-15,21.736176148060576,-2.809880119317105e-15,-1.4049400596585525e-12,0.6322073204261093,1.6,-1.897472905322414e-14,2.436536792295586,0.8,-1.9383906701567333e-14,-0.003196257575162738
0.10400000000000001,task_space_pd_gc,2.1763572391209765e-15,22.747212681203468,2.5118224877494735e-11,-1.0092425576093509e-15,-5.046212788046754e-13,1.7248015855073366e-11,-0.7,-1.2845970468975984e-14,-6.188191757476878,-1.5694240357646417e-15,-7.847120178823208e-13,-0.5866908426126793,-2.2,-6.912411836082872e-15,21.736176148060412,-1.1146939205470536e-15,-5.573469602735268e-13,0.6322073204343771,1.6,-8.268872527688862e-15,2.43653679229554,0.7999999999999999,-3.40263247556622e-14,-0.003196257583598991
0.106,task_space_pd_gc,9.239664662358916e-16,22.747212681203564,7.754155618100926e-12,-3.4399102326585423e-16,-1.7199551163292712e-13,1.2523461129042808e-11,-0.7,3.1707199823704043e-15,-6.188191757477054,-8.535044597438031e-16,-4.2675222987190155e-13,-0.5866908426146407,-2.2,-2.563547043742601e-15,21.73617614806056,8.315253356567229e-17,4.157626678283614e-14,0.6322073204289201,1.6,1.1339962502943388e-16,2.4365367922956005,0.8,-2.4984172278063975e-14,-0.0031962575815683764
0.108,task_space_pd_gc,6.130186769527699e-16,22.74721268120371,1.071418240860713e-11,9.220575412806382e-17,4.610287706403191e-14,5.304719246278144e-12,-0.7,1.064670206301177e-14,-6.188191757477151,-1.909663400188965e-16,-9.548317000944824e-14,-0.5866908426207964,-2.2,1.1573031354981865e-15,21.73617614806062,5.751711520742211e-16,2.8758557603711057e-13,0.6322073204254919,1.6,3.4705135123696623e-15,2.4365367922956107,0.8,-1.051738942896458e-14,-0.003196257577959409
0.11,task_space_pd_gc,7.997356673035783e-16,22.747212681203838,8.240084944074682e-12,3.1871568681487003e-16,1.59357843407435e-13,-4.478662434287296e-14,-0.7,1.1908098708054708e-14,-6.188191757477181,2.5826550032677146e-16,1.2913275016338571e-13,-0.5866908426262831,-2.2,3.1554641430362012e-15,21.73617614806063,6.865102911658264e-16,3.432551455829132e-13,0.6322073204243858,1.6,3.714894503661252e-15,2.4365367922956076,0.8,8.698875096922355e-16,-0.003196257575139278
0.112,task_space_pd_gc,9.096675307251922e-16,22.747212681203916,5.092724136810391e-12,4.0742640322745716e-16,2.0371320161372858e-13,-3.17451941980343e-12,-0.7,1.01097881323669e-14,-6.188191757477175,5.034581424807653e-16,2.517290712403827e-13,-0.5866908426299158,-2.2,3.061698858552555e-15,21.736176148060615,6.387711962656295e-16,3.1938559813281476e-13,0.6322073204243935,1.6,3.793567274563173e-15,2.436536792295601,0.8,7.980627754174111e-15,-0.0031962575734234334
0.114,task_space_pd_gc,9.078162977016903e-16,22.74721268120396,2.5949778097954157e-12,4.165180806318021e-16,2.0825904031590106e-13,-4.633925851552956e-12,-0.7,7.470003075790315e-15,-6.188191757477155,5.999462877353256e-16,2.999731438676628e-13,-0.5866908426318541,-2.2,2.3768702485109697e-15,21.7361761480606,5.391730433842232e-16,2.6958652169211163e-13,0.6322073204247747,1.6,3.3371684387836325e-15,2.436536792295592,0.8,1.1617911027151561e-14,-0.0031962575725862016
0.116,task_space_pd_gc,8.355761769556606e-16,22.747212681203965,9.709747773573143e-13,3.841324068569142e-16,1.9206620342845708e-13,-5.02278091695145e-12,-0.7,4.9610701215014626e-15,-6.188191757477133,6.026086479265442e-16,3.013043239632721e-13,-0.5866908426325865,-2.2,1.2916610066559898e-15,21.736176148060583,4.330042250859613e-16,2.1650211254298065e-13,0.6322073204252094,1.6,4.0263858941358016e-15,2.436536792295584,0.8,1.2747531045481852e-14,-0.003196257572330738
0.11800000000000001,task_space_pd_gc,7.284405602824057e-16,22.74721268120395,4.4903466744163526e-13,3.3334210348833397e-16,1.6667105174416698e-13,-4.798335901109843e-12,-0.7,2.991427616409167e-15,-6.188191757477111,5.531248683587826e-16,2.765624341793913e-13,-0.5866908426325708,-2.2,1.3256680146973861e-15,21.736176148060565,3.3698897891414397e-16,1.6849448945707198e-13,0.6322073204255871,1.6,2.3131340105769104e-15,2.436536792295572,0.8,1.2205427786785339e-14,-0.0031962575724167612
0.12,task_space_pd_gc,6.102488636784747e-16,22.747212681203937,7.872595173783177e-13,2.773879734130692e-16,1.386939867065346e-13,-4.26662817016641e-12,-0.7,1.1251928869193727e-15,-6.188191757477097,4.793851822780215e-16,2.3969259113901075e-13,-0.5866908426321463,-2.2,-3.722949163868233e-18,21.736176148060558,2.562214566325938e-16,1.281107283162969e-13,0.6322073204258841,1.6,2.1413760059199176e-15,2.436536792295571,0.8,1.0455373800298688e-14,-0.0031962575726784165
0.122,task_space_pd_gc,4.951539233681864e-16,22.747212681203923,9.750279776880262e-13,2.2344406987198493e-16,1.1172203493599247e-13,-3.6182282641515887e-12,-0.7,2.3478528348817615e-16,-6.18819175747709,3.9871580536751414e-16,1.9935790268375707e-13,-0.5866908426315375,-2.2,3.4276389029253342e-18,21.736176148060554,1.9046223251890647e-16,9.523111625945324e-14,0.6322073204261065,1.6,1.3985300751693722e-15,2.4365367922955707,0.8,9.163241608444257e-15,-0.0031962575730101516
0.124,task_space_pd_gc,3.907730736516211e-16,22.7472126812039,1.0122564563542475e-12,1.7500099568061006e-16,8.750049784030503e-14,-2.9558666954483237e-12,-0.7,-3.0646611516108376e-16,-6.1881917574770835,3.208770323220452e-16,1.604385161610226e-13,-0.5866908426308749,-2.2,5.4899688216062057e-17,21.73617614806055,1.3826126257968114e-16,6.913063128984057e-14,0.6322073204262685,1.6,4.00351037852572e-16,2.43653679229557,0.8,7.450935359840718e-15,-0.003196257573357479
0.126,task_space_pd_gc,3.0036729143596083e-16,22.74721268120389,9.4513363269606e-13,1.3340092681428321e-16,6.670046340714161e-14,-2.3447108798553342e-12,-0.7,-8.285913268835044e-16,-6.188191757477082,2.5084037698143295e-16,1.2542018849071647e-13,-0.5866908426302407,-2.2,-8.630515211988141e-17,21.73617614806055,9.748747491590019e-17,4.874373745795009e-14,0.6322073204263842,1.6,8.81181113689899e-16,2.436536792295573,0.8,5.460601209430246e-15,-0.0031962575736802982
0.128,task_space_pd_gc,2.246595849411836e-16,22.74721268120387,8.323688586170942e-13,9.88223073602092e-17,4.94111536801046e-14,-1.811369010719305e-12,-0.7,-9.178411841903387e-16,-6.188191757477075,1.9063075516626495e-16,9.531537758313248e-14,-0.5866908426296734,-2.2,-8.342709824612077e-17,21.736176148060544,6.607568280909973e-17,3.3037841404549867e-14,0.6322073204264651,1.6,1.182572539630156e-15,2.4365367922955676,0.8,4.255313627429573e-15,-0.003196257573962872
0.13,task_space_pd_gc,1.6290582513624126e-16,22.74721268120385,7.12110377809108e-13,7.078124681678555e-17,3.5390623408392776e-14,-1.3580713434482914e-12,-0.7,-9.375085923921337e-16,-6.188191757477071,1.405289353901742e-16,7.026446769508711e-14,-0.586690842629184,-2.2,4.017490875580901e-17,21.73617614806054,4.218935032072834e-17,2.109467516036417e-14,0.6322073204265206,1.6,-3.1184095765203635e-16,2.436536792295565,0.8,3.0887069538884514e-15,-0.003196257574205791
0.132,task_space_pd_gc,1.1366825881208104e-16,22.747212681203855,5.868517251029974e-13,4.8507326543342604e-17,2.4253663271671302e-14,-9.869389424558202e-13,-0.7,-9.022113916327244e-16,-6.188191757477079,9.988527732587998e-17,4.9942638662939985e-14,-0.5866908426287775,-2.2,5.381628899896036e-17,21.73617614806055,2.4299047440585256e-17,1.2149523720292628e-14,0.6322073204265577,1.6,-1.9719529378302913e-16,2.436536792295574,0.8,2.1339649223410757e-15,-0.0031962575744051156
0.134,task_space_pd_gc,7.527811355247181e-17,22.747212681203845,4.73109413222717e-13,3.11539248109569e-17,1.557696240547845e-14,-6.89231569866427e-13,-0.7,-8.082324731797092e-16,-6.188191757477078,6.762312063166702e-17,3.381156031583351e-14,-0.5866908426284475,-2.2,7.832304669598825e-17,21.736176148060547,1.1105895052947994e-17,5.552947526473997e-15,0.6322073204265812,1.6,-1.5272236191758396e-16,2.4365367922955734,0.8,1.5268721129259882e-15,-0.0031962575745656235
0.136,task_space_pd_gc,4.6153733762968345e-17,22.74721268120384,3.756046314219017e-13,1.788711974584128e-17,8.94355987292064e-15,-4.542919211954093e-13,-0.7,-6.608166734993247e-16,-6.188191757477079,4.2517867387925324e-17,2.125893369396266e-14,-0.586690842628184,-2.2,1.2457350503010227e-16,21.73617614806055,1.5649409713134806e-18,7.824704856567403e-16,0.6322073204265949,1.6,-1.5840846728804762e-16,2.4365367922955734,0.8,1.3835902352281737e-15,-0.0031962575746931903
0.138,task_space_pd_gc,2.5205690955930724e-17,22.747212681203838,2.94214745426201e-13,7.940961284644523e-18,3.970480642322262e-15,-2.711496714108811e-13,-0.7,-4.687617131771255e-16,-6.18819175747708,2.335942362712716e-17,1.1679711813563578e-14,-0.5866908426279771,-2.2,1.8723893567594662e-16,21.73617614806055,-5.158034339753678e-18,-2.579017169876839e-15,0.6322073204266018,1.6,-1.9937019532915057e-16,2.436536792295574,0.8,9.021588007962485e-16,-0.0031962575747939196
0.14,task_space_pd_gc,1.3295060418959379e-17,22.747212681203834,2.2055878591350977e-13,6.368110861101561e-19,3.1840554305507803e-16,-1.348556184014662e-13,-0.7,-6.181966431697568e-16,-6.188191757477083,9.029914394257856e-18,4.514957197128928e-15,-0.5866908426278205,-2.2,8.967326638144404e-17,21.73617614806055,-9.737235193665721e-18,-4.86861759683286e-15,0.6322073204266039,1.6,-2.568396572147542e-16,2.4365367922955747,0.8,1.7701640212520816e-16,-0.0031962575748682013
0.14200000000000002,task_space_pd_gc,1.3557537736022912e-17,22.74721268120383,1.6155010179300577e-13,-4.5600805314063834e-18,-2.2800402657031916e-15,-3.605764528097534e-14,-0.7,-3.57762780322218e-16,-6.188191757477082,-1.4207348192780319e-18,-7.103674096390159e-16,-0.5866908426277042,-2.2,1.8175551857068525e-16,21.73617614806055,-1.2688341403984397e-17,-6.3441707019921986e-15,0.6322073204266027,1.6,-3.3121601341503547e-16,2.436536792295575,0.8,1.7778705332916353e-16,-0.003196257574921334
0.14400000000000002,task_space_pd_gc,1.8780689254836512e-17,22.747212681203834,1.2234113375897941e-13,-8.13993659863945e-18,-4.0699682993197255e-15,3.826304408031619e-14,-0.7,-4.505636597814929e-16,-6.188191757477084,-8.82975258443869e-18,-4.4148762922193445e-15,-0.5866908426276166,-2.2,1.1451944004791357e-16,21.736176148060554,-1.4439224021894662e-17,-7.21961201094733e-15,0.6322073204265993,1.6,-4.062666904646778e-16,2.4365367922955765,0.8,4.423238533037662e-17,-0.003196257574963024
0.146,task_space_pd_gc,2.3153576905932014e-17,22.74721268120383,8.57315100435958e-14,-1.0470659377028841e-17,-5.23532968851442e-15,8.94115183950816e-14,-0.7,-5.217913221344763e-16,-6.188191757477084,-1.3870995713429672e-17,-6.935497856714836e-15,-0.5866908426275542,-2.2,5.815202933981451e-17,21.736176148060554,-1.529865659681143e-17,-7.649328298405714e-15,0.6322073204265946,1.6,-4.851455122818432e-16,2.436536792295577,0.8,-1.7774407266204548e-16,-0.0031962575749916186
0.148,task_space_pd_gc,2.594557864647645e-17,22.74721268120383,5.735368904863055e-14,-1.1851127370117235e-17,-5.925563685058617e-15,1.226946449813069e-13,-0.7,-1.989423591114779e-16,-6.188191757477084,-1.7092824578812646e-17,-8.546412289406323e-15,-0.5866908426275117,-2.2,1.854457822384297e-16,21.736176148060554,-1.5509970318336884e-17,-7.754985159168442e-15,0.632207320426589,1.6,-5.699937612118453e-16,2.4365367922955774,0.8,-4.531129930113814e-16,-0.0031962575750101277
0.15,task_space_pd_gc,2.7390738288184293e-17,22.747212681203834,3.622432387301228e-14,-1.2546417772414629e-17,-6.273208886207314e-15,1.4240885655728964e-13,-0.7,-2.426655533641208e-16,-6.188191757477088,-1.8958739527988803e-17,-9.479369763994401e-15,-0.5866908426274845,-2.2,1.480642852745052e-16,21.736176148060558,-1.5277635306608096e-17,-7.638817653304047e-15,0.6322073204265829,1.6,-6.428821122374947e-16,2.436536792295579,0.8,-7.564486746279968e-16,-0.0031962575750209905
0.152,task_space_pd_gc,2.777595868428007e-17,22.747212681203834,2.0482474271062847e-14,-1.2722991545512283e-17,-6.361495772756142e-15,1.5221815243964734e-13,-0.7,-2.758031303470036e-16,-6.188191757477088,-1.9810630854787717e-17,-9.905315427393859e-15,-0.5866908426274684,-2.2,1.1742698664941188e-16,21.736176148060558,-1.473663028303924e-17,-7.36831514151962e-15,0.6322073204265769,1.6,-7.093344942472826e-16,2.4365367922955796,0.8,-1.7473909189105857e-16,-0.0031962575750262836
0.154,task_space_pd_gc,2.738644334207363e-17,22.74721268120383,1.701498049270394e-14,-1.2535135175835435e-17,-6.267567587917717e-15,1.6001613956418805e-13,-0.7,-3.015912585252669e-16,-6.188191757477087,-1.9926534242657742e-17,-9.96326712132887e-15,-0.586690842627457,-2.2,9.086658958843303e-17,21.736176148060554,-1.3993602042659735e-17,-6.9968010213298675e-15,0.6322073204265706,1.6,-7.713965872410869e-16,2.4365367922955783,0.8,-5.070016336402706e-16,-0.0031962575750328183
0.156,task_space_pd_gc,2.6457263643087314e-17,22.747212681203834,8.191065642725459e-15,-1.2102038574890906e-17,-6.051019287445453e-15,1.571355644434996e-13,-0.7,-3.210393039847278e-16,-6.188191757477089,-1.952403637222603e-17,-9.762018186113014e-15,-0.5866908426274559,-2.2,6.846804696395067e-17,21.736176148060558,-1.3127812671868737e-17,-6.563906335934368e-15,0.6322073204265648,1.6,-8.274988547308962e-16,2.4365367922955805,0.8,-8.247376940512298e-16,-0.0031962575750309405
0.158,task_space_pd_gc,2.5165277506490668e-17,22.747212681203834,9.715684580261939e-15,-1.1499829501116937e-17,-5.749914750558469e-15,1.5073146510027047e-13,-0.7,-3.35425076919495e-16,-6.188191757477089,-1.8765341521359183e-17,-9.382670760679592e-15,-0.5866908426274589,-2.2,5.007931655962044e-17,21.736176148060558,-1.2202748502312041e-17,-6.1013742511560204e-15,0.6322073204265594,1.6,-8.748686319774006e-16,2.436536792295581,0.8,-2.278916108017169e-16,-0.003196257575027119
0.16,task_space_pd_gc,2.364947895635355e-17,22.747212681203838,7.618565607461361e-15,-1.079743316700237e-17,-5.398716583501185e-15,1.473224523437857e-13,-0.7,-3.454774526784489e-16,-6.18819175747709,-1.7776303874441975e-17,-8.888151937220987e-15,-0.5866908426274606,-2.2,3.833059183703826e-17,21.73617614806056,-1.125683403424896e-17,-5.62841701712448e-15,0.6322073204265539,1.6,-9.191818570663284e-16,2.4365367922955814,0.8,-5.253111778513302e-16,-0.0031962575750273704
0.162,task_space_pd_gc,2.2018243954806426e-17,22.747212681203838,1.529905961639812e-14,-1.004751280804124e-17,-5.02375640402062e-15,1.370364458455181e-13,-0.7,-3.5265489379146374e-16,-6.18819175747709,-1.665343838293855e-17,-8.326719191469275e-15,-0.586690842627469,-2.2,2.897205884171756e-17,21.73617614806056,-1.0320539872084499e-17,-5.160269936042249e-15,0.6322073204265491,1.6,-9.586192400602916e-16,2.4365367922955814,0.8,-7.958956669656492e-16,-0.003196257575021359
0.164,task_space_pd_gc,2.0342063439129872e-17,22.747212681203838,1.6125532974567013e-14,-9.275282947256335e-18,-4.637641473628168e-15,1.2608300353272683e-13,-0.7,-3.574961588714083e-16,-6.18819175747709,-1.5461789946319215e-17,-7.730894973159608e-15,-0.586690842627478,-2.2,2.206185573683425e-17,21.73617614806056,-9.418159207924979e-18,-4.709079603962489e-15,0.6322073204265448,1.6,-9.893120978817404e-16,2.436536792295582,0.8,-1.4506802143256713e-16,-0.0031962575750150157
0.166,task_space_pd_gc,1.8676185034636616e-17,22.747212681203834,9.952385248474992e-15,-8.509429778317242e-18,-4.254714889158621e-15,1.2023628694194051e-13,-0.7,-3.6149808278633117e-16,-6.188191757477089,-1.4252659917035575e-17,-7.126329958517787e-15,-0.5866908426274833,-2.2,1.589295105816385e-17,21.736176148060558,-8.558690179297293e-18,-4.2793450896486466e-15,0.6322073204265405,1.6,-1.0179381384973904e-15,2.43653679229558,0.8,-3.8568326838957304e-16,-0.003196257575013942
0.168,task_space_pd_gc,1.706254612083552e-17,22.747212681203838,1.7480154862130195e-14,-7.772269427313155e-18,-3.886134713656577e-15,1.0904914343279048e-13,-0.7,-3.6429032369640833e-16,-6.188191757477091,-1.3063587172839248e-17,-6.5317935864196236e-15,-0.5866908426274935,-2.2,1.0933796803908752e-17,21.73617614806056,-7.750161175906107e-18,-3.875080587953053e-15,0.6322073204265368,1.6,-1.0406650466146517e-15,2.4365367922955823,0.8,-5.994774381432535e-16,-0.0031962575750074653
0.17,task_space_pd_gc,1.5521403216049088e-17,22.747212681203838,1.6173799572493398e-14,-7.065268435781252e-18,-3.532634217890626e-15,9.82857692092824e-14,-0.7,-3.6602904580791306e-16,-6.188191757477091,-1.1915345335725676e-17,-5.957672667862838e-15,-0.5866908426275033,-2.2,7.683286159294498e-18,21.73617614806056,-7.001463079666458e-18,-3.5007315398332286e-15,0.6322073204265334,1.6,-1.0570310202881312e-15,2.4365367922955823,0.8,1.0614396521970127e-16,-0.003196257575001265
0.17200000000000001,task_space_pd_gc,1.4068686658107488e-17,22.747212681203834,8.682031841540913e-15,-6.399799610524986e-18,-3.1998998052624933e-15,9.338341855713525e-14,-0.7,-3.6718824434848617e-16,-6.188191757477089,-1.082442926513845e-17,-5.412214632569225e-15,-0.5866908426275081,-2.2,4.6826938677916905e-18,21.736176148060558,-6.308901672490238e-18,-3.154450836245119e-15,0.6322073204265303,1.6,-1.0705625417906104e-15,2.436536792295581,0.8,-8.297418202299532e-17,-0.0031962575750007494
0.17400000000000002,task_space_pd_gc,1.2718555959890658e-17,22.747212681203834,1.483104003343676e-14,-5.784690570569371e-18,-2.8923452852846855e-15,8.363753096781637e-14,-0.7,-3.6789520269621076e-16,-6.188191757477089,-9.802815025086584e-18,-4.901407512543292e-15,-0.5866908426275174,-2.2,2.452191323856077e-18,21.736176148060558,-5.674842578571912e-18,-2.837421289285956e-15,0.6322073204265274,1.6,-1.080709317233399e-15,2.436536792295581,0.8,-2.493896832648141e-16,-0.0031962575749951163
0.176,task_space_pd_gc,1.1472374393645178e-17,22.747212681203834,1.3617477733574118e-14,-5.218292081873172e-18,-2.609146040936586e-15,7.462312478402801e-14,-0.7,-3.6827690484625733e-16,-6.188191757477089,-8.855666831573415e-18,-4.4278334157867075e-15,-0.5866908426275258,-2.2,8.532540848764499e-19,21.736176148060558,-5.095288700789757e-18,-2.5476443503948786e-15,0.6322073204265249,1.6,-1.087766499404171e-15,2.436536792295581,0.8,-3.9499280132024044e-16,-0.0031962575749899186
0.178,task_space_pd_gc,1.0329917789994304e-17,22.747212681203834,1.2510454117545854e-14,-4.6994655924490826e-18,-2.3497327962245412e-15,6.634186963848069e-14,-0.7,-3.684331838859537e-16,-6.188191757477089,-7.983530718380089e-18,-3.991765359190045e-15,-0.5866908426275336,-2.2,-1.9621049845946331e-19,21.736176148060558,-4.570061483405833e-18,-2.2850307417029162e-15,0.6322073204265227,1.6,-1.0920198319214602e-15,2.436536792295581,0.8,-5.216319727834373e-16,-0.003196257574985164
0.18,task_space_pd_gc,9.287581809282046e-18,22.747212681203834,1.1541980225963852e-14,-4.2263406258880386e-18,-2.1131703129440194e-15,5.877976456416711e-14,-0.7,-3.684393741120557e-16,-6.188191757477089,-7.18541683748165e-18,-3.5927084187408244e-15,-0.5866908426275409,-2.2,-7.883318589511485e-19,21.736176148060558,-4.094753429659746e-18,-2.047376714829873e-15,0.6322073204265208,1.6,-1.0937339006101295e-15,2.436536792295581,0.8,-6.31084067368277e-16,-0.003196257574980831
0.182,task_space_pd_gc,8.336662635442899e-18,22.747212681203834,1.0442739397735038e-14,-3.7900933104967916e-18,-1.895046655248396e-15,5.190966712097832e-14,-0.7,-3.6820475542771267e-16,-6.188191757477089,-6.455179464205634e-18,-3.227589732102817e-15,-0.5866908426275474,-2.2,-3.953738456856324e-19,21.736176148060558,-3.6695769074670015e-18,-1.8347884537335006e-15,0.632207320426519,1.6,-1.0907754577447143e-15,2.436536792295581,0.8,1.6900853008020066e-16,-0.0031962575749769086
0.184,task_space_pd_gc,7.47185319620441e-18,22.747212681203834,3.1090582294383835e-15,-3.3937254042627125e-18,-1.6968627021313563e-15,5.098969560622668e-14,-0.7,-3.6799689152372683e-16,-6.188191757477089,-5.7902465440407106e-18,-2.8951232720203554e-15,-0.586690842627549,-2.2,-2.348262903240593e-19,21.736176148060558,-3.2839401677430975e-18,-1.6419700838715488e-15,0.6322073204265172,1.6,-1.0882212284902813e-15,2.436536792295581,0.8,6.457125841526942e-17,-0.003196257574978711
0.186,task_space_pd_gc,6.693195096070834e-18,22.747212681203834,8.773872856417229e-15,-3.0398078375773693e-18,-1.5199039187886845e-15,4.518426872945937e-14,-0.7,-3.677941080537219e-16,-6.188191757477089,-5.1894105752308055e-18,-2.594705287615403e-15,-0.5866908426275544,-2.2,1.9563857976524824e-19,21.736176148060558,-2.937421792380612e-18,-1.468710896190306e-15,0.6322073204265156,1.6,-1.0838037878379623e-15,2.436536792295581,0.8,-2.6623166233353653e-17,-0.0031962575749753543
0.188,task_space_pd_gc,5.993455452855068e-18,22.747212681203834,7.840554285272105e-15,-2.722538598671251e-18,-1.3612692993356253e-15,3.997871849144948e-14,-0.7,-3.67604997823996e-16,-6.188191757477089,-4.648500722961703e-18,-2.3242503614808515e-15,-0.5866908426275593,-2.2,8.603529976599996e-19,21.736176148060558,-2.626924603548389e-18,-1.3134623017741945e-15,0.6322073204265144,1.6,-1.077718534934122e-15,2.436536792295581,0.8,-1.0598938003837223e-16,-0.0031962575749723506
0.19,task_space_pd_gc,5.365622567477492e-18,22.747212681203834,7.187667229797245e-15,-2.438060786322552e-18,-1.219030393161276e-15,3.531606776236515e-14,-0.7,-3.674376813470814e-16,-6.188191757477089,-4.162687874546528e-18,-2.081343937273264e-15,-0.586690842627564,-2.2,1.7272694038175692e-18,21.736176148060558,-2.3489986798470783e-18,-1.174499339923539e-15,0.6322073204265134,1.6,-1.0701409531684262e-15,2.436536792295581,0.8,-1.7480286628658606e-16,-0.003196257574969671
0.192,task_space_pd_gc,4.802818725942401e-18,22.747212681203834,6.281092863000977e-15,-2.1833436370888356e-18,-1.0916718185444178e-15,3.1146008250263343e-14,-0.7,-3.672964075128793e-16,-6.188191757477089,-3.726725460642196e-18,-1.863362730321098e-15,-0.5866908426275679,-2.2,2.771299757075188e-18,21.736176148060558,-2.100379874605518e-18,-1.050189937302759e-15,0.6322073204265123,1.6,-1.0612296421900449e-15,2.436536792295581,0.8,-2.3421416303683863e-16,-0.003196257574967277
0.194,task_space_pd_gc,4.2996958852167824e-18,22.747212681203834,5.729810652332123e-15,-1.955222257203729e-18,-9.776111286018645e-16,2.742107375009322e-14,-0.7,-3.671869533178586e-16,-6.188191757477089,-3.336391983828048e-18,-1.668195991914024e-15,-0.5866908426275715,-2.2,3.976964961666158e-18,21.736176148060558,-1.8796220791779468e-18,-9.398110395889733e-16,0.6322073204265113,1.6,-1.0511280539745525e-15,2.436536792295581,0.8,-2.852637083490221e-16,-0.0031962575749651476
0.196,task_space_pd_gc,3.849587425363478e-18,22.747212681203834,5.0096726991227176e-15,-1.751268210172571e-18,-8.7563410508628545e-16,2.4099855558382608e-14,-0.7,-3.6710361580924116e-16,-6.188191757477089,-2.9872306464075303e-18,-1.4936153232037652e-15,-0.5866908426275746,-2.2,5.435769817874575e-18,21.736176148060558,-1.6819144052891707e-18,-8.409572026445854e-16,0.6322073204265105,1.6,-1.0415875318536522e-15,2.4365367922955805,0.8,-3.288941323479731e-16,-0.00319625757496325
0.198,task_space_pd_gc,3.4469703994770195e-18,22.747212681203834,4.530068219863091e-15,-1.5690195563823052e-18,-7.845097781911525e-16,2.1141422610352747e-14,-0.7,-3.670518420980279e-16,-6.188191757477089,-2.6753096875503763e-18,-1.3376548437751882e-15,-0.5866908426275775,-2.2,7.002571493099981e-18,21.736176148060558,-1.5041611091434802e-18,-7.5208055457174e-16,0.6322073204265097,1.6,-1.0310966466207738e-15,2.4365367922955805,0.8,-3.659452056807406e-16,-0.0031962575749615667
0.2,task_space_pd_gc,3.0878888330538265e-18,22.747212681203834,3.964850388231979e-15,-1.406381930769827e-18,-7.031909653849135e-16,1.8508966245995108e-14,-0.7,-3.6703089179762104e-16,-6.188191757477089,-2.3962725354008277e-18,-1.1981362677004137e-15,-0.58669084262758,-2.2,8.685968172039193e-18,21.736176148060558,-1.3472287282367255e-18,-6.736143641183628e-16,0.632207320426509,1.6,-1.01976166308009e-15,2.4365367922955805,0.8,-3.971675609897732e-16,-0.0031962575749600766
0.202,task_space_pd_gc,2.7670529809590378e-18,22.747212681203834,3.585707071227825e-15,-1.261181805804571e-18,-6.305909029022855e-16,1.6168907143760112e-14,-0.7,-3.670384255451179e-16,-6.188191757477089,-2.1471670237629864e-18,-1.0735835118814932e-15,-0.5866908426275823,-2.2,1.04549558226896e-17,21.736176148060558,-1.2065141624558815e-18,-6.032570812279407e-16,0.6322073204265085,1.6,-1.007671451562931e-15,2.4365367922955805,0.8,-4.2323641256850405e-16,-0.0031962575749587543
0.20400000000000001,task_space_pd_gc,2.48119956054836e-18,22.747212681203834,3.1132323845783182e-15,-1.131503501754011e-18,-5.657517508770055e-16,1.4090140207057048e-14,-0.7,-3.670742042538267e-16,-6.188191757477089,-1.9249571481559076e-18,-9.624785740779538e-16,-0.5866908426275842,-2.2,1.2309418139992043e-17,21.736176148060558,-1.081938566900756e-18,-5.40969283450378e-16,0.6322073204265078,1.6,-9.949094080526871e-16,2.4365367922955805,0.8,-4.4475460293436e-16,-0.003196257574957586
0.20600000000000002,task_space_pd_gc,2.2257097873255584e-18,22.747212681203834,2.9024263829580114e-15,-1.0158998020852553e-18,-5.079499010426276e-16,1.2246149444254157e-14,-0.7,-3.6712821434218564e-16,-6.188191757477089,-1.726598793727785e-18,-8.632993968638925e-16,-0.5866908426275861,-2.2,1.435235759066791e-17,21.736176148060558,-9.698392933974572e-19,-4.849196466987286e-16,0.6322073204265074,1.6,-9.83172224716215e-16,2.43653679229558,0.8,-4.622643206051921e-16,-0.003196257574956553
0.20800000000000002,task_space_pd_gc,1.9980507204469982e-18,22.747212681203834,3.5245333193408096e-15,-9.127297957271566e-19,-4.563648978635783e-16,1.0610297534600465e-14,-0.7,-3.672049741893729e-16,-6.188191757477087,-1.549567900425671e-18,-7.747839502128355e-16,-0.5866908426275876,-2.2,1.6463601344652248e-17,21.736176148060558,-8.706149111065171e-19,-4.353074555532585e-16,0.632207320426507,1.6,-9.709013427901904e-16,2.4365367922955783,0.8,-4.762420306934712e-16,-0.003196257574955646
0.21,task_space_pd_gc,1.794880894285134e-18,22.747212681203834,2.994885643817036e-15,-8.205919906321683e-19,-4.102959953160841e-16,9.160803232172355e-15,-0.7,-3.665650247695633e-16,-6.188191757477088,-1.3918013817319825e-18,-6.959006908659912e-16,-0.5866908426275891,-2.2,1.8968574963205673e-17,21.736176148060558,-7.817385262279723e-19,-3.9086926311398613e-16,0.6322073204265065,1.6,-9.581643995825876e-16,2.43653679229558,0.8,-4.87112580570615e-16,-0.003196257574954844
0.212,task_space_pd_gc,1.6136668777264066e-18,22.747212681203834,1.8686694471550127e-15,-7.383970327898708e-19,-3.6919851639493543e-16,7.877268115788325e-15,-0.7,-3.6594312046533196e-16,-6.188191757477088,-1.2510463438256742e-18,-6.255231719128371e-16,-0.5866908426275902,-2.2,2.152403019985459e-17,21.736176148060558,-7.025479768946865e-19,-3.5127398844734327e-16,0.6322073204265062,1.6,-9.45002392634571e-16,2.43653679229558,0.8,-4.952539904811645e-16,-0.003196257574954136
0.214,task_space_pd_gc,1.4519657449157797e-18,22.747212681203834,3.0539723765955305e-15,-6.650858845678196e-19,-3.325429422839098e-16,6.741540605356932e-15,-0.7,-3.6533652432420744e-16,-6.188191757477086,-1.1253101944126805e-18,-5.626550972063403e-16,-0.5866908426275913,-2.2,2.412606432083914e-17,21.736176148060558,-6.320935507568252e-19,-3.160467753784126e-16,0.6322073204265058,1.6,-9.314614555000624e-16,2.4365367922955783,0.8,-5.010030679033129e-16,-0.0031962575749535176
0.216,task_space_pd_gc,1.307368148071501e-18,22.747212681203834,2.6992799539181108e-15,-5.996201641737964e-19,-2.9981008208689817e-16,5.7368359974110424e-15,-0.7,-3.647373348107135e-16,-6.188191757477088,-1.013089581265959e-18,-5.065447906329795e-16,-0.5866908426275923,-2.2,2.688787509881525e-17,21.736176148060558,-5.686093858163612e-19,-2.843046929081806e-16,0.6322073204265056,1.6,-9.192068721991217e-16,2.4365367922955796,0.8,-5.046636565713653e-16,-0.003196257574952971
0.218,task_space_pd_gc,1.1785498650981253e-18,22.747212681203834,1.4148882621157773e-15,-5.410891723924453e-19,-2.7054458619622263e-16,4.848299793449635e-15,-0.7,-3.6415040795313697e-16,-6.188191757477088,-9.129011674656673e-19,-4.564505837328336e-16,-0.5866908426275932,-2.2,2.9690241559128946e-17,21.736176148060558,-5.126536359788057e-19,-2.5632681798940284e-16,0.6322073204265052,1.6,-9.066507725766882e-16,2.4365367922955796,0.8,-5.064943629131149e-16,-0.0031962575749524954
0.22,task_space_pd_gc,1.063623135748461e-18,22.747212681203834,2.7555652741722352e-15,-4.887692210983485e-19,-2.4438461054917424e-16,4.063749171912593e-15,-0.7,-3.6357378286568053e-16,-6.188191757477086,-8.234169489783143e-19,-4.1170847448915716e-16,-0.5866908426275939,-2.2,3.252656938180858e-17,21.736176148060558,-4.630154981656089e-19,-2.3150774908280444e-16,0.632207320426505,1.6,-8.938249161507383e-16,2.436536792295578,0.8,-5.067306639949638e-16,-0.0031962575749520787
0.222,task_space_pd_gc,9.606655468322712e-19,22.747212681203834,1.0506198025006251e-15,-4.420153517451427e-19,-2.210076758725714e-16,3.371422532476154e-15,-0.7,-3.6300509747088216e-16,-6.188191757477086,-7.434447881861636e-19,-3.717223940930818e-16,-0.5866908426275945,-2.2,3.538770698730273e-17,21.736176148060558,-4.1807961994217656e-19,-2.0903980997108827e-16,0.6322073204265047,1.6,-8.807570809385558e-16,2.436536792295578,0.8,-5.055822166035463e-16,-0.003196257574951716
0.224,task_space_pd_gc,8.683323569196183e-19,22.747212681203834,2.368992157991165e-15,-4.00119489792544e-19,-2.00059744896272e-16,2.7604045833626865e-15,-0.7,-3.6243786043936364e-16,-6.188191757477088,-6.721500577116899e-19,-3.3607502885584496e-16,-0.586690842627595,-2.2,3.839185616908612e-17,21.736176148060558,-3.769877662204782e-19,-1.884938831102391e-16,0.6322073204265046,1.6,-8.690976951924402e-16,2.436536792295579,0.8,-5.032373742166619e-16,-0.0031962575749514017
0.226,task_space_pd_gc,7.858233314179497e-19,22.747212681203834,8.516475053745491e-16,-3.626940703796261e-19,-1.8134703518981304e-16,2.221804767621981e-15,-0.7,-3.618761566165421e-16,-6.188191757477088,-6.081338546478818e-19,-3.040669273239409e-16,-0.5866908426275955,-2.2,4.142504060941948e-17,21.736176148060558,-3.407998449873073e-19,-1.7039992249365365e-16,0.6322073204265044,1.6,-8.572459787570443e-16,2.436536792295579,0.8,-4.998544159932384e-16,-0.003196257574951123
0.228,task_space_pd_gc,7.118625210283397e-19,22.747212681203834,1.1315017932942942e-15,-3.2918794737067e-19,-1.64593973685335e-16,1.7472449743348647e-15,-0.7,-3.605812470126476e-16,-6.188191757477087,-5.505835760906538e-19,-2.752917880453269e-16,-0.586690842627596,-2.2,4.482356874781122e-17,21.736176148060558,-3.086118434051675e-19,-1.5430592170258373e-16,0.6322073204265043,1.6,-8.452328973501502e-16,2.436536792295579,0.8,-4.955734621303864e-16,-0.0031962575749508847
0.23,task_space_pd_gc,6.456893939969598e-19,22.74721268120383,4.412586759366357e-15,-2.9899480346743867e-19,-1.4949740173371934e-16,1.3289245323035786e-15,-0.7,-3.60656439347392e-16,-6.188191757477085,-4.993766747944338e-19,-2.496883373972169e-16,-0.5866908426275965,-2.2,4.3502899606627625e-17,21.736176148060554,-2.7953503839569595e-19,-1.3976751919784798e-16,0.6322073204265044,1.6,-8.320730699884473e-16,2.4365367922955774,0.8,-4.905338056401912e-16,-0.003196257574950678
0.232,task_space_pd_gc,5.864771674879491e-19,22.74721268120383,5.712832095555407e-16,-2.719281075598529e-19,-1.3596405377992645e-16,9.619571293001548e-16,-0.7,-3.607349154949232e-16,-6.188191757477085,-4.534395280920739e-19,-2.267197640460369e-16,-0.5866908426275969,-2.2,4.2201876675560594e-17,21.736176148060554,-2.537777899408108e-19,-1.268888949704054e-16,0.6322073204265042,1.6,-8.187744015790658e-16,2.4365367922955774,0.8,-4.848389058526732e-16,-0.0031962575749505005
0.234,task_space_pd_gc,5.33316140758673e-19,22.74721268120383,6.952946105386551e-16,-2.4767492760481013e-19,-1.2383746380240506e-16,6.400939854815911e-16,-0.7,-3.608096449969248e-16,-6.188191757477085,-4.1206969672712158e-19,-2.060348483635608e-16,-0.5866908426275972,-2.2,4.10422943964982e-17,21.736176148060554,-2.308285105200285e-19,-1.1541425526001426e-16,0.632207320426504,1.6,-8.069765402476009e-16,2.436536792295577,0.8,-4.785916359392178e-16,-0.003196257574950351
0.23600000000000002,task_space_pd_gc,4.852696830833578e-19,22.74721268120383,3.978979583408617e-16,-2.2585943434360406e-19,-1.1292971717180203e-16,3.5766539560515235e-16,-0.7,-3.6088539823674385e-16,-6.188191757477085,-3.749488724451423e-19,-1.8747443622257117e-16,-0.5866908426275974,-2.2,3.9892122069482704e-17,21.736176148060554,-2.0949349462435832e-19,-1.0474674731217915e-16,0.6322073204265038,1.6,-7.950657233834583e-16,2.436536792295577,0.8,-4.718756323657451e-16,-0.0031962575749502208
0.23800000000000002,task_space_pd_gc,4.418843657084207e-19,22.74721268120383,2.528974278428697e-15,-2.0627646602011385e-19,-1.0313823301005692e-16,1.1007656210394689e-16,-0.7,-3.6096142064320454e-16,-6.188191757477087,-3.4141735153852264e-19,-1.7070867576926132e-16,-0.5866908426275975,-2.2,3.875495429863106e-17,21.736176148060554,-1.901210253817471e-19,-9.506051269087355e-17,0.6322073204265038,1.6,-7.83054053612669e-16,2.4365367922955787,0.8,-4.647709033313303e-16,-0.003196257574950115
0.24,task_space_pd_gc,4.03098779021886e-19,22.74721268120383,3.9259055885161045e-16,-1.885753991748447e-19,-9.428769958742235e-17,-1.0687206511055345e-16,-0.7,-3.610383970726531e-16,-6.188191757477087,-3.1120200309097255e-19,-1.5560100154548626e-16,-0.5866908426275977,-2.2,3.763497259913416e-17,21.736176148060554,-1.7343949304339405e-19,-8.671974652169702e-17,0.6322073204265036,1.6,-7.709523919585396e-16,2.4365367922955787,0.8,-4.573414883895119e-16,-0.003196257574950023
0.242,task_space_pd_gc,3.680946717618315e-19,22.74721268120383,3.0245499157509407e-16,-1.7250077030692653e-19,-8.625038515346326e-17,-2.959175841986137e-16,-0.7,-3.6111632004915236e-16,-6.188191757477087,-2.8429792100660785e-19,-1.4214896050330392e-16,-0.586690842627598,-2.2,3.652024786736253e-17,21.736176148060554,-1.5783492558457395e-19,-7.891746279228698e-17,0.6322073204265036,1.6,-7.58767953746045e-16,2.4365367922955787,0.8,-4.496477782105934e-16,-0.0031962575749499428
0.244,task_space_pd_gc,3.364778467630958e-19,22.74721268120383,2.0732852077890095e-16,-1.5804901089883024e-19,-7.902450544941512e-17,-4.598283434241507e-16,-0.7,-3.611942432702016e-16,-6.188191757477087,-2.6002277302929477e-19,-1.300113865146474e-16,-0.5866908426275981,-2.2,3.5414777030222184e-17,21.736176148060554,-1.4361757908552373e-19,-7.180878954276186e-17,0.6322073204265036,1.6,-7.46509581079556e-16,2.4365367922955787,0.8,-4.417471197486926e-16,-0.003196257574949881
0.246,task_space_pd_gc,3.0813470336437615e-19,22.74721268120383,2.90551959308419e-16,-1.4505250322281767e-19,-7.252625161140884e-17,-6.018560502388201e-16,-0.7,-3.612717319079132e-16,-6.188191757477087,-2.3789733471493362e-19,-1.1894866735746682e-16,-0.5866908426275982,-2.2,3.432478588457982e-17,21.736176148060554,-1.3157364805225013e-19,-6.578682402612507e-17,0.6322073204265034,1.6,-7.341856325670428e-16,2.4365367922955787,0.8,-4.336830881464167e-16,-0.00319625757494983
0.248,task_space_pd_gc,2.823976240249368e-19,22.74721268120383,4.755471810629795e-16,-1.3320719679559486e-19,-6.660359839779742e-17,-7.246587488612418e-16,-0.7,-3.613432718531268e-16,-6.188191757477087,-2.181104668462751e-19,-1.0905523342313754e-16,-0.5866908426275983,-2.2,3.3362059121449844e-17,21.736176148060554,-1.201336132349693e-19,-6.006680661748466e-17,0.6322073204265034,1.6,-7.23426172868194e-16,2.4365367922955783,0.8,-4.255027643884222e-16,-0.003196257574949791
0.25,task_space_pd_gc,2.590039178831443e-19,22.74721268120383,2.517025471242869e-15,-1.2254442947828333e-19,-6.127221473914166e-17,-8.302337674853198e-16,-0.7,-3.6141369811135267e-16,-6.188191757477085,-2.0011122945522135e-19,-1.0005561472761067e-16,-0.5866908426275984,-2.2,3.2406668711390135e-17,21.736176148060554,-1.0964209104436275e-19,-5.4821045522181366e-17,0.6322073204265034,1.6,-7.126122871519068e-16,2.4365367922955765,0.8,-4.1723760349478815e-16,-0.0031962575749497585
0.252,task_space_pd_gc,2.3810250345437476e-19,22.74721268120383,2.516334641184527e-15,-1.1284195971600458e-19,-5.642097985800228e-17,-9.208884261474737e-16,-0.7,-3.614837151974777e-16,-6.188191757477087,-1.837801337336186e-19,-9.18900668668093e-17,-0.5866908426275985,-2.2,3.14634754525599e-17,21.736176148060554,-1.009175739083406e-19,-5.0458786954170297e-17,0.6322073204265034,1.6,-7.017499763619418e-16,2.4365367922955783,0.8,-4.08917511932579e-16,-0.003196257574949736
0.254,task_space_pd_gc,2.1877824635570357e-19,22.74721268120383,8.916302391953457e-16,-1.0412249124939102e-19,-5.2061245624695505e-17,-9.977856389303594e-16,-0.7,-3.6081434339394156e-16,-6.188191757477086,-1.6873754764765411e-19,-8.436877382382705e-17,-0.5866908426275985,-2.2,3.0865523103371716e-17,21.736176148060554,-9.246657725012359e-20,-4.6233288625061795e-17,0.6322073204265034,1.6,-6.90853930774689e-16,2.4365367922955783,0.8,-4.005697317453095e-16,-0.0031962575749497207
0.256,task_space_pd_gc,2.0155786185200193e-19,22.74721268120383,2.5711407873489766e-16,-9.607113310646795e-20,-4.8035566553233975e-17,-1.063818523376076e-15,-0.7,-3.601448094506022e-16,-6.188191757477086,-1.5521712794842793e-19,-7.760856397421396e-17,-0.5866908426275986,-2.2,3.0276855760044416e-17,21.736176148060554,-8.546082289231344e-20,-4.273041144615672e-17,0.6322073204265032,1.6,-6.799179439639686e-16,2.4365367922955783,0.8,-3.922172777262958e-16,-0.00319625757494971
0.258,task_space_pd_gc,1.8574758637233147e-19,22.74721268120383,2.5151999477565797e-15,-8.874383527672084e-20,-4.4371917638360416e-17,-1.1186671141220444e-15,-0.7,-3.5947425622225707e-16,-6.188191757477084,-1.430446378522889e-19,-7.152231892614445e-17,-0.5866908426275987,-2.2,2.968884159579818e-17,21.736176148060554,-7.851706263757258e-20,-3.925853131878629e-17,0.6322073204265032,1.6,-6.689444681945107e-16,2.4365367922955765,0.8,-3.8388570806110596e-16,-0.003196257574949707
0.26,task_space_pd_gc,1.7121680909750088e-19,22.74721268120383,4.73209617564346e-16,-8.215519382994035e-20,-4.107759691497017e-17,-1.1640380282644763e-15,-0.7,-3.5879635704096253e-16,-6.188191757477084,-1.31800403840354e-19,-6.5900201920177e-17,-0.5866908426275989,-2.2,2.922972331046625e-17,21.736176148060554,-7.207200144171512e-20,-3.603600072085756e-17,0.6322073204265031,1.6,-6.59563096770583e-16,2.436536792295576,0.8,-3.7559598225464805e-16,-0.0031962575749497056
0.262,task_space_pd_gc,1.5804907182345929e-19,22.74721268120383,2.5148840637643658e-15,-7.604518540433626e-20,-3.802259270216813e-17,-1.201586035590889e-15,-0.7,-3.5811226147736436e-16,-6.188191757477086,-1.2174029314658444e-19,-6.087014657329222e-17,-0.586690842627599,-2.2,2.889775512173506e-17,21.736176148060554,-6.615088741400833e-20,-3.307544370700416e-17,0.6322073204265031,1.6,-6.517765854463201e-16,2.436536792295578,0.8,-3.6736318939556283e-16,-0.00319625757494971
0.264,task_space_pd_gc,1.4596999421305467e-19,22.74721268120383,3.1078750769865616e-17,-7.054516849528185e-20,-3.527258424764093e-17,-1.2314299145439137e-15,-0.7,-3.574266330051227e-16,-6.188191757477086,-1.124290388614887e-19,-5.621451943074436e-17,-0.586690842627599,-2.2,2.857073770476124e-17,21.736176148060554,-6.074808337069878e-20,-3.037404168534939e-17,0.6322073204265031,1.6,-6.439625932221353e-16,2.436536792295578,0.8,-3.591980832414532e-16,-0.0031962575749497186
0.266,task_space_pd_gc,1.3504209278192158e-19,22.74721268120383,1.1410199687228125e-16,-6.54214296551598e-20,-3.27107148275799e-17,-1.255013900319941e-15,-0.7,-3.5674051880559903e-16,-6.188191757477086,-1.0412935602073381e-19,-5.2064678010366903e-17,-0.5866908426275991,-2.2,2.824642278615206e-17,21.736176148060554,-5.57985714826407e-20,-2.789928574132035e-17,0.6322073204265031,1.6,-6.361232284411177e-16,2.436536792295578,0.8,-3.5111259303580776e-16,-0.0031962575749497303
0.268,task_space_pd_gc,1.2514402905602213e-19,22.74721268120383,1.1333096195037066e-16,-6.071615305530383e-20,-3.035807652765192e-17,-1.2723498703646187e-15,-0.7,-3.5605389457551225e-16,-6.188191757477086,-9.667412027034707e-20,-4.8337060135173534e-17,-0.586690842627599,-2.2,2.792498007723645e-17,21.736176148060554,-5.1270763954654515e-20,-2.5635381977327257e-17,0.6322073204265031,1.6,-6.282607422691113e-16,2.436536792295578,0.8,-3.4311629284375986e-16,-0.003196257574949745
0.27,task_space_pd_gc,1.1633337067543367e-19,22.74721268120383,1.1272719115062467e-16,-5.647970104736591e-20,-2.823985052368296e-17,-1.2840851791396214e-15,-0.7,-3.5536632023559983e-16,-6.188191757477086,-8.96810602274389e-20,-4.484053011371945e-17,-0.586690842627599,-2.2,2.7613117660741352e-17,21.736176148060554,-4.7966696142120325e-20,-2.398334807106016e-17,0.632207320426503,1.6,-6.203782883578178e-16,2.436536792295578,0.8,-3.352189242600563e-16,-0.0031962575749497606
0.272,task_space_pd_gc,1.0802019557185433e-19,22.74721268120383,2.512247885646943e-15,-5.2629096682359756e-20,-2.6314548341179877e-17,-1.2911999004713838e-15,-0.7,-3.5467691200889937e-16,-6.188191757477084,-8.322484884739511e-20,-4.1612424423697555e-17,-0.586690842627599,-2.2,2.730083363256263e-17,21.736176148060554,-4.4409068534576635e-20,-2.2204534267288318e-17,0.632207320426503,1.6,-6.124762366303177e-16,2.436536792295576,0.8,-3.2742782900844974e-16,-0.003196257574949782
0.274,task_space_pd_gc,1.0031508352325046e-19,22.74721268120383,2.5122264219396923e-15,-4.9083236012477986e-20,-2.4541618006238992e-17,-1.294873203364738e-15,-0.7,-3.539860706111069e-16,-6.188191757477086,-7.727975352483901e-20,-3.8639876762419505e-17,-0.586690842627599,-2.2,2.699055745352613e-17,21.736176148060554,-4.100965276566275e-20,-2.0504826382831376e-17,0.632207320426503,1.6,-6.04556636418236e-16,2.436536792295578,0.8,-3.1974897142918527e-16,-0.0031962575749498014
0.276,task_space_pd_gc,9.321054375229528e-20,22.74721268120383,2.5147215502974093e-15,-4.581049255341979e-20,-2.2905246276709895e-17,-1.2953348685041383e-15,-0.7,-3.532940165616944e-16,-6.188191757477084,-7.180996136841968e-20,-3.590498068420984e-17,-0.586690842627599,-2.2,2.6682703208065392e-17,21.736176148060554,-3.785411056777978e-20,-1.892705528388989e-17,0.6322073204265029,1.6,-5.966210585914494e-16,2.436536792295576,0.8,-3.1218872568796597e-16,-0.003196257574949826
0.278,task_space_pd_gc,8.666944944907894e-20,22.74721268120383,2.512250360630928e-15,-4.278849026581259e-20,-2.1394245132906294e-17,-1.2928717716336082e-15,-0.7,-3.5260088813004707e-16,-6.188191757477086,-6.677933635338073e-20,-3.3389668176690367e-17,-0.586690842627599,-2.2,2.6377199939977446e-17,21.736176148060554,-3.4946513485338604e-20,-1.74732567426693e-17,0.6322073204265029,1.6,-5.886708553804248e-16,2.436536792295578,0.8,-3.0475014979608537e-16,-0.0031962575749498487
0.28,task_space_pd_gc,8.079217754214671e-20,22.74721268120383,2.8480016303458933e-15,-3.989634765602898e-20,-1.9948173828014487e-17,-1.2877692559788973e-15,-0.7,-3.519021475505088e-16,-6.188191757477084,-6.240906003215877e-20,-3.120453001607938e-17,-0.5866908426275991,-2.2,2.619630179562776e-17,21.736176148060554,-3.226091476715175e-20,-1.6130457383575874e-17,0.6322073204265027,1.6,-5.823323558297073e-16,2.4365367922955756,0.8,-2.974401167093445e-16,-0.0031962575749498734
0.28200000000000003,task_space_pd_gc,7.535270501504353e-20,22.74721268120383,2.512300368068293e-15,-3.731951637927781e-20,-1.8659758189638903e-17,-1.2796418141132417e-15,-0.7,-3.512023418792228e-16,-6.188191757477086,-5.828627742604856e-20,-2.9143138713024277e-17,-0.5866908426275991,-2.2,2.601804589932522e-17,21.736176148060554,-2.979922338106621e-20,-1.4899611690533103e-17,0.6322073204265027,1.6,-5.759816313950781e-16,2.4365367922955774,0.8,-2.9025962725783427e-16,-0.0031962575749499
0.28400000000000003,task_space_pd_gc,7.017659032848509e-20,22.74721268120383,1.1438193253539963e-16,-3.5051921021920757e-20,-1.7525960510960377e-17,-1.2695140545969213e-15,-0.7,-3.505005313133437e-16,-6.188191757477086,-5.4192844214787896e-20,-2.7096422107393948e-17,-0.586690842627599,-2.2,2.5843450375065673e-17,21.736176148060554,-2.755453317907575e-20,-1.3777266589537874e-17,0.6322073204265027,1.6,-5.696200051592042e-16,2.4365367922955774,0.8,-2.832108090427773e-16,-0.0031962575749499254
0.28600000000000003,task_space_pd_gc,6.541913112593349e-20,22.74721268120383,2.512320955258322e-15,-3.285855699068845e-20,-1.6429278495344224e-17,-1.2584300783497714e-15,-0.7,-3.4979792518116867e-16,-6.188191757477084,-5.0507811130990856e-20,-2.5253905565495427e-17,-0.586690842627599,-2.2,2.5670040150058125e-17,21.736176148060554,-2.5474280451426226e-20,-1.2737140225713112e-17,0.6322073204265027,1.6,-5.632479797799294e-16,2.4365367922955756,0.8,-2.762925974145865e-16,-0.0031962575749499528
0.28800000000000003,task_space_pd_gc,6.104380361258068e-20,22.74721268120383,2.5123330617192973e-15,-3.080745389224328e-20,-1.540372694612164e-17,-1.2457889050652647e-15,-0.7,-3.4909466015052843e-16,-6.188191757477086,-4.7144393964832443e-20,-2.357219698241622e-17,-0.586690842627599,-2.2,2.549796228842555e-17,21.736176148060554,-2.3551069229597464e-20,-1.1775534614798732e-17,0.6322073204265027,1.6,-5.568663875248436e-16,2.4365367922955774,0.8,-2.6950665688324865e-16,-0.0031962575749499805
0.29,task_space_pd_gc,5.701615287355148e-20,22.74721268120383,2.9979691917445236e-17,-2.8904019545369903e-20,-1.4452009772684952e-17,-1.231684309687893e-15,-0.7,-3.483907706971166e-16,-6.188191757477086,-4.40593511698968e-20,-2.2029675584948398e-17,-0.586690842627599,-2.2,2.532720863381099e-17,21.736176148060554,-2.1775511867893715e-20,-1.0887755933946857e-17,0.6322073204265027,1.6,-5.504760080744024e-16,2.4365367922955774,0.8,-2.6285448743502883e-16,-0.003196257574950007
0.292,task_space_pd_gc,5.330458947769836e-20,22.74721268120383,2.512353161928304e-15,-2.7139524279102175e-20,-1.3569762139551087e-17,-1.216304637978248e-15,-0.7,-3.476862718420709e-16,-6.188191757477084,-4.122310457332275e-20,-2.0611552286661376e-17,-0.586690842627599,-2.2,2.515772013324565e-17,21.736176148060554,-2.0136562035930335e-20,-1.0068281017965168e-17,0.6322073204265027,1.6,-5.440775469199916e-16,2.4365367922955756,0.8,-2.5633416396432937e-16,-0.003196257574950035
0.294,task_space_pd_gc,4.9880696594184164e-20,22.74721268120383,2.5123505689772057e-15,-2.5502847218751018e-20,-1.2751423609375509e-17,-1.1998227163837265e-15,-0.7,-3.4698117902964557e-16,-6.188191757477086,-3.8611787171459526e-20,-1.9305893585729762e-17,-0.586690842627599,-2.2,2.498941883706041e-17,21.736176148060554,-1.8623065480312644e-20,-9.311532740156322e-18,0.6322073204265027,1.6,-5.376716615770571e-16,2.4365367922955774,0.8,-2.4994889346014554e-16,-0.0031962575749500625
0.296,task_space_pd_gc,4.671909262242904e-20,22.74721268120383,3.202469855693484e-17,-2.3983285195226526e-20,-1.1991642597613263e-17,-1.1824271631550187e-15,-0.7,-3.462755105843486e-16,-6.188191757477086,-3.620481581130968e-20,-1.810240790565484e-17,-0.586690842627599,-2.2,2.48222279213421e-17,21.736176148060554,-1.7224603298092884e-20,-8.612301649046441e-18,0.6322073204265027,1.6,-5.312589405174236e-16,2.4365367922955774,0.8,-2.436967886033041e-16,-0.0031962575749500894
0.298,task_space_pd_gc,4.3797091364005435e-20,22.74721268120383,3.281128294098357e-17,-2.2571030241474055e-20,-1.1285515120737027e-17,-1.1642586641612357e-15,-0.7,-3.455692880530549e-16,-6.188191757477086,-3.3984071146756986e-20,-1.6992035573378492e-17,-0.586690842627599,-2.2,2.465607128324264e-17,21.736176148060554,-1.5931626222004533e-20,-7.965813111002266e-18,0.6322073204265027,1.6,-5.248399268708586e-16,2.4365367922955774,0.8,-2.3757768669173285e-16,-0.0031962575749501167
0.3,task_space_pd_gc,4.1094265175597325e-20,22.74721268120383,2.5123622160709505e-15,-2.125718761578668e-20,-1.062859380789334e-17,-1.1454520980920773e-15,-0.7,-3.4486253405107876e-16,-6.188191757477084,-3.1933354024049844e-20,-1.596667701202492e-17,-0.586690842627599,-2.2,2.449087741972374e-17,21.736176148060554,-1.473538278309241e-20,-7.367691391546206e-18,0.6322073204265027,1.6,-5.184151136640548e-16,2.4365367922955756,0.8,-2.315897364407731e-16,-0.0031962575749501436
0.302,task_space_pd_gc,3.8592304199153404e-20,22.74721268120383,2.5123708944498635e-15,-2.003376668981172e-20,-1.0016883344905859e-17,-1.1261186147492812e-15,-0.7,-3.4415527329095214e-16,-6.188191757477086,-3.003818200213996e-20,-1.501909100106998e-17,-0.586690842627599,-2.2,2.4326576685219408e-17,21.736176148060554,-1.3627977018783773e-20,-6.813988509391887e-18,0.6322073204265027,1.6,-5.119849623905513e-16,2.4365367922955774,0.8,-2.2573451212500106e-16,-0.003196257574950171
0.304,task_space_pd_gc,3.6249251908961525e-20,22.74721268120383,9.936737123417744e-16,-1.8873552791946628e-20,-9.436776395973313e-18,-1.1063770975387417e-15,-0.7,-3.427047982018559e-16,-6.188191757477085,-2.8267760126850186e-20,-1.4133880063425094e-17,-0.586690842627599,-2.2,2.4628394868788092e-17,21.736176148060554,-1.259884940698209e-20,-6.299424703491045e-18,0.6322073204265027,1.6,-5.071864830666606e-16,2.436536792295577,0.8,-2.2001255846085557e-16,-0.0031962575749502013
0.306,task_space_pd_gc,3.4083868596590434e-20,22.74721268120383,3.308575803487115e-17,-1.780087119763871e-20,-8.900435598819354e-18,-1.0865068920029028e-15,-0.7,-3.4125394038357716e-16,-6.188191757477085,-2.6631051969740355e-20,-1.3315525984870177e-17,-0.586690842627599,-2.2,2.4930953896250744e-17,21.736176148060554,-1.1645864248724038e-20,-5.822932124362019e-18,0.6322073204265027,1.6,-5.023834428592263e-16,2.436536792295577,0.8,-2.1441978456281805e-16,-0.0031962575749502277
0.308,task_space_pd_gc,3.193535250837204e-20,22.74721268120383,1.1590035237375167e-16,-1.6901046912157347e-20,-8.450523456078673e-18,-1.0663302292566521e-15,-0.7,-3.3980174288044257e-16,-6.188191757477085,-2.4859902011607654e-20,-1.2429951005803827e-17,-0.5866908426275989,-2.2,2.5235710006149276e-17,21.736176148060554,-1.0779917675024543e-20,-5.389958837512272e-18,0.6322073204265027,1.6,-4.975765129395561e-16,2.436536792295577,0.8,-2.089535113679108e-16,-0.003196257574950254
0.31,task_space_pd_gc,2.9972251494864816e-20,22.747212681203827,2.512355319499172e-15,-1.5966358268743953e-20,-7.983179134371977e-18,-1.0466501298143608e-15,-0.7,-3.3834933212657927e-16,-6.1881917574770835,-2.3326835690830463e-20,-1.1663417845415231e-17,-0.5866908426275989,-2.2,2.5540433091563616e-17,21.736176148060554,-9.963433141168547e-21,-4.981716570584273e-18,0.6322073204265027,1.6,-4.927656209392269e-16,2.436536792295575,0.8,-2.0360939873729293e-16,-0.0031962575749502798
0.312,task_space_pd_gc,2.84267505701338e-20,22.74721268120383,2.5148090236805443e-15,-1.505244341078458e-20,-7.52622170539229e-18,-1.026737097918492e-15,-0.7,-3.36897372257252e-16,-6.188191757477085,-2.1933758984884537e-20,-1.0966879492442269e-17,-0.5866908426275989,-2.2,2.585068641573096e-17,21.736176148060554,-1.0020694194252565e-20,-5.010347097126283e-18,0.6322073204265026,1.6,-4.879518714700133e-16,2.436536792295577,0.8,-1.983886040869218e-16,-0.0031962575749503053
0.314,task_space_pd_gc,2.6847113353530188e-20,22.74721268120383,3.248592988685647e-17,-1.422711671621472e-20,-7.11355835810736e-18,-1.0061789471936051e-15,-0.7,-3.354448638330657e-16,-6.188191757477085,-2.0679533695543514e-20,-1.0339766847771756e-17,-0.5866908426275989,-2.2,2.6157391735213482e-17,21.736176148060554,-9.524365149204596e-21,-4.762182574602298e-18,0.6322073204265026,1.6,-4.831341616066153e-16,2.436536792295577,0.8,-1.9328877572679476e-16,-0.0031962575749503305
0.316,task_space_pd_gc,2.5344755890565097e-20,22.74721268120383,3.3798391364612974e-17,-1.3458515736552882e-20,-6.729257868276441e-18,-9.857007828885263e-16,-0.7,-3.3399201591938377e-16,-6.188191757477085,-1.9535251753276035e-20,-9.767625876638018e-18,-0.5866908426275989,-2.2,2.6463499615571664e-17,21.736176148060554,-8.921824043177394e-21,-4.4609120215886965e-18,0.6322073204265026,1.6,-4.783132175132876e-16,2.436536792295577,0.8,-1.8830764017372123e-16,-0.0031962575749503574
0.318,task_space_pd_gc,2.394251809861327e-20,22.74721268120383,1.1556655022315172e-16,-1.2739724503688784e-20,-6.369862251844392e-18,-9.652408976720722e-16,-0.7,-3.3253888706280503e-16,-6.188191757477085,-1.8483176803387275e-20,-9.241588401693638e-18,-0.5866908426275987,-2.2,2.6769767548406863e-17,21.736176148060554,-8.325609150522387e-21,-4.162804575261193e-18,0.6322073204265026,1.6,-4.734894030736639e-16,2.436536792295577,0.8,-1.8344500241103766e-16,-0.003196257574950382
0.32,task_space_pd_gc,2.263914033216835e-20,22.74721268120383,3.205815289283668e-17,-1.2067020983572635e-20,-6.033510491786318e-18,-9.448287399328954e-16,-0.7,-3.31085495304489e-16,-6.188191757477085,-1.7511861260914775e-20,-8.755930630457388e-18,-0.5866908426275987,-2.2,2.7076378935866408e-17,21.736176148060554,-7.762241605367732e-21,-3.8811208026838656e-18,0.6322073204265026,1.6,-4.686629699272242e-16,2.436536792295577,0.8,-1.7869905645950528e-16,-0.003196257574950407
0.322,task_space_pd_gc,2.142793136802366e-20,22.74721268120383,3.267731810288003e-17,-1.1436956686243235e-20,-5.718478343121617e-18,-9.245037852032329e-16,-0.7,-3.2963184957981433e-16,-6.188191757477085,-1.6612941037550708e-20,-8.306470518775354e-18,-0.5866908426275987,-2.2,2.738336595570274e-17,21.736176148060554,-7.236190610576261e-21,-3.6180953052881305e-18,0.6322073204265026,1.6,-4.638341244487008e-16,2.436536792295577,0.8,-1.740663201280631e-16,-0.0031962575749504324
0.324,task_space_pd_gc,2.0160144081324398e-20,22.74721268120383,1.1533963270269912e-16,-1.0944404131763284e-20,-5.472202065881642e-18,-9.042963617623969e-16,-0.7,-3.281770074350096e-16,-6.188191757477085,-1.552121690008341e-20,-7.760608450041705e-18,-0.5866908426275986,-2.2,2.769222550106453e-17,21.736176148060554,-6.7633758967668665e-21,-3.381687948383433e-18,0.6322073204265026,1.6,-4.590033720995595e-16,2.436536792295577,0.8,-1.6954589686072129e-16,-0.0031962575749504563
0.326,task_space_pd_gc,1.9006755172518322e-20,22.747212681203827,2.512327510617053e-15,-1.0386246502427169e-20,-5.193123251213584e-18,-8.849581960233782e-16,-0.7,-3.267220979050727e-16,-6.1881917574770835,-1.4614014416776403e-20,-7.307007208388202e-18,-0.5866908426275986,-2.2,2.800075312531651e-17,21.736176148060554,-6.3097708678780736e-21,-3.1548854339390366e-18,0.6322073204265026,1.6,-4.541704861328459e-16,2.436536792295575,0.8,-1.6513350242954027e-16,-0.0031962575749504792
0.328,task_space_pd_gc,1.7955218790699294e-20,22.747212681203827,3.0986377100916456e-17,-9.845395694939871e-21,-4.9226978474699355e-18,-8.657139885735608e-16,-0.7,-3.252671778515352e-16,-6.1881917574770835,-1.3815129157651518e-20,-6.907564578825759e-18,-0.5866908426275986,-2.2,2.830927551633818e-17,21.736176148060554,-5.8821995706833395e-21,-2.9410997853416698e-18,0.6322073204265026,1.6,-4.493356310182991e-16,2.436536792295575,0.8,-1.6082754175364054e-16,-0.0031962575749505035
0.33,task_space_pd_gc,1.699248390927014e-20,22.747212681203827,2.929174896880816e-17,-9.337781622491193e-21,-4.668890811245596e-18,-8.465094883558131e-16,-0.7,-3.2381221665789234e-16,-6.1881917574770835,-1.3095256763530298e-20,-6.547628381765149e-18,-0.5866908426275986,-2.2,2.861792043033026e-17,21.736176148060554,-5.483119009713748e-21,-2.741559504856874e-18,0.6322073204265026,1.6,-4.444989731570913e-16,2.436536792295575,0.8,-1.566262468186606e-16,-0.0031962575749505256
0.332,task_space_pd_gc,1.6107076511690917e-20,22.74721268120383,2.5123180376724885e-15,-8.86383621902902e-21,-4.4319181095145095e-18,-8.273917762172889e-16,-0.7,-3.2235717855910295e-16,-6.188191757477085,-1.2439420483764907e-20,-6.2197102418824535e-18,-0.5866908426275986,-2.2,2.892673655209001e-17,21.736176148060554,-5.111862602201335e-21,-2.5559313011006674e-18,0.6322073204265026,1.6,-4.3966066850147756e-16,2.436536792295577,0.8,-1.5252953550570391e-16,-0.0031962575749505478
0.334,task_space_pd_gc,1.5289590041642662e-20,22.74721268120383,2.880707619365389e-17,-8.420894443167251e-21,-4.2104472215836255e-18,-8.084273384851001e-16,-0.7,-3.2090203759175964e-16,-6.188191757477085,-1.1838023000778325e-20,-5.919011500389162e-18,-0.5866908426275986,-2.2,2.923574308348215e-17,21.736176148060554,-4.7666877233123526e-21,-2.383343861656176e-18,0.6322073204265026,1.6,-4.348208488572264e-16,2.436536792295577,0.8,-1.4853392617612002e-16,-0.0031962575749505695
0.336,task_space_pd_gc,1.4532421622206547e-20,22.74721268120383,2.8355804033802224e-17,-8.006035122983685e-21,-4.0030175614918425e-18,-7.896530552073953e-16,-0.7,-3.1944677847058195e-16,-6.188191757477085,-1.1284112296585998e-20,-5.642056148292999e-18,-0.5866908426275986,-2.2,2.9544942600159875e-17,21.736176148060554,-4.4456146361515276e-21,-2.222807318075764e-18,0.6322073204265026,1.6,-4.2997964200147906e-16,2.436536792295577,0.8,-1.446393609607759e-16,-0.0031962575749505907
0.338,task_space_pd_gc,1.382788724623019e-20,22.74721268120383,4.449631453819142e-16,-7.614114354013022e-21,-3.807057177006511e-18,-7.711155201655826e-16,-0.7,-3.1798580752611093e-16,-6.188191757477085,-1.0769753667322531e-20,-5.384876833661266e-18,-0.5866908426275986,-2.2,2.9978266435968054e-17,21.736176148060554,-4.1530873147167675e-21,-2.076543657358384e-18,0.6322073204265026,1.6,-4.267625796183095e-16,2.4365367922955765,0.8,-1.4084532984333916e-16,-0.0031962575749506115
0.34,task_space_pd_gc,1.3031342093874715e-20,22.74721268120383,1.1426666099442222e-16,-7.345197656661015e-21,-3.672598828330508e-18,-7.528687998213259e-16,-0.7,-3.1652376376594557e-16,-6.188191757477085,-1.0035254896768876e-20,-5.017627448384438e-18,-0.5866908426275985,-2.2,3.041324602395661e-17,21.736176148060554,-3.893277193965111e-21,-1.9466385969825556e-18,0.6322073204265026,1.6,-4.23544640780936e-16,2.4365367922955765,0.8,-1.371446154523383e-16,-0.0031962575749506315
0.342,task_space_pd_gc,1.2315165009410809e-20,22.74721268120383,2.639449749634912e-17,-6.996184204619214e-21,-3.498092102309607e-18,-7.355860300586291e-16,-0.7,-3.150617662151025e-16,-6.188191757477085,-9.460059063109374e-21,-4.730029531554687e-18,-0.5866908426275985,-2.2,3.0847708676830937e-17,21.736176148060554,-3.63647883350572e-21,-1.81823941675286e-18,0.6322073204265026,1.6,-4.2032553862825863e-16,2.4365367922955765,0.8,-1.3353805903573094e-16,-0.0031962575749506514
0.34400000000000003,task_space_pd_gc,1.1670079567154379e-20,22.74721268120383,2.5607162011488308e-17,-6.650811424938952e-21,-3.325405712469476e-18,-7.185095662510401e-16,-0.7,-3.1359986255264876e-16,-6.188191757477085,-8.969694635894096e-21,-4.484847317947048e-18,-0.5866908426275985,-2.2,3.128200259172294e-17,21.736176148060554,-3.391466147911304e-21,-1.695733073955652e-18,0.6322073204265026,1.6,-4.171053579090382e-16,2.4365367922955765,0.8,-1.3002066956075157e-16,-0.0031962575749506705
0.34600000000000003,task_space_pd_gc,1.1085454085782303e-20,22.74721268120383,2.5205734131646744e-17,-6.325896859776535e-21,-3.1629484298882677e-18,-7.015516541045524e-16,-0.7,-3.121380145662399e-16,-6.188191757477085,-8.536530543702677e-21,-4.268265271851339e-18,-0.5866908426275985,-2.2,3.1716269445955814e-17,21.736176148060554,-3.1619562748223124e-21,-1.5809781374111561e-18,0.6322073204265026,1.6,-4.138841991289497e-16,2.4365367922955765,0.8,-1.2659069369770787e-16,-0.003196257574950689
0.34800000000000003,task_space_pd_gc,1.055188328744718e-20,22.74721268120383,2.5103066834260727e-17,-6.022756084434346e-21,-3.011378042217173e-18,-6.84746722812277e-16,-0.7,-3.106761797583134e-16,-6.188191757477085,-8.147156944514849e-21,-4.0735784722574246e-18,-0.5866908426275985,-2.2,3.215056966538394e-17,21.736176148060554,-2.948301846955229e-21,-1.4741509234776145e-18,0.6322073204265026,1.6,-4.1066215705670746e-16,2.4365367922955765,0.8,-1.2324806349782166e-16,-0.003196257574950708
0.35000000000000003,task_space_pd_gc,1.0061853164256356e-20,22.74721268120383,2.4642370210353637e-17,-5.739563936762138e-21,-2.869781968381069e-18,-6.681492867449791e-16,-0.7,-3.092143262307195e-16,-6.188191757477085,-7.793442660179177e-21,-3.896721330089588e-18,-0.5866908426275985,-2.2,3.25849318120805e-17,21.736176148060554,-2.7496447802169786e-21,-1.3748223901084892e-18,0.6322073204265026,1.6,-4.074393112399328e-16,2.4365367922955765,0.8,-1.1999101582462719e-16,-0.003196257574950726
0.352,task_space_pd_gc,9.60952513412312e-21,22.74721268120383,2.41581727354779e-17,-5.474183924897262e-21,-2.7370919624486308e-18,-6.517951940058503e-16,-0.7,-3.0775243278603325e-16,-6.188191757477085,-7.469791119888603e-21,-3.734895559944301e-18,-0.5866908426275985,-2.2,3.301937032650507e-17,21.736176148060554,-2.564859505893795e-21,-1.2824297529468973e-18,0.6322073204265026,1.6,-4.0421572788664456e-16,2.4365367922955765,0.8,-1.1681609496428164e-16,-0.003196257574950744
0.354,task_space_pd_gc,9.190364861418909e-21,22.74721268120383,2.3983498859683574e-17,-5.224765722074468e-21,-2.612382861037234e-18,-6.357002489312227e-16,-0.7,-3.062904871872052e-16,-6.188191757477085,-7.172102709086374e-21,-3.586051354543187e-18,-0.5866908426275985,-2.2,3.345388826656916e-17,21.736176148060554,-2.392816784828072e-21,-1.196408392414036e-18,0.6322073204265026,1.6,-4.00991479530557e-16,2.4365367922955765,0.8,-1.137249710277883e-16,-0.0031962575749507616
0.356,task_space_pd_gc,8.661426069429971e-21,22.74721268120383,1.134089210790144e-16,-5.087956751803297e-21,-2.5439783759016484e-18,-6.199026721863008e-16,-0.7,-3.0482753111917054e-16,-6.188191757477085,-6.638717491811603e-21,-3.3193587459058015e-18,-0.5866908426275984,-2.2,3.388999629335656e-17,21.736176148060554,-2.2495394443963462e-21,-1.1247697221981731e-18,0.6322073204265026,1.6,-3.977669270048916e-16,2.4365367922955765,0.8,-1.1071166360753528e-16,-0.0031962575749507785
0.358,task_space_pd_gc,8.193075194718289e-21,22.74721268120383,2.2152362821973834e-17,-4.862311841303914e-21,-2.4311559206519572e-18,-6.050992616406735e-16,-0.7,-3.0336468073114716e-16,-6.188191757477085,-6.250176557640657e-21,-3.1250882788203283e-18,-0.5866908426275984,-2.2,3.432550572516201e-17,21.736176148060554,-2.1023077088150147e-21,-1.0511538544075074e-18,0.6322073204265026,1.6,-3.945417323617945e-16,2.4365367922955765,0.8,-1.0777532722623778e-16,-0.003196257574950795
0.36,task_space_pd_gc,7.778299069028426e-21,22.74721268120383,2.1685844612774362e-17,-4.632405153523514e-21,-2.316202576761757e-18,-5.905117473231045e-16,-0.7,-3.0190198124012546e-16,-6.188191757477085,-5.933196470162345e-21,-2.9665982350811725e-18,-0.5866908426275984,-2.2,3.4760763483978194e-17,21.736176148060554,-1.959576114191629e-21,-9.797880570958145e-19,0.6322073204265026,1.6,-3.9131594469132297e-16,2.4365367922955765,0.8,-1.049126883213272e-16,-0.003196257574950811
0.362,task_space_pd_gc,7.408081959332699e-21,22.74721268120383,2.127888918664683e-17,-4.415699162617131e-21,-2.2078495813085653e-18,-5.76053510347903e-16,-0.7,-3.004393918356331e-16,-6.188191757477085,-5.6612092366358926e-21,-2.830604618317946e-18,-0.5866908426275984,-2.2,3.519591426052201e-17,21.736176148060554,-1.8253737152926848e-21,-9.126868576463424e-19,0.6322073204265026,1.6,-3.8808963243977065e-16,2.4365367922955765,0.8,-1.0212370878532602e-16,-0.0031962575749508266
0.364,task_space_pd_gc,7.074287273636851e-21,22.747212681203827,2.512234445957778e-15,-4.214062876748281e-21,-2.1070314383741407e-18,-5.617611069136588e-16,-0.7,-2.989768670329183e-16,-6.1881917574770835,-5.4217536353927195e-21,-2.7108768176963595e-18,-0.5866908426275984,-2.2,3.563102470991166e-17,21.736176148060554,-1.700529922658859e-21,-8.502649613294294e-19,0.6322073204265026,1.6,-3.8486285221495407e-16,2.4365367922955747,0.8,-9.94066243184372e-17,-0.003196257574950842
0.366,task_space_pd_gc,6.7704805575153015e-21,22.747212681203827,2.0710140488020465e-17,-4.0261242376094766e-21,-2.013062118804738e-18,-5.47671641832529e-16,-0.7,-2.975143718430113e-16,-6.1881917574770835,-5.207561259763576e-21,-2.603780629881788e-18,-0.5866908426275984,-2.2,3.606612844858937e-17,21.736176148060554,-1.584624980503529e-21,-7.923124902517645e-19,0.6322073204265026,1.6,-3.8163565231030633e-16,2.4365367922955747,0.8,-9.675967942710666e-17,-0.003196257574950857
0.368,task_space_pd_gc,6.491815019763704e-21,22.747212681203827,2.023453881286021e-17,-3.850183520292447e-21,-1.9250917601462235e-18,-5.338146174101988e-16,-0.7,-2.960518823549022e-16,-6.1881917574770835,-5.013817088597539e-21,-2.5069085442987694e-18,-0.5866908426275984,-2.2,3.650124374997667e-17,21.736176148060554,-1.4769520347612429e-21,-7.384760173806214e-19,0.6322073204265026,1.6,-3.7840807447517727e-16,2.4365367922955747,0.8,-9.418113060853129e-17,-0.0031962575749508717
0.37,task_space_pd_gc,6.234677352132267e-21,22.747212681203827,2.0062439679248248e-17,-3.684806229185963e-21,-1.8424031145929815e-18,-5.202101309900731e-16,-0.7,-2.9458938349255064e-16,-6.1881917574770835,-4.837126694246166e-21,-2.418563347123083e-18,-0.5866908426275984,-2.2,3.6936379542510097e-17,21.736176148060554,-1.3768115638512364e-21,-6.884057819256182e-19,0.6322073204265026,1.6,-3.7518015993222397e-16,2.4365367922955747,0.8,-9.167094936129132e-17,-0.0031962575749508865
0.372,task_space_pd_gc,5.9962905597514175e-21,22.747212681203827,1.9242265576332e-17,-3.528834917731812e-21,-1.764417458865906e-18,-5.068807727882928e-16,-0.7,-2.931268653946318e-16,-6.1881917574770835,-4.674964110280692e-21,-2.337482055140346e-18,-0.5866908426275984,-2.2,3.7371542170315266e-17,21.736176148060554,-1.2835634647138185e-21,-6.417817323569093e-19,0.6322073204265026,1.6,-3.719519365548083e-16,2.4365367922955747,0.8,-8.922570370419306e-17,-0.0031962575749509003
0.374,task_space_pd_gc,5.774523239928775e-21,22.747212681203827,1.905479882930004e-17,-3.3813346945326172e-21,-1.6906673472663085e-18,-4.938235003324401e-16,-0.7,-2.9166432260841463e-16,-6.1881917574770835,-4.52544901968858e-21,-2.26272450984429e-18,-0.5866908426275984,-2.2,3.7806733835886455e-17,21.736176148060554,-1.1966643231195595e-21,-5.983321615597797e-19,0.6322073204265026,1.6,-3.6872343350516363e-16,2.4365367922955747,0.8,-8.684367190154823e-17,-0.0031962575749509142
0.376,task_space_pd_gc,5.429725404082688e-21,22.747212681203827,1.1256143821996713e-16,-3.339701942723901e-21,-1.6698509713619505e-18,-4.810414144820504e-16,-0.7,-2.902008012155047e-16,-6.1881917574770835,-4.1286244447752924e-21,-2.0643122223876462e-18,-0.5866908426275983,-2.2,3.824346127392227e-17,21.736176148060554,-1.1325939658637661e-21,-5.66296982931883e-19,0.6322073204265026,1.6,-3.6549499383543905e-16,2.4365367922955747,0.8,-8.452400332981778e-17,-0.0031962575749509277
0.378,task_space_pd_gc,5.1313246124888506e-21,22.747212681203827,1.7558515632753074e-17,-3.203175816347125e-21,-1.6015879081735624e-18,-4.692503040717784e-16,-0.7,-2.887374191197863e-16,-6.1881917574770835,-3.8663193073348945e-21,-1.9331596536674473e-18,-0.5866908426275983,-2.2,3.867953821194024e-17,21.736176148060554,-1.0591184929138986e-21,-5.295592464569492e-19,0.6322073204265026,1.6,-3.6226624646250607e-16,2.4365367922955747,0.8,-8.226415898550761e-17,-0.0031962575749509407
0.38,task_space_pd_gc,4.874108849778853e-21,22.747212681203827,1.7108109318502944e-17,-3.0568736567944266e-21,-1.5284368283972133e-18,-4.576523350854773e-16,-0.7,-2.872742223921679e-16,-6.1881917574770835,-3.666333346364338e-21,-1.833166673182169e-18,-0.5866908426275983,-2.2,3.911531248208295e-17,21.736176148060554,-9.85119444141507e-22,-4.925597220707535e-19,0.6322073204265026,1.6,-3.590372188691618e-16,2.4365367922955747,0.8,-8.006257995694212e-17,-0.0031962575749509533
0.382,task_space_pd_gc,4.650467862049597e-21,22.747212681203827,1.6716807766659215e-17,-2.9187126697366057e-21,-1.4593563348683029e-18,-4.46163312039966e-16,-0.7,-2.858111695110385e-16,-6.1881917574770835,-3.502961876561346e-21,-1.751480938280673e-18,-0.5866908426275983,-2.2,3.9550932459796876e-17,21.736176148060554,-9.150004255916884e-22,-4.575002127958442e-19,0.6322073204265026,1.6,-3.5580795076386514e-16,2.4365367922955747,0.8,-7.791753072114465e-17,-0.0031962575749509654
0.384,task_space_pd_gc,4.453253094767743e-21,22.747212681203827,1.6628403911146142e-17,-2.7909358965473986e-21,-1.3954679482736993e-18,-4.3480330300541537e-16,-0.7,-2.843482140338736e-16,-6.1881917574770835,-3.3644902931969385e-21,-1.6822451465984692e-18,-0.5866908426275983,-2.2,3.998646649672815e-17,21.736176148060554,-8.499088271133724e-22,-4.2495441355668616e-19,0.6322073204265026,1.6,-3.5257848086265606e-16,2.4365367922955747,0.8,-7.582895864093631e-17,-0.0031962575749509775
0.386,task_space_pd_gc,4.27686783458527e-21,22.74721268120383,2.512200140668881e-15,-2.672538760733297e-21,-1.3362693803666484e-18,-4.2361423031948677e-16,-0.7,-2.8288531980405065e-16,-6.188191757477085,-3.2442896857037005e-21,-1.6221448428518503e-18,-0.5866908426275983,-2.2,4.04219512368009e-17,21.736176148060554,-7.897591291810542e-22,-3.9487956459052707e-19,0.6322073204265026,1.6,-3.4934883685058984e-16,2.4365367922955765,0.8,-7.379511410238392e-17,-0.0031962575749509893
0.388,task_space_pd_gc,4.117188170165415e-21,22.74721268120383,1.6061335980387997e-17,-2.5621398867738696e-21,-1.2810699433869348e-18,-4.1262073895436556e-16,-0.7,-2.8142246166028295e-16,-6.188191757477085,-3.1381111432083773e-21,-1.5690555716041886e-18,-0.5866908426275983,-2.2,4.085740676565151e-17,21.736176148060554,-7.341226614291626e-22,-3.6706133071458127e-19,0.6322073204265026,1.6,-3.4611904585196245e-16,2.4365367922955765,0.8,-7.181596389106392e-17,-0.003196257574951001
0.39,task_space_pd_gc,3.9712007964515135e-21,22.74721268120383,1.5594070391615786e-17,-2.458565710887397e-21,-1.2292828554436984e-18,-4.0184885135776813e-16,-0.7,-2.7995962223538015e-16,-6.188191757477085,-3.043025612214938e-21,-1.5215128061074689e-18,-0.5866908426275983,-2.2,4.129284719209101e-17,21.736176148060554,-6.82558081330658e-22,-3.41279040665329e-19,0.6322073204265026,1.6,-3.4288912209148256e-16,2.4365367922955765,0.8,-6.988807347395233e-17,-0.0031962575749510122
0.392,task_space_pd_gc,3.836692982215228e-21,22.74721268120383,1.5128946950072987e-17,-2.3608821180862495e-21,-1.1804410590431246e-18,-3.912972827191299e-16,-0.7,-2.7849679027666696e-16,-6.188191757477085,-2.9569710512122854e-21,-1.4784855256061427e-18,-0.5866908426275983,-2.2,4.172827940674832e-17,21.736176148060554,-6.346423138844985e-22,-3.1732115694224924e-19,0.6322073204265026,1.6,-3.396590858642691e-16,2.4365367922955765,0.8,-6.801142510408422e-17,-0.003196257574951023
0.394,task_space_pd_gc,3.712047588207253e-21,22.74721268120383,1.4966456301566753e-17,-2.2684082676583962e-21,-1.134204133829198e-18,-3.8098004572735354e-16,-0.7,-2.770339586524061e-16,-6.188191757477085,-2.878446637825532e-21,-1.439223318912766e-18,-0.5866908426275983,-2.2,4.216370842732079e-17,21.736176148060554,-5.900560833727662e-22,-2.950280416863831e-19,0.6322073204265026,1.6,-3.3642895080038584e-16,2.4365367922955765,0.8,-6.618430075015347e-17,-0.003196257574951034
0.396,task_space_pd_gc,3.593493988266493e-21,22.74721268120383,4.443696036497074e-16,-2.1780455338083945e-21,-1.0890227669041972e-18,-3.7089717256649505e-16,-0.7,-2.755655374367652e-16,-6.188191757477085,-2.8038334423756326e-21,-1.4019167211878162e-18,-0.5866908426275983,-2.2,4.27230696326811e-17,21.736176148060554,-5.548285535016543e-22,-2.7741427675082713e-19,0.6322073204265026,1.6,-3.3482415742323306e-16,2.436536792295576,0.8,-6.440963787692389e-17,-0.003196257574951046
0.398,task_space_pd_gc,3.483247971947156e-21,22.74721268120383,1.3090336073195878e-17,-2.093504573599962e-21,-1.046752286799981e-18,-3.610928235286146e-16,-0.7,-2.7409711633939903e-16,-6.188191757477085,-2.735396142652723e-21,-1.3676980713263616e-18,-0.5866908426275983,-2.2,4.3282394717323525e-17,21.736176148060554,-5.175548059390601e-22,-2.5877740296953004e-19,0.6322073204265026,1.6,-3.3321928450674934e-16,2.436536792295576,0.8,-6.268279260689482e-17,-0.0031962575749510547
0.4,task_space_pd_gc,3.3804990678372988e-21,22.74721268120383,1.51244756035935e-17,-2.0133717469077696e-21,-1.0066858734538848e-18,-3.515199398876325e-16,-0.7,-2.726286919321402e-16,-6.188191757477085,-2.672470581343701e-21,-1.3362352906718504e-18,-0.5866908426275983,-2.2,4.384170909400699e-17,21.736176148060554,-4.816732795732631e-22,-2.4083663978663157e-19,0.6322073204265026,1.6,-3.316143457084941e-16,2.436536792295576,0.8,-6.100204521841565e-17,-0.0031962575749510664
0.402,task_space_pd_gc,3.1477914897076976e-21,22.74721268120383,1.1182263959339205e-16,-2.0352300393754558e-21,-1.0176150196877278e-18,-3.4217538002492807e-16,-0.7,-2.711593110347686e-16,-6.188191757477085,-2.3559044649583995e-21,-1.1779522324791998e-18,-0.5866908426275982,-2.2,4.4402527675273226e-17,21.736176148060554,-4.649130042159117e-22,-2.3245650210795586e-19,0.6322073204265026,1.6,-3.3000966285788447e-16,2.436536792295576,0.8,-5.93648452077704e-17,-0.003196257574951076
0.404,task_space_pd_gc,2.954086247291469e-21,22.74721268120383,1.2400529263352044e-17,-1.9585798014746e-21,-9.792899007373e-19,-3.337593094087064e-16,-0.7,-2.696900916349337e-16,-6.188191757477085,-2.168160699578143e-21,-1.0840803497890715e-18,-0.5866908426275982,-2.2,4.496266608565341e-17,21.736176148060554,-4.355110773529505e-22,-2.1775553867647523e-19,0.6322073204265026,1.6,-3.284048532461714e-16,2.436536792295576,0.8,-5.777036379728762e-17,-0.003196257574951085
0.406,task_space_pd_gc,2.7939456629202864e-21,22.74721268120383,1.2308367406003579e-17,-1.8688154319699704e-21,-9.344077159849852e-19,-3.2547963388323134e-16,-0.7,-2.682210793212332e-16,-6.188191757477085,-2.0375385381201542e-21,-1.0187692690600771e-18,-0.5866908426275982,-2.2,4.552247330379262e-17,21.736176148060554,-4.0261390221545417e-22,-2.013069511077271e-19,0.6322073204265026,1.6,-3.2679993364964813e-16,2.436536792295576,0.8,-5.621875172836263e-17,-0.003196257574951094
0.40800000000000003,task_space_pd_gc,2.660722000762117e-21,22.74721268120383,1.1950617085460717e-17,-1.7841139335176406e-21,-8.920569667588203e-19,-3.1725858709643593e-16,-0.7,-2.667522317175731e-16,-6.188191757477085,-1.9387677749642e-21,-9.693838874821e-19,-0.5866908426275982,-2.2,4.608210098277539e-17,21.736176148060554,-3.7088886789459975e-22,-1.8544443394729988e-19,0.6322073204265026,1.6,-3.25194925313174e-16,2.436536792295576,0.8,-5.4706572398898964e-17,-0.003196257574951103
