Ovmem/robot-control-retargeting-framework/results/panda_control/raw/ablation_pd_only.csv
t,mode,err_norm,tau_norm,tau_smoothness_step,q1,qd1,tau1,q2,qd2,tau2,q3,qd3,tau3,q4,qd4,tau4,q5,qd5,tau5,q6,qd6,tau6,q7,qd7,tau7
0.0,pd_only,5.2575848925168515e-05,0.0,0.0,-2.7734441429051413e-07,-0.00013867220714525706,0.0,-0.7000063715605823,-0.0031857802911934648,0.0,9.9256360511899e-07,0.000496281802559495,0.0,-2.2000517778013235,-0.02588890066161042,0.0,-2.669253946988899e-06,-0.0013346269734944495,0.0,1.5999941278446874,-0.0029360776563535874,0.0,0.7999998852438198,-5.737809011968037e-05,0.0
0.002,pd_only,0.000131483163047427,0.266462326389128,0.266462326389128,-5.056796664181118e-07,-0.00011416762606379879,0.00196359845317684,-0.7000094815943179,-0.0015550168677783778,0.045110648923297574,2.7344031475519827e-06,0.0008709197712164963,-0.00602486108307227,-2.2001296294258914,-0.038925812283908165,0.2619956746955065,-6.813629798836254e-06,-0.0020721879259236776,0.008087839459376365,1.5999815625879548,-0.00628262836632016,0.014827192164584675,0.7999998074102971,-3.891676139426724e-05,0.0002318074840832225
0.004,pd_only,0.00022522956046063097,0.3992952275534412,0.13812505091480723,-6.430753514187793e-07,-6.869784250033375e-05,0.0016388011382066322,-0.7000069836998377,0.0012489472400807843,0.022528763694329774,5.006359612049016e-06,0.0011359782322485164,-0.010642445474926595,-2.2002219770677804,-0.046173820944477244,0.39703588839255555,-1.17252424896061e-05,-0.0024558063453849225,0.012637536449507153,1.5999647472967333,-0.008407645610752934,0.031874077132733915,0.7999997705658851,-1.8422205967329364e-05,0.0001595188396363309
0.006,pd_only,0.0003281907797535159,0.47773604703862965,0.08822438973085485,-7.074928911174136e-07,-3.220876984931716e-05,0.0010132158231181748,-0.6999990372855539,0.003973207141884682,-0.01692656537411024,7.6370713661115e-06,0.0013153558770312417,-0.013982183959825627,-2.200323085497234,-0.050554214726988456,0.4750568335115884,-1.7052904947522085e-05,-0.0026638312289579925,0.015086595346997718,1.5999454625091845,-0.009642393774484538,0.042919545635433765,0.7999997597994635,-5.383210801765852e-06,7.827750616789602e-05
0.008,pd_only,0.00043730637663786347,0.5307049136273562,0.06358136863777941,-7.240506430722032e-07,-8.278875977394761e-06,0.0005075222091798334,-0.6999865314681918,0.006252908681065363,-0.05570191714206964,1.0502964800371277e-05,0.001432946717129888,-0.016318865520002706,-2.2004298442404915,-0.05337937162871957,0.5249272771039265,-2.2623847653992804e-05,-0.0027854713532353592,0.016494574522173615,1.5999247227528655,-0.010369878159507406,0.04957540614281348,0.7999997640386673,2.119601911488987e-06,2.6336853938504062e-05
0.01,pd_only,0.0005507330789625635,0.569648058275682,0.04801439488328519,-7.129703227384473e-07,5.540160166877971e-06,0.00017382831512930292,-0.6999704412362672,0.008045115962313458,-0.08861820407956864,1.3519086798309827e-05,0.001508060998969275,-0.017930568141584648,-2.2005404200645633,-0.055287912035943465,0.5595843707166741,-2.8348236065256048e-05,-0.002862194205631622,0.01739154354903194,1.599903085546397,-0.010818603234262812,0.0537313219759028,0.7999997770022024,6.481767531716427e-06,-3.759180992051718e-06
0.012,pd_only,0.0006672648694359966,0.5997389773610761,0.03696958550916884,-6.881006268391726e-07,1.2434847949637362e-05,-2.0524616517215814e-05,-0.6999516182780602,0.009411479103504658,-0.11499632457101117,1.6628833855192883e-05,0.001554873528441528,-0.01904306806351299,-2.2006536542864774,-0.05661711095713224,0.5853043242332218,-3.417535372406229e-05,-0.0029135588294031205,0.018023612315747416,1.599880866879335,-0.011109333531024846,0.056515877511393024,0.7999997953146745,9.156236069269444e-06,-2.1467114173425976e-05
0.014,pd_only,0.0007860662689655294,0.6237418917064118,0.028881416912086438,-6.580864983719776e-07,1.5007064233597481e-05,-0.00011903982114778925,-0.6999307456012789,0.010436338390627577,-0.13563124520424696,1.9795354497623794e-05,0.0015832603212154557,-0.019822500711161834,-2.2007687746302236,-0.05756017187310621,0.6053903667599565,-4.007404949562155e-05,-0.0029493478857796295,0.01850661358814059,1.599858256134662,-0.01130537233656037,0.058524995671752685,0.7999998171160557,1.0900690618117304e-05,-3.25312377655235e-05
0.016,pd_only,0.0009065381030285561,0.6433696986379224,0.022942441087425856,-6.279037455148118e-07,1.5091376428582942e-05,-0.0001574519794006065,-0.6999083493441045,0.01119812858719095,-0.15164908936647206,2.299512090807498e-05,0.0015998832052255933,-0.020384798669419134,-2.200885247008106,-0.058236188941243223,0.6217281965444662,-4.6023802545088324e-05,-0.002974876524733386,0.01889830879954642,1.599835373639032,-0.011441247814896157,0.0600704583162559,0.7999998413136753,1.2098809809679788e-05,-3.9945083586031906e-05
0.018000000000000002,pd_only,0.0010282423753909995,0.6597912990527518,0.01860236631425078,-6.00137446519217e-07,1.3883149497797397e-05,-0.00016104697035897625,-0.6998848264403382,0.01176145188315778,-0.16410585269230912,2.6213392816007425e-05,0.001609135953966223,-0.02080825692627237,-2.201002693083443,-0.058723037668452,0.6354767098987786,-5.2010401805594376e-05,-0.0029932996302530247,0.019229973224752964,1.5998122996737751,-0.011536982628457138,0.061321898098681646,0.7999998672155348,1.2950929754641862e-05,-4.522151274377641e-05
0.02,pd_only,0.0011508557457750835,0.6738454476860335,0.015450103480536605,-5.759046430629394e-07,1.211640172813882e-05,-0.00014635309724762618,-0.6998604729687035,0.012176735817399656,-0.17387421113714732,2.9441124132672496e-05,0.0016138656583325358,-0.021144568944715194,-2.201120840822848,-0.0590738697026464,0.6473919616910885,-5.802368585805751e-05,-0.0030066420262315676,0.01952010983568598,1.5997890897484228,-0.011604962676143122,0.06237742129790941,0.7999998943535044,1.356898474155181e-05,-4.9148029714546624e-05
0.022,pd_only,0.0012741383757585705,0.6861475938462803,0.013173756025715067,-5.554732533967464e-07,1.0215694833096517e-05,-0.0001235572527489083,-0.699835508382156,0.012482293273701615,-0.18163646394731467,3.26729003803601e-05,0.0016158881238438044,-0.021427266589277502,-2.2012394928592682,-0.059326018209968454,0.6579891463973454,-6.405625077181343e-05,-0.0030162824568779585,0.01978056273313113,1.599765783169247,-0.011653289587929378,0.0632975696701473,0.7999999223954644,1.4020979992436069e-05,-5.2163009052951173e-05
0.024,pd_only,0.0013979119764726512,0.6971531561813047,0.011537610391144643,-5.386561188955819e-07,8.408567250582269e-06,-9.858186739161154e-05,-0.6998100947543205,0.01270681391772524,-0.18791143525933712,3.590558721095849e-05,0.0016163434152991951,-0.02167776051275086,-2.201358505232351,-0.05950618654128595,0.6676297536557678,-7.010264432426797e-05,-0.0030231967762272723,0.020019382264422157,1.5997424081895157,-0.011687489865552295,0.06412186870847683,0.7999999510987009,1.4351618292568091e-05,-5.4531829256014195e-05
0.026000000000000002,pd_only,0.0015220438843364884,0.7071998723228012,0.01036515474275721,-5.250521434028186e-07,6.801987746381653e-06,-7.462745199650521e-05,-0.6997843515356288,0.01287160934587211,-0.19308781450250628,3.913745637888057e-05,0.0016159345839610389,-0.021909512088357435,-2.201477772608369,-0.05963368800901302,0.6765721793539083,-7.615883002539669e-05,-0.00302809285056436,0.02024225998709167,1.599718985303473,-0.011711443021343238,0.06487724458987017,0.7999999802828799,1.4592089454058815e-05,-5.642844718784912e-05
0.028,pd_only,0.001646435335624355,0.7165381155432808,0.009525825887340697,-5.141868295392909e-07,5.432656931763853e-06,-5.322365697711766e-05,-0.6997583666579974,0.012992438815711235,-0.19745440799190275,4.236762813245665e-05,0.0016150858767880374,-0.022130836954054108,-2.2015972177762015,-0.05972258391638826,0.6850032365922575,-8.22218120315475e-05,-0.003031491003075403,0.02045332200414806,1.5996955294578457,-0.011727922813663179,0.06558258251989324,0.8000000098129197,1.4765019933190107e-05,-5.797401541305922e-05
0.03,pd_only,0.0017710127729434646,0.7253532606746835,0.008924399545932256,-5.055893764770775e-07,4.2987265311067065e-06,-3.492225068155066e-05,-0.6997322048067133,0.01308092564208701,-0.2012248107801618,4.55957202852651e-05,0.001614046076404227,-0.022346764490728414,-2.201716784079805,-0.05978315180162158,0.6930589057359645,-8.828936486613737e-05,-0.003033776417294936,0.020655600379398842,1.5996720515881027,-0.011738934871483095,0.06625137762217673,0.8000000395873045,1.4887192347961435e-05,-5.925633812674117e-05
0.032,pd_only,0.001895721382278658,0.7337823625530756,0.008492350051570867,-4.988310567950006e-07,3.3791598410384647e-06,-1.973502131732769e-05,-0.6997059135469618,0.013145629875764979,-0.2045565744521525,4.882163075654528e-05,0.0016129552356400907,-0.022560253336819283,-2.2018364299213107,-0.05982292075295562,0.7008385628044972,-9.435983528581386e-05,-0.0030352352098382447,0.020851339449753738,1.5996485597096637,-0.011745939219447447,0.06689338465485116,0.8000000695296947,1.4971195093541988e-05,-6.0340515480536553e-05
0.034,pd_only,0.002020520285198804,0.7419266185278356,0.008180868071569529,-4.935408193165586e-07,2.6451187392209915e-06,-7.4017532309384566e-06,-0.6996795278466403,0.013192850160736224,-0.20756573450376484,5.204540535507478e-05,0.001611887299264748,-0.022772976980639258,-2.2019561247487394,-0.059847413714314755,0.7084150028081863,-0.00010043199567288987,-0.0030360801935380064,0.021042206317603885,1.599625059703795,-0.011750002934334498,0.06751570335564729,0.8000000995827256,1.5026515438097414e-05,-6.127537426753688e-05
0.036000000000000004,pd_only,0.0021453789632231903,0.7498606675179412,0.007955389868672403,-4.894081399386301e-07,2.0663396889642365e-06,2.451603196230805e-06,-0.6996530734090142,0.013227218813057046,-0.21033767451907665,5.526715936591971e-05,0.001610877005422468,-0.02298582596603221,-2.2020758461190018,-0.059860685131234916,0.7158416220674987,-0.000106504935053306,-0.00303646969020807,0.021229441031414734,1.5996015558883667,-0.011751907714214591,0.06812352207679737,0.8000001297033498,1.5060312100341105e-05,-6.209771626259244e-05
0.038,pd_only,0.0022702746000314925,0.7576395113435371,0.00779147575147599,-4.861792542501133e-07,1.6144428442584422e-06,1.0223895549591102e-05,-0.6996265691257456,0.013252141634299127,-0.21293519066166147,5.848703263471867e-05,0.00160993663439948,-0.023199225220683996,-2.202195577544448,-0.059865712723198856,0.7231576184524439,-0.00011257797792876407,-0.003036521437729031,0.021413966192847602,1.5995780514344233,-0.011752226971711249,0.06872064136190713,0.8000001598593166,1.5077983441816731e-05,-6.283531539590787e-05
0.04,pd_only,0.0023951901070200054,0.7653036530977462,0.007671811971333341,-4.836504119347268e-07,1.264421157693256e-06,1.629214052039087e-05,-0.6996000288813293,0.013270122208122312,-0.21540445282053527,6.170516515983266e-05,0.0016090662625569954,-0.023413331897224065,-2.2023153069124026,-0.059864683977360125,0.7303917798988547,-0.00011865062379794022,-0.0030363229345880785,0.021596467964237108,1.599554548671105,-0.011751381659218308,0.06930984899797518,0.8000001900265054,1.5083594349538152e-05,-6.350912009850547e-05
0.042,pd_only,0.0025201126571497163,0.7728829032146881,0.007584084097207958,-4.816602266964167e-07,9.950926191550655e-07,2.0990136747072566e-05,-0.6995734628799354,0.013283000696986,-0.2177794004073626,6.492168496886982e-05,0.0016082599045185789,-0.023628156711872232,-2.202435025324583,-0.05985920608997805,0.7375652545177481,-0.00012472250210845252,-0.0030359391552561444,0.02177745632146668,1.5995310493092187,-0.011749680943101755,0.0698931915184709,0.8000002201869054,1.508020005283992e-05,-6.413490750433202e-05
0.044,pd_only,0.002645032596512521,0.7803991934192973,0.007519490317000789,-4.800822331985423e-07,7.889967489372033e-07,2.4601521467542423e-05,-0.69954687862085,0.01329212954271357,-0.22008497936296992,6.813670313652702e-05,0.0016075090838286027,-0.023843636802043836,-2.2025547262445757,-0.0598504599964865,0.7446935803747377,-0.00013079333872652912,-0.0030354183090382987,0.021957309994790442,1.599507554605326,-0.011747351946473505,0.07047217198504238,0.8000002503270905,1.5070092557235755e-05,-6.47245383188654e-05
0.046,pd_only,0.0027699426363486943,0.7878686540943597,0.007471707860084978,-4.788181865988772e-07,6.320232998325895e-07,2.7360624170762536e-05,-0.6995202816154837,0.013298502683094305,-0.22233952392998918,7.135031277508005e-05,0.0016068048192765176,-0.024059678225500123,-2.2026744048714946,-0.05983931345949774,0.7517881746393971,-0.00013686293100146653,-0.0030347961374687115,0.022136310016025666,1.599484065482237,-0.011744561544455029,0.07104789459922228,0.8000002804370668,1.5054988137706428e-05,-6.528691203895839e-05
0.048,pd_only,0.0028948372531551127,0.7953031461165423,0.00743617378517411,-4.777923072378662e-07,5.129396805055086e-07,2.9457128730253914e-05,-0.6994936759143706,0.01330285055657727,-0.22455650832461743,7.456259008259811e-05,0.0016061386537590335,-0.02427617972557381,-2.2027940576797564,-0.059826404130896765,0.7588574268846411,-0.00014293112923888647,-0.003034099118709968,0.022314664754856266,1.5994605826175268,-0.011741432355198035,0.07162117066635001,0.8000003105094063,1.5036169741495175e-05,-6.582869388664205e-05
0.05,pd_only,0.0030197122431276425,0.8027113894344486,0.007409582068652175,-4.769464898802972e-07,4.229086787844953e-07,3.1042229051952175e-05,-0.6994670644944874,0.013305709941622812,-0.22674583464242892,7.777359632141417e-05,0.0016055031194080307,-0.02449304515089027,-2.202913682080905,-0.0598122005743117,0.7659075020943438,-0.00014899782294811674,-0.0030333468546151305,0.0224925285894264,1.5994371065085655,-0.011738054480671173,0.0721925963378231,0.8000003405385961,1.5014594873331478e-05,-6.635486709194644e-05
0.052000000000000005,pd_only,0.0031445643910389663,0.8100997939984046,0.007389529532031007,-4.7623640416862193e-07,3.550428558376524e-07,3.2234997687440845e-05,-0.6994404495439046,0.013307475291358875,-0.22891477962372644,8.098338008735613e-05,0.001604891882970982,-0.02471018917539536,-2.203033276175109,-0.05979704710180925,0.772942930597419,-0.00015506293064225583,-0.0030325538470695524,0.022670015816134283,1.5994136375203047,-0.01173449413039771,0.07276260968922008,0.8000003705205504,1.499097711491296e-05,-6.686915141532044e-05
0.054,pd_only,0.00326939122396069,0.8174730712401652,0.007374264723860539,-4.75628373171251e-07,3.0401549868547424e-07,3.312831235176262e-05,-0.6994138326709766,0.013308436464013864,-0.23106869056665208,8.419197952747899e-05,0.0016042997200614352,-0.024927539201766713,-2.20315283856855,-0.05978119672038222,0.7799670415246232,-0.00016112639227924177,-0.0030317308184929677,0.02284721100168499,1.5993901759203903,-0.011730799957150628,0.0733315326443722,0.8000004004522455,1.496584757157322e-05,-6.737431946669903e-05
0.056,pd_only,0.003394190827900092,0.8248346838933492,0.007362508578346273,-4.7509690688789716e-07,2.657331416769172e-07,3.379405287210344e-05,-0.6993872150580703,0.01330880645309682,-0.23321149681806533,8.739942434099349e-05,0.0016037224067572517,-0.025145035207660753,-2.2032723682392343,-0.059764835342291434,0.7869822813168075,-0.00016718816366426131,-0.0030308856925097714,0.02302417667933506,1.5993667219049659,-0.011727007712271108,0.07389960177599675,0.8000004303314476,1.4939601063035355e-05,-6.787243519578893e-05
0.058,pd_only,0.0035189617111047217,0.832187176801728,0.007353325550697647,-4.746227731984865e-07,2.3706684470531976e-07,3.4287488567554935e-05,-0.6993605975745361,0.013308741767114336,-0.2353460856977253,9.060573750010935e-05,0.0016031565795579332,-0.025362628584956567,-2.2033918644383865,-0.05974809957608163,0.7939904477769638,-0.00017324821230740528,-0.0030300243215719796,0.023200959064986468,1.599343275617633,-0.011723143666509828,0.07446699093721099,0.8000004601565092,1.491253078258384e-05,-6.836503320388756e-05
0.06,pd_only,0.003643702701996049,0.8395324201532716,0.007346030549080522,-4.7419150165201974e-07,2.1563577323339179e-07,3.465088603000444e-05,-0.6993339808597224,0.013308357406795222,-0.23747457877671252,9.381093668356745e-05,0.001602599591729045,-0.025580280579702852,-2.2035113266179875,-0.059731089800407075,0.8009928620639973,-0.00017930651436014785,-0.0030291510263712905,0.023377592298654035,1.5993198371633852,-0.011719227123842796,0.07503382789172891,0.8000004899262176,1.4884854245145851e-05,-6.885325331271343e-05
0.062,pd_only,0.0037684128728218184,0.8468717882954975,0.007340121442013626,-4.737922309073428e-07,1.9963537233847916e-07,3.491641930689409e-05,-0.699307365383979,0.01330773787170206,-0.23959853491733546,9.701503544405724e-05,0.001602049380244895,-0.025797960668598262,-2.20363075437753,-0.059713879771386855,0.8079904950833127,-0.00018536305235097256,-0.00302826899541236,0.023554101589032178,1.5992964066188475,-0.011715272268787788,0.0756002065345858,0.800000519639683,1.4856732678416379e-05,-6.933794133248394e-05
0.064,pd_only,0.0038930914824229414,0.8542062911777855,0.007335229954717204,-4.734168259695363e-07,1.87702468903265e-07,3.510848325984871e-05,-0.6992807514934816,0.013306945248695226,-0.24171909948550738,0.00010021804414298322,0.0016015043494629943,-0.026015645044022748,-2.2037501474248953,-0.05969652368256648,0.8149840603656698,-0.00019141781351254957,-0.003027380580788502,0.023730505543003336,1.5992729840397997,-0.011711289523922277,0.07616619587275285,0.800000549296254,1.4828285494219043e-05,-6.98197243726631e-05
0.066,pd_only,0.004017737933218533,0.8615366709625368,0.007331085854698239,-4.730592053349073e-07,1.7881031731449188e-07,3.524551151291719e-05,-0.6992541394431699,0.013306025155800991,-0.24383711400320424,0.00010341997068924031,0.0016009632731285469,-0.026233315283564755,-2.203869505547601,-0.05967906135286983,0.8219740823193709,-0.00019747078854651302,-0.0030264875169817265,0.0239068178901075,1.5992495694667048,-0.011707286547474929,0.0767318466246218,0.8000005788954561,1.4799601072162827e-05,-7.029906705540886e-05
0.068,pd_only,0.004142351738784732,0.8688634730300555,0.007327490779983989,-4.727148302482764e-07,1.7218754331545285e-07,3.53413919843897e-05,-0.6992275294209499,0.013305011110012458,-0.24595319672761495,0.00010662082111708174,0.001600425213920714,-0.026450957225789384,-2.203988828591679,-0.05966152203888725,0.8289609463847593,-0.00020352197071175996,-0.003025591082623477,0.02408304875828575,1.599226162928772,-0.011703268966400608,0.07729719606975628,0.8000006084369456,1.4770744778646812e-05,-7.077631340897072e-05
0.07,pd_only,0.004266932499336976,0.8761870981613391,0.007324299086797011,-4.723803183921136e-07,1.672559280813937e-07,3.540656081344577e-05,-0.6992009215654762,0.013303927736869003,-0.24806780186417882,0.00010982060003435516,0.001599889458636711,-0.026668560045244292,-2.2041081164461516,-0.05964392723622259,0.8359449358896082,-0.00020957135515180418,-0.003024692220022112,0.02425920561709366,1.599202764446942,-0.011699240915084204,0.07786227161270362,0.8000006379204755,1.474176493038464e-05,-7.12517180266645e-05
0.07200000000000001,pd_only,0.004391479883117757,0.8835078408863745,0.0073214038186455695,-4.720531525929403e-07,1.6358289958664554e-07,3.544884247822958e-05,-0.6991743159792184,0.013302793128886298,-0.25018126307806676,0.00011301931096779658,0.0015993554667207126,-0.02688611550604539,-2.2042273690316274,-0.05962629273797372,0.8429262591313093,-0.00021561893839868178,-0.003023791623438794,0.024435293974686797,1.5991793740360796,-0.011695205431191201,0.07842709340187368,0.8000006673458699,1.47126972240233e-05,-7.172546923041141e-05
0.074,pd_only,0.004515993612206647,0.8908259176647849,0.007318726419394982,-4.717314617650177e-07,1.6084541396129446e-07,3.547409161322219e-05,-0.6991477127380614,0.013301620578525197,-0.2522938254669311,0.00011621695662749589,0.0015988228298496534,-0.02710361736839431,-2.204346586291922,-0.05960863014729448,0.8499050692773714,-0.00022166471800719135,-0.0030228898042547825,0.024611317892593215,1.5991559917065865,-0.011691164746551505,0.07899167625396897,0.800000696713006,1.4683568018096985e-05,-7.219770629405376e-05
0.076,pd_only,0.004640473451650412,0.8981414875938435,0.007316209186532808,-4.7141385656612556e-07,1.588025994460748e-07,3.5486681145743296e-05,-0.6991211118983583,0.013300419851540669,-0.2544056690544354,0.00011941353910847122,0.0015982912404876694,-0.027321060922120555,-2.2044657681878994,-0.05959094798881967,0.8568814789882431,-0.00022770869228530837,-0.003021987139058506,0.024787280365744437,1.5991326174655847,-0.011687120500904985,0.07955603106809699,0.8000007260217995,1.465439676624265e-05,-7.266853219147409e-05
0.078,pd_only,0.004764919201090143,0.9054546676251402,0.007313809732693405,-4.710993063566174e-07,1.5727510475409606e-07,3.5489872133044994e-05,-0.6990945135021132,0.013299198122596619,-0.2565169260528979,0.0001226090600436712,0.0015977604676000014,-0.027538442623445018,-2.20458491469295,-0.05957325252531009,0.8638555711621507,-0.0002337508600955415,-0.003021083905116566,0.024963183602910284,1.5991092513177867,-0.011683073898947778,0.08012016586491064,0.8000007552721952,1.4625197822372495e-05,-7.313802305412213e-05
0.08,pd_only,0.004889330688275958,0.912765543745621,0.00731149691935486,-4.707870472510522e-07,1.561295527826031e-07,3.548609304197205e-05,-0.6990679175807878,0.013297960662705924,-0.25862769354729653,0.00012580352071969494,0.001597230338011867,-0.027755759814257,-2.2047040257896655,-0.059555548357698475,0.8708274068300857,-0.0002397912207085996,-0.0030201803065290616,0.02513902923356564,1.5990858932661351,-0.011679025825747398,0.08068408655007372,0.8000007844641587,1.4595981770258474e-05,-7.360623519186453e-05
0.082,pd_only,0.005013707764007725,0.9200741791933015,0.007309247871103572,-4.704765135175558e-07,1.5526686674818738e-07,3.547715004112773e-05,-0.6990413241580992,0.0132967113443188,-0.2607380428148562,0.00012899692216404376,0.0015967007221744027,-0.027973010506521054,-2.2048231014673974,-0.05953783886596932,0.8777970309569048,-0.00024582977369562003,-0.0030192764935101984,0.025314818460432358,1.599062543312272,-0.011674976931530018,0.08124779747536046,0.8000008135976715,1.4566756412325893e-05,-7.407321025367129e-05
0.084,pd_only,0.005138050298165351,0.9273806204936785,0.007307045782486958,-4.701672864710112e-07,1.5461352327231257e-07,3.546438494692984e-05,-0.6990147332520743,0.013295453012417647,-0.2628480261725265,0.00013218926521073074,0.0015961715233434872,-0.028190193217575894,-2.2049421417204638,-0.05952012653309782,0.8847644767035235,-0.0002518665188488128,-0.0030183725765964057,0.02549055217192979,1.5990392014568842,-0.011670927693981328,0.0818113018508512,0.8000008426727265,1.4537527499764324e-05,-7.453897907842914e-05
0.08600000000000001,pd_only,0.005262358176564522,0.9346849018951862,0.007304878307499136,-4.698590564485826e-07,1.5411501121429308e-07,3.544879359186852e-05,-0.69898814487656,0.0132941877571652,-0.2649576820078991,0.0001353805505494997,0.0015956426693844864,-0.028407306844872998,-2.20506114654683,-0.05950241318304605,0.8917297685587935,-0.0002579014561230417,-0.0030174686371144286,0.02566623102504282,1.5990158676999562,-0.011666878464033381,0.08237460204780479,0.8000008716893251,1.4508299267911085e-05,-7.500356452878783e-05
0.088,pd_only,0.00538663129845265,0.9419870486277493,0.007302736375988685,-4.695515945518786e-07,1.5373094835200464e-07,3.54311143588865e-05,-0.6989615590423316,0.013292917114210219,-0.2670670384755073,0.00013857077876267124,0.0015951141065857696,-0.028624350571078816,-2.205180115947141,-0.05948470015563455,0.8986929246402463,-0.00026393458559282397,-0.0030165647348911356,0.02584185550637782,1.5989925420409572,-0.011662829499483253,0.08293769982126453,0.8000009006474748,1.4479074837726536e-05,-7.546698357274196e-05
0.09,pd_only,0.005510869574494282,0.9492870792971517,0.007300613324734403,-4.692447316691041e-07,1.5343144138725074e-07,3.541189428722222e-05,-0.6989349757579079,0.013291642211851555,-0.2691761162124121,0.00014175995035267544,0.001594585795002102,-0.02884132379241622,-2.2052990499240113,-0.059466988435008195,0.9056539583848032,-0.000269965907420687,-0.0030156609139314937,0.026017425977131532,1.5989692244789777,-0.011658780989718493,0.08350059647348851,0.8000009295471877,1.4449856504724258e-05,-7.592924884512331e-05
0.092,pd_only,0.005635072925136933,0.9565850076439861,0.007298504258636653,-4.6893834291637973e-07,1.5319437636217207e-07,3.539153835410682e-05,-0.6989083950301496,0.01329036387915085,-0.27128493033328926,0.00014494806576259168,0.0015940577049581264,-0.029058226064712506,-2.2054179484814993,-0.059449278744023414,0.9126128797907473,-0.00027599542183388414,-0.00301475720659859,0.026192942706209574,1.59894591501283,-0.0116547330738588,0.08406329297415185,0.8000009583884796,1.4420645961049679e-05,-7.639036977223528e-05
0.094,pd_only,0.005759241279276528,0.9638808438358889,0.007296405581563816,-4.6863233610826996e-07,1.5300340405488307e-07,3.537034616423997e-05,-0.6988818168646989,0.01328908272535587,-0.27339349189614315,0.00014813512539144937,0.0015935298144288393,-0.02927505706287894,-2.2055368116247265,-0.059431571613589876,0.9195696963301816,-0.00028202312910726547,-0.003013853636690662,0.026368405894608066,1.5989226136411219,-0.011650685854107137,0.08462579004854597,0.8000009871713685,1.4391444449311703e-05,-7.685035343574248e-05
0.096,pd_only,0.005883374573155314,0.9711745954169686,0.007294314651775772,-4.6832664322050487e-07,1.5284644388254518e-07,3.5348539231893235e-05,-0.6988552412663024,0.013287799198245822,-0.27550180897907006,0.0001513211296056107,0.0015930021070806597,-0.029491816550547528,-2.205655639359594,-0.05941386743361869,0.9265244136194768,-0.0002880490295506764,-0.0030129502217054647,0.026543815693361936,1.5988993203623107,-0.011646639405535935,0.08518808824249115,0.8000010158958742,1.436225288399171e-05,-7.730920516579276e-05
0.098,pd_only,0.00600747274944517,0.9784662680052436,0.007292229528648095,-4.6802121407282725e-07,1.5271457383880102e-07,3.532628124328476e-05,-0.6988286682390484,0.0132865136269963,-0.27760988747124715,0.0001545060787472295,0.0015924745708094,-0.029708504357360666,-2.205774431692575,-0.05939616649043757,0.9334770359118076,-0.00029407312349969056,-0.0030120469745070935,0.02671917221675308,1.5988760351747442,-0.01164259378329547,0.08575018796991316,0.8000010445620181,1.4333071937779338e-05,-7.776692901999196e-05
0.1,pd_only,0.006131535756479454,0.9857558658048777,0.007290148786528045,-4.6771601165752536e-07,1.5260120765093922e-07,3.5303693092082964e-05,-0.6988020977865411,0.013285226253663119,-0.27971773165406993,0.00015768997314053007,0.0015919471966502872,-0.029925120362018866,-2.2058931886305637,-0.059378468994292555,0.9404275664588604,-0.00030009541130879356,-0.003011143904551491,0.026894475552033278,1.5988527580766885,-0.011638549027898511,0.08631208954787475,0.8000010731698224,1.4303902105374865e-05,-7.82235281132038e-05
0.10200000000000001,pd_only,0.006255563547603079,0.9930433919826007,0.007288071378233227,-4.674110086869584e-07,1.5250148528346633e-07,3.528086402548888e-05,-0.6987755299120285,0.013283937256311345,-0.28182534462799047,0.00016087281309646372,0.0015914199779668182,-0.030141664479640555,-2.206011910180763,-0.05936077509953941,0.9473760077767379,-0.00030611589334637114,-0.003010241018788782,0.027069725766572753,1.5988294890663504,-0.01163450516910598,0.08687379322228293,0.8000011017193099,1.4274743748881675e-05,-7.867900486831862e-05
0.10400000000000001,pd_only,0.006379556080619107,1.0003288489440694,0.007285996534484707,-4.671061850432413e-07,1.5241182185857818e-07,3.525785990098814e-05,-0.6987489646184964,0.01328264676600565,-0.2839327286260741,0.00016405459891615914,0.0015908929098477087,-0.03035813665235428,-2.2061305963506017,-0.05934308491948107,0.9543223618411589,-0.00031213456999102404,-0.0030093383223264514,0.027244922913123828,1.5988062281418929,-0.011630462228781167,0.08743529918677306,0.8000011302105042,1.4245597134748136e-05,-7.913336119338228e-05
0.106,pd_only,0.006503513317314733,1.0076122385369064,0.007283923690212995,-4.668015258953055e-07,1.5232957396787972e-07,3.523472929743921e-05,-0.6987224019087379,0.013281354879288226,-0.28603988524435964,0.00016723533089347718,0.001590365988659026,-0.030574536842303643,-2.2062492471476762,-0.05932539853726872,0.9612666302309029,-0.0003181514416288585,-0.00300843581891722,0.027420067033689433,1.5987829753014469,-0.011626420222986768,0.08799660759658601,0.8000011586434291,1.4216462457501798e-05,-7.958659862270237e-05
0.108,pd_only,0.0066274352230500004,1.01489356219986,0.0072818524304043425,-4.664970203092456e-07,1.522527930299678e-07,3.5211508036074125e-05,-0.6986958417854032,0.013280061667346788,-0.28814681561099875,0.00017041500931690121,0.0015898392117120158,-0.030790865026451716,-2.206367862579704,-0.05930771601390471,0.9682088142332502,-0.00032416650865149443,-0.0030075335113179686,0.027595158162369078,1.5987597305431198,-0.011622379163523091,0.08855771857876449,0.8000011870181089,1.418733985987938e-05,-8.0038718411785e-05
0.11,pd_only,0.006751321766403045,1.022172821072206,0.0072797824501400436,-4.661926602231254e-07,1.521800430600863e-07,3.51882225223201e-05,-0.6986692842510377,0.013278767182747406,-0.2902535205105934,0.00017359363447093487,0.001589312577016824,-0.031007121192727274,-2.206486442654492,-0.059290037394121496,0.9751489149212677,-0.0003301797714546016,-0.0030066314015535795,0.027770196327452645,1.5987364938650017,-0.011618339059062954,0.08911863223962226,0.8000012153345677,1.4158229445740592e-05,-8.048972161563427e-05
0.112,pd_only,0.006875172918857548,1.0294500160742057,0.007277713525500559,-4.658884396909246e-07,1.521102661004019e-07,3.516489221500883e-05,-0.6986427293081089,0.013277471464378583,-0.29236000047544475,0.000176771206637135,0.001588786083100055,-0.03122330533716733,-2.2066049873799134,-0.059272362710706,0.9820869332107315,-0.0003361912304368229,-0.003005729491110663,0.027945181552959525,1.5987132652651697,-0.011614299915975805,0.08967934867027405,0.8000012435928303,1.4129131293095534e-05,-8.093960913596672e-05
0.114,pd_only,0.006998988654530835,1.036725147966088,0.007275645491979764,-4.6558435432519504e-07,1.5204268286479016e-07,3.514153144986834e-05,-0.6986161769590267,0.013276174541084571,-0.29446625585258546,0.00017994772609487467,0.001588259728869842,-0.03143941746180011,-2.206723496763889,-0.0592546919876689,0.9890228699018532,-0.0003422008859989837,-0.003004827781080387,0.028120113859768665,1.5986900447416919,-0.011610261738948587,0.09023986795063979,0.8000012717929212,1.410004545445556e-05,-8.138838177776175e-05
0.116,pd_only,0.007122768949931224,1.0439982173914415,0.0072735782288086475,-4.652804008862474e-07,1.519767194738237e-07,3.511815078590854e-05,-0.698589627206158,0.013274876434332736,-0.29657228685304693,0.00018312319312190672,0.0015877335135160184,-0.03165545757307933,-2.206841970814374,-0.05923702524257384,0.9959567257100126,-0.00034820873854351034,-0.0030039262722633365,0.028294993266451834,1.598666832292629,-0.011606224531421837,0.09080019015244886,0.8000012999348652,1.4070971972056508e-05,-8.183604024178336e-05
0.11800000000000001,pd_only,0.0072465137837455455,1.0512692249088895,0.007271511647176904,-4.6497657697946644e-07,1.5191195339050154e-07,3.509475799826626e-05,-0.6985630800518376,0.013273577160172792,-0.29867809358801267,0.0001862976079947792,0.0015872074364362417,-0.03187142568072569,-2.2069604095393505,-0.059219362488253144,1.002888501288171,-0.0003542147884740029,-0.0030030249652462796,0.028469819789885328,1.5986436279160372,-0.011602188295930453,0.09136031534138744,0.800001328018687,1.4041910872404057e-05,-8.22825851921344e-05
0.12,pd_only,0.0073702231366485965,1.0585381710155461,0.007269445681966824,-4.646728808323645e-07,1.518480735509717e-07,3.507135881089029e-05,-0.6985365354983762,0.013272276730675813,-0.3007836760954037,0.00018947097098914238,0.0015866814971815836,-0.03208732179686945,-2.2070788129468184,-0.059201703734061646,1.0098181972435487,-0.0003602190361949211,-0.003002123860459112,0.028644593445697766,1.5986204316099686,-0.011598153034337075,0.09192024357872444,0.8000013560444114,1.401286217753076e-05,-8.272801722777656e-05
0.122,pd_only,0.007493896991133484,1.0658050561640455,0.007267380285290286,-4.6436931113036346e-07,1.517848510005296e-07,3.504795743687556e-05,-0.6985099935480663,0.013270975154990983,-0.3028890343593584,0.00019264328237997473,0.0015861556954161722,-0.03230314593541897,-2.207197181044792,-0.059184048986800936,1.01674581414971,-0.00036622148211135373,-0.003001222958216333,0.028819314248602304,1.5985972433724727,-0.011594118748014089,0.092479974922473,0.8000013840120631,1.398382590056954e-05,-8.317233693644045e-05
0.124,pd_only,0.007617535331359547,1.0730698807751033,0.0072653154219925594,-4.640658668959005e-07,1.5172211723149332e-07,3.502455697642166e-05,-0.698483454203186,0.013269672440121415,-0.3049941683245654,0.00019581454244174982,0.0015856300308875432,-0.032518898111592295,-2.2073155138412948,-0.05916639825139814,1.0236713525555128,-0.000372222126628849,-0.00300032225874764,0.02899398221263861,1.5985740632015968,-0.011590085437973725,0.09303950942825603,0.8000014119216672,1.395480205160827e-05,-8.361554486359678e-05
0.126,pd_only,0.007741138143015269,1.0803326452467021,0.007263251066256025,-4.6376254739938333e-07,1.5165974825857905e-07,3.500115971043113e-05,-0.698456917466003,0.013268368591494854,-0.30709907790681407,0.00019898475144855917,0.0015851045034046788,-0.032734578341573006,-2.2074338113443575,-0.059148751531402095,1.0305948129916565,-0.00037822097015329,-0.0029994217622204915,0.02916859735135131,1.598550891095387,-0.011586053104961446,0.09359884714995123,0.8000014397732484,1.392579063800116e-05,-8.40576415491974e-05
0.128,pd_only,0.007864705413196525,1.087593349960761,0.0072611871990678496,-4.634593520936918e-07,1.5159765284574915e-07,3.497776731633056e-05,-0.6984303833387763,0.013267063613381744,-0.3092037630006824,0.00020215390967420285,0.0015845791128218407,-0.03295018664225529,-2.207552073562016,-0.05913110882935014,1.0375161959754577,-0.0003842180130908031,-0.002998521468756535,0.02934315967792165,1.5985277270518878,-0.011582021749530026,0.0941579881401357,0.8000014675668318,1.3896791662641648e-05,-8.449862752003907e-05
0.13,pd_only,0.007988237130294269,1.0948519952881335,0.007259123806534328,-4.631562805659391e-07,1.5153576387635662e-07,3.495438102765486e-05,-0.6984038518237579,0.013265757509202227,-0.311308223485239,0.00020532201739225612,0.001584053859026635,-0.03316572303105629,-2.2076703005023104,-0.05911347014703904,1.0444355020144638,-0.00039021325584769046,-0.002997621378443675,0.029517669205263303,1.5985045710691437,-0.011577991372086333,0.09471693245045643,0.800001495302442,1.3867805129011805e-05,-8.493850328507543e-05
0.132,pd_only,0.008111733283894763,1.102108581592144,0.007257060878409678,-4.628533325020278e-07,1.5147403195566233e-07,3.4931001751006134e-05,-0.6983773229231943,0.013264450281752087,-0.3134124592281988,0.00020848907487611864,0.0015835287419312593,-0.033381187525777546,-2.207788492173282,-0.059095835485719055,1.0513527316090032,-0.0003962066988303809,-0.002996721491345216,0.029692125946092766,1.5984814231451978,-0.011573961972933568,0.09527568013184198,0.8000015229801041,1.383883103663078e-05,-8.537726935561471e-05
0.134,pd_only,0.008235193864687853,1.10936310923121,0.007254998407171379,-4.625505076604817e-07,1.514124207730517e-07,3.490763015278295e-05,-0.6983507966393275,0.013263141933369013,-0.31551647008898,0.00021165508239905066,0.0015830037614660009,-0.03359658014450342,-2.2079066485829744,-0.05907820484623946,1.0582678852540992,-0.0004021983424453934,-0.002995821807506255,0.029866529912982727,1.5984582832780931,-0.011569933552300097,0.09583423123472479,0.8000015505998428,1.380986938668073e-05,-8.58149262271134e-05
0.136,pd_only,0.008358618864385114,1.1166155785607181,0.0072529363872708705,-4.622478058532605e-07,1.5135090361058096e-07,3.4884266722015805e-05,-0.6983242729743955,0.0132618324660544,-0.3176202559209601,0.0002148200402341996,0.0015824789175744773,-0.033811900905525556,-2.2080247697394326,-0.05906057822915531,1.0651809634408458,-0.00040818818709931047,-0.0029949223269585303,0.03004088111839933,1.5984351514658723,-0.01156590611035328,0.09639258580917423,0.8000015781616832,1.3780920178792382e-05,-8.625147440168007e-05
0.138,pd_only,0.008482008275643676,1.123865989934458,0.007250874814680161,-4.619452269316395e-07,1.5128946081050942e-07,3.4860911817712706e-05,-0.6982977519306324,0.013260521881561616,-0.3197238165731199,0.0002179839486546198,0.0015819542102101008,-0.0340271498272877,-2.2081428556507023,-0.05904295563480415,1.0720919666575,-0.0004141762331987585,-0.0029940230497240306,0.030215179574730494,1.5984120277065779,-0.011561879647221676,0.09695074390496014,0.8000016056656499,1.375198341156195e-05,-8.668691437743796e-05
0.14,pd_only,0.008605362091997276,1.1311143437055569,0.007248813686391549,-4.6164277077582224e-07,1.5122807790862344e-07,3.483756570318402e-05,-0.6982712335102694,0.013259210181461855,-0.3218271518912694,0.0002211468079332868,0.0015814296393334877,-0.0342423269283446,-2.208260906324829,-0.059025337063368565,1.0790008953901713,-0.00042016248115039315,-0.0029931239758173196,0.030389425294306938,1.598388911998252,-0.011557854163002541,0.09750870557166398,0.8000016331117681,1.372305908230554e-05,-8.712124664393142e-05
0.14200000000000002,pd_only,0.008728680307794175,1.1383606402272213,0.007246753000218141,-4.613404372872544e-07,1.5116674428390696e-07,3.4814228571345054e-05,-0.6982447177155351,0.01325789736719408,-0.3239302617189081,0.00022430861834310802,0.0015809052049106178,-0.03445743222733193,-2.208378921769859,-0.0590077225149101,1.0859077501234196,-0.00042614693136088893,-0.0029922251052479044,0.030563618289415714,1.5983658043389364,-0.011553829657770897,0.0980664708587162,0.8000016605000625,1.3694147190454986e-05,-8.75544716900252e-05
0.14400000000000002,pd_only,0.008851962918139378,1.145604879853212,0.007244692754523173,-4.610382263830463e-07,1.5110545210404902e-07,3.4790900563005655e-05,-0.6982182045486549,0.013256583440097414,-0.32603314589790633,0.00022746938015693067,0.001580380906911324,-0.034672465742944976,-2.2084969019938376,-0.058990111989408026,1.0928125313406207,-0.0004321295842369313,-0.0029913264380211895,0.030737758572314092,1.5983427047266732,-0.011549806131582312,0.0986240398154472,0.8000016878305579,1.3665247733786185e-05,-8.798659001082658e-05
0.146,pd_only,0.008975209918841756,1.1528470629382477,0.007242632948146796,-4.60736137991803e-07,1.5104419562165186e-07,3.4767581781187015e-05,-0.698191694011852,0.013255268401439993,-0.3281358042689676,0.0002306290936475474,0.0015798567453083594,-0.034887427493921035,-2.208614847004811,-0.05897250548677616,1.0997152395243277,-0.00043811044018521095,-0.0029904279741398312,0.030911846155235075,1.598319613159504,-0.011545783584484584,0.09918141249108456,0.8000017151032793,1.363636071012957e-05,-8.841760209259861e-05
0.148,pd_only,0.00909842130636622,1.1600871898381857,0.007240573580177053,-4.604341720506066e-07,1.5098297059818583e-07,3.474427230064112e-05,-0.6981651861073471,0.01325395225243569,-0.3302382366719969,0.0002337877590877005,0.001579332720076557,-0.03510231749902863,-2.2087327568108246,-0.058954903006884,1.1066158751564128,-0.00044408949961241947,-0.002989529713604259,0.031085881050395316,1.598296529635471,-0.011541762016512738,0.09973858893482253,0.8000017423182516,1.3607486117282372e-05,-8.884750842626338e-05
0.15,pd_only,0.009221597077789495,1.1673252609102442,0.007238514649990941,-4.6013232850278076e-07,1.5092177391291292e-07,3.472097217567393e-05,-0.6981386808373586,0.013252634994260066,-0.33234044294632614,0.0002369453767500852,0.0015788088311923464,-0.03531713577705772,-2.208850631419924,-0.05893730454956585,1.1135144387183051,-0.00045006676292524625,-0.0029886316564133983,0.03125986326999814,1.5982734541526156,-0.011537741427695359,0.10029556919579154,0.8000017694754995,1.3578623952059146e-05,-8.927630950038976e-05
0.152,pd_only,0.009344737230758132,1.1745612765130944,0.0072364561571211265,-4.5983060729620963e-07,1.5086060328557116e-07,3.469768144544168e-05,-0.6981121782041025,0.013251316628059645,-0.3344424229309463,0.00024010194690735176,0.0015782850786332891,-0.03553188234681412,-2.208968470840153,-0.05891971011462996,1.1204109306910808,-0.0004560422305303764,-0.0029877338025650645,0.031433792826237775,1.5982503867089795,-0.011533721818059738,0.10085235332308978,0.8000017965750479,1.3549774212945808e-05,-8.970400579739538e-05
0.154,pd_only,0.009467841763452627,1.1817952370068514,0.00723439810115094,-4.59529008382169e-07,1.5079945702031247e-07,3.467440013769877e-05,-0.6980856782097926,0.013249997154958752,-0.33654417646462825,0.00024325746983210728,0.0015777614623777663,-0.03574655722711409,-2.209086275079557,-0.058902119701868254,1.1273053515554767,-0.00046201590283448857,-0.0029868361520560857,0.03160766973130168,1.5982273273026042,-0.01152970318762711,0.10140894136581458,0.8000018236169216,1.3520936897352694e-05,-9.013059780860387e-05
0.156,pd_only,0.009590910674551568,1.189027142753232,0.007232340481878916,-4.5922753171442407e-07,1.5073833387248388e-07,3.4651128272289143e-05,-0.6980591808566404,0.013248676576067257,-0.33864570338600974,0.00024641194579691695,0.0015772379824048283,-0.0359611604367807,-2.2092040441461793,-0.058884533311056995,1.1341977017920928,-0.00046798778024425414,-0.002985938704882775,0.03178149399737117,1.5982042759315314,-0.011525685536413489,0.1019653333730329,0.8000018506011456,1.3492112002515932e-05,-9.055608602103645e-05
0.158,pd_only,0.00971394396320008,1.1962569941154588,0.007230283299066095,-4.589261772485748e-07,1.5067723292463987e-07,3.462786586293915e-05,-0.6980326861468554,0.013247354892481883,-0.3407470035337039,0.0002495653750743048,0.001576714638693939,-0.03617569199464213,-2.2093217780480634,-0.05886695094196292,1.1410879818813187,-0.000473957863166336,-0.0029850414610409345,0.03195526563662428,1.5981812325938025,-0.011521668864436153,0.10252152939378567,0.8000018775277447,1.3463299526352229e-05,-9.098047092101757e-05
0.16,pd_only,0.009836941628980387,1.2034847914582998,0.007228226552562769,-4.5862494494154494e-07,1.5061615351491602e-07,3.460461291894103e-05,-0.6980061940826449,0.013246032105291596,-0.3428480767463084,0.0002527177579367546,0.0015761914312248902,-0.0363901519195286,-2.209439476793252,-0.058849372594346167,1.1479761923034224,-0.00047992615200738784,-0.002984144420525935,0.032128984661235684,1.598158197287459,-0.011517653171710664,0.10307752947712012,0.8000019043967436,1.343449946565228e-05,-9.140375299759398e-05
0.162,pd_only,0.009959903671884396,1.210710535148064,0.007226170242271013,-4.5832383475130354e-07,1.505550951207017e-07,3.458136944611477e-05,-0.6979797046662137,0.013244708215577917,-0.34494892286249,0.00025586909465671014,0.001575668359977767,-0.0366045402302715,-2.209557140389788,-0.05883179826796132,1.1548623335385797,-0.00048589264717405374,-0.0029832475833329584,0.032302651083377244,1.5981351700105426,-0.011513638458248859,0.10363333367208044,0.8000019312081672,1.3405711817899775e-05,-9.182593273308792e-05
0.164,pd_only,0.01008283009228858,1.2179342255525634,0.007224114368101039,-4.580228466365073e-07,1.5049405739810852e-07,3.455813544841446e-05,-0.6979532178997649,0.0132433832244183,-0.34704954172098895,0.00025901938550657575,0.001575145424932799,-0.036818856945702916,-2.209674768845713,-0.05881422796255733,1.1617464060668832,-0.0004918573490729677,-0.0029823509494570103,0.03247626491521936,1.5981121507610945,-0.011509624724065054,0.10418894202768111,0.8000019579620403,1.337693658122575e-05,-9.224701061481404e-05
0.166,pd_only,0.010205720890930381,1.22515586304108,0.007222058929979509,-4.577219805563992e-07,1.504330400540716e-07,3.453491092734707e-05,-0.6979267337854992,0.013242057132886044,-0.3491499331606571,0.00026216863075871654,0.0015746226260703843,-0.03703310208465389,-2.2097923621690687,-0.058796661677880224,1.1686284103683433,-0.0004978202581107535,-0.002981454518892905,0.03264982616893109,1.5980891395371561,-0.011505611969168586,0.10474435459296563,0.8000019846583878,1.3348173752629458e-05,-9.2666987130456e-05
0.168,pd_only,0.01032857606888656,1.2323754479843412,0.007220003927855199,-4.5742123647061184e-07,1.5037204289367028e-07,3.451169588375494e-05,-0.697900252325615,0.013240729942051029,-0.3512500970204661,0.0002653168306854585,0.0015740999633709742,-0.037247275665954774,-2.2099099203678962,-0.05877909941367506,1.1755083469229144,-0.0005037813746940241,-0.0029805582916352744,0.032823334856680035,1.598066136336769,-0.011501600193571505,0.10529957141694153,0.8000020112972345,1.3319423329748682e-05,-9.30858627653907e-05
0.17,pd_only,0.010451395627552514,1.2395929807545,0.007217949361700431,-4.5712061433907175e-07,1.503110657700433e-07,3.4488490317137565e-05,-0.6978737735223091,0.013239401652981788,-0.3533500331395082,0.00026846398555908875,0.0015735774368151186,-0.03746137770843379,-2.210027443450236,-0.0587615411696831,1.1823862162105145,-0.0005097406992293816,-0.002979662267678755,0.032996790990632366,1.5980431411579743,-0.01149758939728551,0.10585459254863544,0.8000020378786051,1.3290685309073722e-05,-9.350363800754918e-05
0.17200000000000001,pd_only,0.010574179568623951,1.2468084617250434,0.007215895231439033,-4.5682011412194995e-07,1.5025010856089223e-07,3.4465294226345134e-05,-0.6978472973777756,0.013238072266744295,-0.3554497413570167,0.0002716100956518556,0.001573055046383428,-0.03767540823091764,-2.2101449314241273,-0.05874398694564568,1.1892620187109701,-0.0005156982321234173,-0.0029787664470178332,0.03317019458295398,1.5980201539988137,-0.01149357958031945,0.10640941803707227,0.8000020644025245,1.3261959688656428e-05,-9.392031333805211e-05
0.17400000000000002,pd_only,0.010696927894079554,1.2540218912708128,0.007213841537056941,-4.5651973577956805e-07,1.5018917119093929e-07,3.4442107609903505e-05,-0.6978208238942069,0.013236741784402983,-0.35754922151236684,0.00027475516123596865,0.0015725327920565184,-0.03788936725223103,-2.21026238429761,-0.05872643674130305,1.1961357549040823,-0.0005216539737827111,-0.0029778708296469376,0.03334354564580952,1.5979971748573283,-0.011489570742684238,0.10696404793125705,0.8000020908690174,1.3233246466277538e-05,-9.43358892442664e-05
0.176,pd_only,0.010819640606164575,1.2612332697679587,0.007211788278535311,-4.562194792723856e-07,1.5012825359122764e-07,3.441893046569229e-05,-0.6977943530737928,0.013235410207021318,-0.3596484734450899,0.00027789918258359876,0.0015720106738150593,-0.03810325479119603,-2.2103798020787226,-0.05870889055639458,1.2030074252696141,-0.000527607924613832,-0.0029769754155604543,0.03351684419136296,1.5979742037315594,-0.011485562884387714,0.10751848228021631,0.8000021172781087,1.3204545639465433e-05,-9.475036621247441e-05
0.178,pd_only,0.01094231770737567,1.2684425975939033,0.007209735455854834,-4.559193445609569e-07,1.5006735571432468e-07,3.439576279151366e-05,-0.6977678849187214,0.013234077535662405,-0.3617474969948722,0.0002810421599668783,0.001571488691639757,-0.03831707086663262,-2.210497184775504,-0.05869134839065673,1.2098770302872939,-0.0005335600850233376,-0.0029760802047528023,0.033690090231777686,1.5979512406195486,-0.01148155600544151,0.10807272113295563,0.800002143629823,1.3175857204581097e-05,-9.516374473016962e-05
0.18,pd_only,0.011064959200446978,1.2756498751272838,0.00720768306897808,-4.556193316059081e-07,1.500064775244195e-07,3.437260458487601e-05,-0.6977414194311786,0.013232743771387393,-0.36384629200155516,0.00028418409365790087,0.0015709668455112884,-0.03853081549735857,-2.210614532395992,-0.058673810243828395,1.2167445704367932,-0.000539510455417774,-0.0029751851972181927,0.03386328377921694,1.5979282855193369,-0.0114775501058532,0.10862676453849404,0.8000021699241854,1.3147181159540565e-05,-9.557602527795542e-05
0.182,pd_only,0.011187565088335799,1.282855102747967,0.007205631117917494,-4.553194403679391e-07,1.4994561898449576e-07,3.434945584313077e-05,-0.6977149566133481,0.013231408915256792,-0.3659448583051302,0.00028732498392872164,0.0015704451354103784,-0.03874448870218852,-2.210731844948223,-0.05865627611564666,1.2236100461977824,-0.0005454590362036759,-0.0029742903929509215,0.03403642484584238,1.5979053384289656,-0.011473545185631932,0.10918061254584685,0.8000021961612204,1.3118517501980068e-05,-9.598720834487587e-05
0.184,pd_only,0.011310135374212242,1.2900582808369219,0.007203579602592472,-4.5501967080777983e-07,1.4988478007964428e-07,3.432631656365219e-05,-0.6976884964674115,0.013230072968331417,-0.36804319574573974,0.00029046483105135717,0.0015699235613177666,-0.03895809049993505,-2.2108491224402345,-0.058638746005846426,1.2304734580498327,-0.0005514058277875664,-0.0029733957919452782,0.03420951344381581,1.5978823993464761,-0.01146954124478671,0.10973426520402065,0.8000022223409529,1.3089866229283511e-05,-9.639729441441493e-05
0.186,pd_only,0.011432670061446298,1.2972594097762984,0.0072015285230353065,-4.54720022886226e-07,1.4982396077690327e-07,3.430318674350737e-05,-0.6976620389955481,0.01322873593166932,-0.3701413041637171,0.00029360363529778544,0.0015694021232141437,-0.0391716209094082,-2.2109663648800626,-0.05862121991416605,1.2373348064725211,-0.0005573508305759572,-0.0029725013941953597,0.03438254958529866,1.5978594682699094,-0.011465538283323553,0.11028772256203241,0.8000022484634075,1.3061227338563021e-05,-9.68062839734881e-05
0.188,pd_only,0.011555169153597458,1.3044584899493485,0.007199477879232112,-4.544204965640737e-07,1.497631610761606e-07,3.428006638002143e-05,-0.6976355841999354,0.013227397806330067,-0.37223918339951667,0.00029674139693994597,0.0015688808210802662,-0.0393850799494147,-2.211083572275743,-0.058603697840339405,1.2441940919454055,-0.000563294044975348,-0.0029716071996954327,0.034555533282450875,1.597836545197307,-0.01146153630125339,0.11084098466888416,0.8000022745286092,1.3032600827570611e-05,-9.721417750348295e-05
0.19,pd_only,0.01167763265440472,1.3116555217403703,0.007197427671142291,-4.5412109180216215e-07,1.4970238095579304e-07,3.4256955470059644e-05,-0.6976091320827487,0.013226058593371618,-0.3743368332937828,0.0002998781162497397,0.0015683596548968573,-0.03959846763875941,-2.2112007446353115,-0.058586179784102195,1.2510513149479723,-0.0005692354713922272,-0.002970713208439586,0.03472846454743303,1.5978136301267096,-0.011457535298582509,0.11139405157359691,0.8000023005365825,1.3003986692891417e-05,-9.762097549278741e-05
0.192,pd_only,0.011800060567776638,1.3188505055347197,0.007195377898769518,-4.5382180856134453e-07,1.496416204088066e-07,3.423385401079187e-05,-0.697582682646161,0.013224718293850959,-0.37643425368730615,0.000303013793499029,0.0015678386246446344,-0.03981178399624406,-2.211317881966802,-0.05856866574519093,1.2579064759596994,-0.000575175110233071,-0.0029698194204218894,0.03490134339240433,1.597790723056159,-0.011453535275319148,0.11194692332517409,0.8000023264873524,1.2975384932647901e-05,-9.802667842068107e-05
0.194,pd_only,0.011922452897782975,1.3260434417187519,0.007193328562086458,-4.5352264680250375e-07,1.4958087942039919e-07,3.421076199918427e-05,-0.6975562358923433,0.013223376908825699,-0.3785314444210325,0.00030614842895963773,0.0015673177303043681,-0.04002502904066764,-2.211434984278249,-0.05855115572333813,1.2647595754600194,-0.000581112961904344,-0.002968925835636528,0.035074169829523466,1.597767823983696,-0.01144953623147105,0.11249959997262321,0.8000023523809434,1.294679554378827e-05,-9.843128677703369e-05
0.196,pd_only,0.012044809648646324,1.3332343306797816,0.007191279661055597,-4.532236064865355e-07,1.495201579841179e-07,3.4187679432314714e-05,-0.6975297918234645,0.013222034439351774,-0.3806284053360939,0.0003092820229033513,0.001566796971856779,-0.04023820279082706,-2.2115520515776854,-0.058533649718278694,1.271610613928299,-0.000587049026812499,-0.00296803245407751,0.03524694387094949,1.597744932907362,-0.011445538167044104,0.11305208156495496,0.8000023782173805,1.2918218524795827e-05,-9.883480104257711e-05
0.198,pd_only,0.012167130824734324,1.340423172806101,0.007189231195682942,-4.529246875743734e-07,1.4945945608106934e-07,3.416460630714519e-05,-0.6975033504416915,0.013220690886484797,-0.382725136273759,0.0003124145756019165,0.0015662763492826023,-0.040451305265515936,-2.211669083873145,-0.0585161477297477,1.2784595918439012,-0.0005929833053639767,-0.002967139275738814,0.03541966552884003,1.597722049825198,-0.011441541082045838,0.11360436815117073,0.8000024039966882,1.2889653871164514e-05,-9.923722170862448e-05
0.2,pd_only,0.012289416430551888,1.3476099684869416,0.007187183165964685,-4.526258900269217e-07,1.4939877372583299e-07,3.4141542620814896e-05,-0.697476911749189,0.013219346251280593,-0.3848216370754605,0.0003155460873270417,0.001565755862562592,-0.04066433648352538,-2.2117860811726597,-0.05849864975747691,1.285306509686165,-0.0005989157979652057,-0.002966246300614542,0.03559233481535218,1.5976991747352451,-0.011437544976485999,0.11415645978028006,0.8000024297188914,1.2861101582642286e-05,-9.963854924787012e-05
0.202,pd_only,0.012411666470735215,1.3547947181123927,0.0071851355718394825,-4.523272138051574e-07,1.4933811088212522e-07,3.411848836999207e-05,-0.6974504757481195,0.013218000534793195,-0.38691790758280303,0.0003186765583503966,0.0015652355116774672,-0.04087729646364402,-2.211903043484262,-0.05848115580120157,1.2921513679343426,-0.0006048465050226029,-0.0029653535286985593,0.03576495174264342,1.5976763076355445,-0.01143354985036682,0.11470835650130365,0.8000024553840147,1.2832561654191922e-05,-0.00010003878415668579
0.20400000000000001,pd_only,0.012533880950044833,1.3619774220734826,0.007183088413352504,-4.5202865887003244e-07,1.4927746756247775e-07,3.409544355206284e-05,-0.6974240424406433,0.013216653738076602,-0.3890139476375436,0.00032180598894361253,0.001564715296607962,-0.04109018522465736,-2.2120199708159833,-0.05846366586065523,1.2989941670677203,-0.0006107754269425726,-0.0029644609599848446,0.03593751632286944,1.5976534485241372,-0.011429555703697138,0.11526005836322462,0.8000024809920829,1.280403408500326e-05,-0.00010043792691008204
0.20600000000000002,pd_only,0.012656059873358659,1.3691580807620913,0.007181041690485212,-4.517302251825277e-07,1.492168437523679e-07,3.40724081637279e-05,-0.6973976118289189,0.01321530586218493,-0.3911097570816076,0.0003249343793782822,0.001564195217334835,-0.041303002785348424,-2.2121368631758545,-0.05844617993556914,1.305834907565542,-0.0006167025641315074,-0.0029635685944673835,0.03611002856818625,1.597630597399064,-0.011425562536484109,0.11581156541505905,0.8000025065431207,1.2775518871291616e-05,-0.00010083597799775729
0.20800000000000002,pd_only,0.012778203245667492,1.3763366945708615,0.007178995403153766,-4.514319127036312e-07,1.491562394482781e-07,3.404938220206907e-05,-0.6973711839151026,0.01321395690817115,-0.39320533575707295,0.0003280617299259598,0.0015636752738388093,-0.041515749164497774,-2.2122537205719057,-0.05842869802567599,1.3126735899069477,-0.0006226279169957874,-0.0029626764321400417,0.036282488490749526,1.5976077542583667,-0.01142157034873224,0.11636287770582024,0.8000025320371527,1.2747016010818734e-05,-0.00010123293789751178
0.21,pd_only,0.012900311072069272,1.383513263893293,0.00717694955139114,-4.511337213943522e-07,1.4909565463948202e-07,3.40263656640146e-05,-0.6973447587013484,0.013212606877087724,-0.3953006835061882,0.00033118804085816104,0.001563155466100624,-0.041728424380882895,-2.212370543012167,-0.058411220130708125,1.3195102145710926,-0.0006285514859417807,-0.0029617844729966734,0.03645489610271387,1.5975849191000857,-0.01141757914044708,0.11691399528449711,0.8000025574742037,1.2718525501058061e-05,-0.000101628807095552
0.212,pd_only,0.01302238335776344,1.3906877891236764,0.007174904135184603,-4.5083565121570444e-07,1.4903508932388027e-07,3.400335854659543e-05,-0.6973183361898084,0.013211255769986798,-0.3973958001713544,0.0003343133124463631,0.0015626357941010214,-0.04194102845327876,-2.212487330504668,-0.05839374625039733,1.3263447820371013,-0.000634473271375843,-0.002960892717031128,0.036627251416233464,1.5975620919222624,-0.011413588911634966,0.11746491820009489,0.8000025828542984,1.2690047340093914e-05,-0.00010202358607693118
0.214,pd_only,0.013144420108046628,1.3978602706570462,0.0071728591544969605,-4.505377021287326e-07,1.489745434859179e-07,3.398036084672203e-05,-0.6972919163826325,0.013209903587919675,-0.39949068559513723,0.00033743754496200456,0.0015621162578207367,-0.04215356140045767,-2.2126040830574367,-0.058376276384475005,1.3331772927840395,-0.0006403932737043174,-0.002960001164237229,0.03679955444346206,1.5975392727229378,-0.01140959966230286,0.11801564650161717,0.8000026081774614,1.2661581523935163e-05,-0.0001024172753269256
0.216,pd_only,0.013266421328308495,1.4050307088891894,0.007170814609318366,-4.502398740944748e-07,1.4891401712889913e-07,3.395737256149576e-05,-0.6972654992819687,0.013208550331937019,-0.401585339620268,0.00034056073867648554,0.0015615968572404843,-0.042366023241189155,-2.212720800678502,-0.05835881053267327,1.3400077472909426,-0.0006463114933335349,-0.0029591098146087417,0.036971805196552895,1.597516461500153,-0.011405611392454773,0.11856618023807075,0.8000026334437175,1.2633128051033038e-05,-0.00010280987532250978
0.218,pd_only,0.013388387024026149,1.4121991042166522,0.0071687704996673636,-4.499421670739992e-07,1.4885351023778283e-07,3.3934393687753395e-05,-0.6972390848899626,0.013207196003089498,-0.4036797620896202,0.0003436828938611676,0.0015610775923410125,-0.0425784139942398,-2.2128374833758917,-0.05834134869472322,1.3468361460368532,-0.0006522279306698138,-0.002958218668139436,0.037144003687658494,1.5974936582519488,-0.011401624102095182,0.11911651945845314,0.8000026586530913,1.2604686917746856e-05,-0.00010320138655264813
0.22,pd_only,0.01351031720076145,1.419365457036641,0.007166726825480255,-4.4964458102837406e-07,1.4879302281257308e-07,3.3911424222590976e-05,-0.6972126732087577,0.013205840602426822,-0.40577395284624485,0.0003468040107873737,0.001560558463103053,-0.04279073367837388,-2.2129541311576326,-0.05832389087035525,1.3536624895007234,-0.00065814258611946,-0.002957327724823079,0.03731614992893103,1.5974708629763663,-0.011397637791228949,0.11966666421175867,0.8000026838056076,1.2576258122862356e-05,-0.0001035918094957169
0.222,pd_only,0.013632211864156167,1.4265297677470778,0.007164683586770312,-4.493471159186948e-07,1.487325548396244e-07,3.38884641628939e-05,-0.6971862642404957,0.013204484130998366,-0.40786791173335735,0.00034992408972638837,0.0015600394695073397,-0.04300298231235279,-2.2130707440317514,-0.05830643705929966,1.360486778161499,-0.0006640554600887667,-0.0029564369846533777,0.03748824393252227,1.5974480756714466,-0.011393652459862583,0.12021661454698915,0.8000027089012909,1.254784166216425e-05,-0.00010398114464201853
0.224,pd_only,0.013754071019928931,1.4336920367465347,0.007162640783498581,-4.4904977170607314e-07,1.4867210631082047e-07,3.386551350574085e-05,-0.697159857987316,0.013203126589852641,-0.4099616385943192,0.0003530431309494576,0.0015595206115346075,-0.04321515991493526,-2.213187322006274,-0.05828898726128707,1.3673090124980707,-0.0006699665529840146,-0.002955546447623999,0.03766028571058327,1.5974252963352307,-0.011389668107999079,0.12076637051314905,0.800002733940166,1.2519437533890457e-05,-0.00010436939246541046
0.226,pd_only,0.013875894673871703,1.440852264434247,0.007160598415662076,-4.487525483516101e-07,1.486116772315071e-07,3.384257224813436e-05,-0.6971334544513559,0.013201767980038621,-0.4120551332726578,0.0003561611347277888,0.001559001889165602,-0.04342726650487732,-2.2133038650892263,-0.05827154147604638,1.3741291929893062,-0.000675875865211472,-0.0029546561137286415,0.037832275275264435,1.5974025249657593,-0.01138568473564319,0.12131593215923084,0.8000027589222575,1.2491045735972048e-05,-0.00010475655345400383
0.228,pd_only,0.013997682831846535,1.4480104512100813,0.007158556483238804,-4.4845544581643857e-07,1.4855126758578714e-07,3.381964038688771e-05,-0.6971070536347507,0.013200408302603694,-0.4141483956120665,0.00035927810133255084,0.0015584833023810339,-0.043639302100932434,-2.213420373288633,-0.0582540997033067,1.3809473201140297,-0.0006817833971773939,-0.0029537659829609445,0.038004212638716006,1.5973797615610736,-0.011381702342799276,0.12186529953423578,0.80000278384759,1.246266626426033e-05,-0.00010514262809246193
0.23,pd_only,0.014119435499782099,1.4551665974745323,0.007156514986220837,-4.481584640617018e-07,1.4849087736839015e-07,3.379671791911406e-05,-0.6970806555396335,0.013199047558594756,-0.4162414254563943,0.0003623940310348741,0.0015579648511616332,-0.04385126672185097,-2.2135368466125187,-0.058236661942798806,1.38776339435104,-0.0006876891492880228,-0.002952876055314444,0.038176097813087485,1.5973570061192146,-0.011377720929472396,0.12241447268715758,0.8000028087161882,1.2434299117029563e-05,-0.00010552761685712901
0.232,pd_only,0.014241152683671127,1.4623207036286952,0.0071544739245898185,-4.478616030485572e-07,1.4843050657229828e-07,3.3773804841778676e-05,-0.6970542601681354,0.013197685749058632,-0.41833422264964315,0.0003655089241058504,0.0015574465354881413,-0.044063160386380786,-2.213653285068907,-0.058219228194250836,1.3945774161790996,-0.0006935931219495884,-0.00295198633078279,0.03834793081052735,1.5973342586382233,-0.011373740495664201,0.12296345166699904,0.8000028335280768,1.240594429227855e-05,-0.00010591152023182071
0.234,pd_only,0.014362834389568174,1.469472770074239,0.007152433298314128,-4.475648627381706e-07,1.483701551932955e-07,3.37509011518724e-05,-0.6970278675223853,0.013196322875041303,-0.4204267870359828,0.00036862278081653294,0.0015569283553412696,-0.04427498311326722,-2.213769688665822,-0.058201798457392415,1.4013893860769189,-0.0006994953155683073,-0.002951096809359488,0.03851971164318439,1.5973115191161407,-0.011369761041378545,0.12351223652274036,0.8000028582832803,1.2377601786795241e-05,-0.0001062943387036917
0.23600000000000002,pd_only,0.014484480623585651,1.4766227972134547,0.007150393107427325,-4.4726824309173e-07,1.4830982322031438e-07,3.372800684634752e-05,-0.6970014776045101,0.013194958937588437,-0.4225191184597487,0.00037173560143793645,0.001556410310701754,-0.044486734921252546,-2.2138860574112855,-0.05818437273195118,1.4081993045232215,-0.0007053957305503836,-0.0029502074910381197,0.03869144032320615,1.5972887875510073,-0.011365782566620356,0.12406082730337831,0.8000028829818235,1.2349271597094486e-05,-0.0001066760727528328
0.23800000000000002,pd_only,0.014606091391892534,1.4837707854491309,0.007148353351850241,-4.469717440704235e-07,1.4824951065326235e-07,3.3705121922253994e-05,-0.6969750904166346,0.013193593937745576,-0.424611216765423,0.00037484738624103713,0.0015558924015503424,-0.044698415829076604,-2.2140023913133207,-0.058166951017653935,1.4150071719966326,-0.000711294367302008,-0.0029493183758122253,0.03886311686274023,1.5972660639408645,-0.011361805071391985,0.12460922405792053,0.8000029076237309,1.2320953722112548e-05,-0.00010705672285824243
0.24,pd_only,0.014727666700711631,1.4909167351846282,0.007146314031595026,-4.466753656354724e-07,1.48189217475547e-07,3.36822463764882e-05,-0.6969487059608815,0.013192227876556604,-0.4267030817976637,0.0003779581354967726,0.0015553746278677326,-0.04491002585547671,-2.2141186903799492,-0.05814953331423012,1.4218129889757685,-0.0007171912262293584,-0.0029484294636751905,0.039034741273933596,1.5972433482837531,-0.011357828555695669,0.12515742683535075,0.8000029322090273,1.2292648157786213e-05,-0.00010743628950638423
0.242,pd_only,0.014849206556316592,1.4980606468238657,0.007144275146672213,-4.4637910774809626e-07,1.481289436880565e-07,3.365938020618013e-05,-0.6969223242393714,0.013190860755065766,-0.4287947134012655,0.00038106784947604193,0.0015548569896346584,-0.04512156501918688,-2.214234954619192,-0.05813211962140747,1.4286167559392449,-0.0007230863077385994,-0.002947540754620477,0.039206313568931894,1.597220640577714,-0.011353853019535837,0.1257054356846521,0.8000029567377371,1.2264354901567329e-05,-0.00010781477317616482
0.244,pd_only,0.014970710965031305,1.505202520771231,0.007142236697016179,-4.4608297036951723e-07,1.4806868928950878e-07,3.363652340821491e-05,-0.6968959452542227,0.013189492574316687,-0.4308861114212057,0.0003841765284497056,0.0015543394868318483,-0.04533303333893884,-2.21435118403907,-0.05811470993891192,1.4354184733655813,-0.0007289796122358826,-0.0029466522486416057,0.03937783375988084,1.5971979408207881,-0.011349878462912593,0.1262532506548297,0.800002981209885,1.2236073952429646e-05,-0.00010819217434811014
0.246,pd_only,0.015092179933226165,1.5123423574316532,0.007140198682647834,-4.457869534609997e-07,1.48008454258776e-07,3.3613675979508254e-05,-0.696869569007552,0.01318812333535201,-0.43297727570261285,0.00038728417268858565,0.0015538221194400276,-0.045544430833461574,-2.214467378647603,-0.05809730426647095,1.442218141733305,-0.0007348711401273464,-0.002945763945731908,0.03954930185892611,1.5971752490110165,-0.011345904885830621,0.12680087179486163,0.8000030056254956,1.2207805306331345e-05,-0.00010856849350883378
0.248,pd_only,0.01521361346731714,1.5194801572105263,0.007138161103521217,-4.4549105698380385e-07,1.4794823859790895e-07,3.3590837917257106e-05,-0.6968431955014736,0.0131867530392146,-0.4350682060907617,0.0003903907824634655,0.0015533048874399264,-0.045755757521481324,-2.2145835384528105,-0.05807990260381054,1.4490157615208796,-0.000740760891819116,-0.002944875845884784,0.03972071787821184,1.59715256514644,-0.011341932288291416,0.1273482991537432,0.8000030299845936,1.217954896075746e-05,-0.00010894373113732794
0.25,pd_only,0.01533501157376424,1.5266159205137253,0.007136123959622375,-4.45195280899216e-07,1.4788804229392102e-07,3.356800921833358e-05,-0.6968168247380997,0.013185381686945956,-0.4371589024311164,0.00039349635804509,0.001552787790812266,-0.0459670134217217,-2.214699663462712,-0.05806250495065746,1.4558113332067264,-0.0007466488677173031,-0.0029439879490935675,0.03989208182988219,1.5971298892250994,-0.011337960670297766,0.12789553278045943,0.8000030542872034,1.2151304912898703e-05,-0.00010931788771425133
0.252,pd_only,0.0154563742590689,1.5337496477476276,0.007134087250967456,-4.4489962516852407e-07,1.4782786534598297e-07,3.354518987982239e-05,-0.6967904567195405,0.013184009279586814,-0.43924936456926433,0.0003966008997041655,0.0015522708295377383,-0.04617819855290349,-2.2148157536853255,-0.05804511130673914,1.4626048572692754,-0.0007525350682280062,-0.0029431002553515486,0.0400633937260805,1.5971072212450357,-0.011333990031850186,0.12844257272400722,0.8000030785333497,1.2123073160560832e-05,-0.00010969096371908537
0.254,pd_only,0.015577701529772376,1.5408813393190586,0.0071320509775316425,-4.4460408975302034e-07,1.4776770775187263e-07,3.3522379898638164e-05,-0.6967640914479042,0.013182635818179187,-0.4413395923509686,0.0003997044077113597,0.0015517540035971066,-0.046389312933744445,-2.214931809128669,-0.05802772167177918,1.4693963341869085,-0.0007584194937573104,-0.002942212764652119,0.040234653578949474,1.5970845612042899,-0.011330020372951029,0.12898941903336114,0.8000031027230571,1.2094853701247467e-05,-0.00011006295963599213
0.256,pd_only,0.015698993392455018,1.5480109956352455,0.007130015139253319,-4.443086746140148e-07,1.4770756950276105e-07,3.349957927171541e-05,-0.6967377289252966,0.013181261303762865,-0.44342958562217005,0.0004028068823373018,0.001551237312971066,-0.04660035658296045,-2.21504782980076,-0.05801033604550312,1.4761857644379175,-0.0007643021447112875,-0.0029413254769885162,0.04040586140063203,1.5970619091009026,-0.011326051693603277,0.12953607175751045,0.8000031268563501,1.2066646532162915e-05,-0.00011043387594570465
0.258,pd_only,0.01582024985373377,1.5551386171038968,0.007127979736162552,-4.440133797128558e-07,1.476474505795171e-07,3.347678799608253e-05,-0.6967113691538218,0.013179885737377162,-0.4455193442289471,0.0004059083238525825,0.001550720757640338,-0.04681132951926392,-2.215163815709615,-0.05799295442763803,1.4829731485006128,-0.0007701830214959953,-0.002940438392353914,0.04057701720326972,1.597039264932915,-0.011322083993803772,0.13008253094545308,0.8000031509332534,1.2038451651123645e-05,-0.00011080371312997917
0.26,pd_only,0.015941470920261692,1.5622642041331392,0.00712594476823636,-4.4371820501089004e-07,1.4758735098285914e-07,3.345400606891523e-05,-0.6966850121355816,0.013178509120061854,-0.44760886801753164,0.0004090087325277538,0.0015502043375856555,-0.04702223176136483,-2.215279766863251,-0.0579755768179067,1.4897584868532672,-0.0007760621245174786,-0.002939551510741649,0.04074812099900335,1.597016628698368,-0.011318117273557547,0.13062879664614516,0.8000031749537915,1.2010269053842652e-05,-0.00011117247167080018
0.262,pd_only,0.016062656598725356,1.5693877571315156,0.007123910235459854,-4.43423150469461e-07,1.475272707145163e-07,3.3431233487111175e-05,-0.6966586578726759,0.013177131452855562,-0.44969815683433045,0.0004121081086333293,0.0015496880527877265,-0.047233063327970636,-2.215395683269683,-0.057958203216034454,1.4965417799741103,-0.0007819394541817683,-0.002938664832144845,0.04091917279997425,1.5969940003953023,-0.01131415153286462,0.13117486890858937,0.800003198917989,1.198209873934769e-05,-0.00011154015204395865
0.264,pd_only,0.01618380689584418,1.5765092765079536,0.00712187613779548,-4.4312821604994563e-07,1.4746720975769725e-07,3.3408470247553654e-05,-0.6966323063672023,0.013175752736796277,-0.4517872105259031,0.0004152064524397838,0.001549171903227273,-0.04744382423778577,-2.2155115649369264,-0.05794083362174524,1.5033230283413173,-0.0007878150108948818,-0.002937778356556703,0.041090172618322124,1.5969713800217589,-0.011310186771725721,0.13172074778176882,0.8000032228258704,1.195394070455238e-05,-0.0001119067547362842
0.266,pd_only,0.01630492181836984,1.583628762671768,0.007119842475220376,-4.4283340171372527e-07,1.4740716811018826e-07,3.338571634738789e-05,-0.6966059576212564,0.013174372972921657,-0.45387602893896006,0.0004183037642175538,0.001548655888884998,-0.04765451450951214,-2.2156274118729957,-0.057923468034763545,1.5101022324330233,-0.0007936887950628224,-0.002936892083970335,0.04126112046618667,1.5969487675757785,-0.011306222990141697,0.13226643331465912,0.8000032466774604,1.1925794946081359e-05,-0.00011227228022614986
0.268,pd_only,0.01642600137308399,1.5907462160327044,0.007117809247761711,-4.4253870742220565e-07,1.4734714575980256e-07,3.336297178355539e-05,-0.6965796116369319,0.013172992162268792,-0.455964611920385,0.00042140004423703705,0.0015481400097416326,-0.047865134161848746,-2.215743224085905,-0.05790610645481251,1.5168793927273683,-0.0007995608070915802,-0.0029360060143789023,0.04143201635570669,1.5969261630554024,-0.011302260188110536,0.13281192555624752,0.8000032704727833,1.189766146207672e-05,-0.00011263672899077277
0.27,pd_only,0.016547045566797775,1.597861637000848,0.007115776455367543,-4.4224413313679146e-07,1.4728714270708262e-07,3.334023655313922e-05,-0.6965532684163201,0.01317161030587418,-0.4580529593172044,0.0004244952927685928,0.0015476242657778765,-0.04807568321349218,-2.2158590015836683,-0.0578887488816163,1.5236545097024254,-0.0008054310473871311,-0.002935120147775439,0.04160286029902082,1.596903566458671,-0.011298298365634906,0.13335722455549592,0.8000032942118638,1.1869540249455538e-05,-0.00011300010151343989
0.272,pd_only,0.016668054406350476,1.604975025986681,0.007113744098048922,-4.4194967881890924e-07,1.4722715894111956e-07,3.3317510653044155e-05,-0.6965269279615106,0.013170227404774153,-0.4601410709766231,0.0004275895100825417,0.0015471086569744665,-0.048286161683136014,-2.2159747443742983,-0.057871395314896296,1.5304275838362522,-0.0008112995163554374,-0.0029342344841531117,0.041773652308266566,1.5968809777836257,-0.011294337522714623,0.1339023303614007,0.8000033178947263,1.184143130575386e-05,-0.00011336239827253808
0.274,pd_only,0.01678902789860786,1.6120863834010186,0.00711171217576387,-4.4165534442998727e-07,1.4716719446098225e-07,3.3294794080337066e-05,-0.6965005902745907,0.013168843460004123,-0.4622289467459857,0.0004306826964491659,0.0015465931833120957,-0.048496569589471517,-2.216090452465807,-0.05785404575437648,1.537198615606851,-0.0008171662144024471,-0.0029333490235048717,0.041944392395581793,1.596858397028307,-0.011290377659346974,0.13444724302293287,0.8000033415213956,1.181333462909815e-05,-0.00011372361974893011
0.276,pd_only,0.016909966050462737,1.6191957096550116,0.007109680688481188,-4.413611299314917e-07,1.4710724924779e-07,3.327208683194523e-05,-0.6964742553576455,0.013167458472598707,-0.4643165864728015,0.0004337748521387089,0.00154607784477148,-0.04870690695118676,-2.2162061258662065,-0.057836700199779545,1.5439676054921705,-0.0008230311419340946,-0.0029324637658237488,0.04211508057310265,1.5968358241907559,-0.011286418775534057,0.13499196258906188,0.8000033650918961,1.1785250215489707e-05,-0.00011408376642806087
0.278,pd_only,0.017030868868832733,1.6263030051602012,0.007107649636232035,-4.4106703528487953e-07,1.4704732330608792e-07,3.324938890505028e-05,-0.6964479232127583,0.01316607244359238,-0.4664039900047375,0.0004368659774213755,0.0015455626413333143,-0.04891717378696738,-2.2163217645835083,-0.05781935865082823,1.5507345539701727,-0.0008288942993563,-0.0029315787111027216,0.04228571685296533,1.5968132592690134,-0.011282460871274049,0.13553648910877575,0.8000033886062522,1.1757178062461492e-05,-0.00011444283878243367
0.28,pd_only,0.01715173636065944,1.6334082703284505,0.007105619018986011,-4.407730604516285e-07,1.4698741662550463e-07,3.3226700296505135e-05,-0.6964215938420102,0.013164685374019642,-0.4684911571896274,0.0004399560725673322,0.0015450475729783537,-0.04912737011549606,-2.216437368625723,-0.057802021107242474,1.5574994615187678,-0.0008347556870749697,-0.0029306938593348514,0.04245630124730533,1.5967907022611203,-0.011278503946568336,0.13608082263103727,0.8000034120644886,1.1729118168129994e-05,-0.00011480083729289894
0.28200000000000003,pd_only,0.017272568532907897,1.6405115055719042,0.007103588836682431,-4.404792053932386e-07,1.4692752919497006e-07,3.320402100337322e-05,-0.6963952672474804,0.013163297264913035,-0.4705780878754563,0.00044304513784670674,0.0015445326396872623,-0.0493374959554535,-2.21655293800086,-0.057784687568746135,1.5642623286157837,-0.0008406153054959955,-0.0029298092105129506,0.042626833768258196,1.5967681531651174,-0.011274548001411653,0.13662496320483644,0.8000034354666297,1.1701070529406954e-05,-0.0001151577624426412
0.28400000000000003,pd_only,0.017393365392566213,1.6476127113030659,0.007101559089343515,-4.401854700712054e-07,1.4686766101660034e-07,3.318135102272951e-05,-0.6963689434312458,0.013161908117306317,-0.4726647819103506,0.0004461331735295883,0.001544017841440787,-0.04954755132551662,-2.2166684727169303,-0.05776735803505811,1.571023155739061,-0.0008464731550252557,-0.002928924764630054,0.04279731442795757,1.5967456119790457,-0.01127059303580704,0.13716891087912442,0.8000034588127,1.1673035143787379e-05,-0.00011551361471002602
0.28600000000000003,pd_only,0.017514126946643446,1.65471188793475,0.007099529776951803,-4.398918544470447e-07,1.4680781208033343e-07,3.315869035146403e-05,-0.6963426223953814,0.01316051793223139,-0.4747512391426225,0.0004492201798860275,0.001543503178219607,-0.04975753624436063,-2.216783972781942,-0.05775003250590094,1.5777819433663913,-0.0008523292360686136,-0.002928040521678949,0.042967743238538,1.5967230787009463,-0.011266639049750678,0.13771266570289387,0.800003482102724,1.1645012008475392e-05,-0.00011586839457353152
0.28800000000000003,pd_only,0.017634853202170238,1.661809035880061,0.007097500899475785,-4.3959835848228904e-07,1.467479823778416e-07,3.313603898663891e-05,-0.6963163041419599,0.013159126710719926,-0.47683745942072703,0.0004523061571860364,0.001542988650004435,-0.049967450730657205,-2.216899438203904,-0.05773271098099513,1.5845386919755222,-0.0008581835490319187,-0.0029271564816525392,0.043138120212132106,1.5967005533288599,-0.011262686043241247,0.13825622772509763,0.8000035053367263,1.161700112126041e-05,-0.0001162221025126928
0.29,pd_only,0.01775554416619704,1.6689041555524207,0.007095472456917975,-4.3930498213849046e-07,1.4668817189928607e-07,3.311339692529334e-05,-0.6962899886730523,0.013157734453803284,-0.47892344259328457,0.0004553911056995884,0.0015424742567759784,-0.05017729480307577,-2.217014868990824,-0.057715393460061444,1.591293402044181,-0.000864036094321006,-0.0029262726445436495,0.04330844536087279,1.5966780358608272,-0.011258734016275964,0.13879959699471217,0.8000035285147312,1.158900247872232e-05,-0.0001165747390093861
0.292,pd_only,0.017876199845793906,1.6759972473655242,0.007093444449244054,-4.3901172537720365e-07,1.4662838064339538e-07,3.309076416448923e-05,-0.6962636759907272,0.013156341162512637,-0.4810091885090623,0.0004584750256966183,0.0015419599985149579,-0.05038706848028293,-2.2171302651507094,-0.05769807994281822,1.5980460740500442,-0.0008698868723416963,-0.0029253890103451536,0.04347871869689207,1.5966555262948896,-0.011254782968855945,0.13934277356070107,0.8000035516367634,1.1561016078041328e-05,-0.00011692630453842909
0.294,pd_only,0.017996820248049925,1.683088311733341,0.007091416876426618,-4.3871858815999877e-07,1.4656860860245144e-07,3.3068140701168756e-05,-0.6962373660970514,0.013154946837877119,-0.4830946970169935,0.00046155791744702235,0.0015414458752020382,-0.050596771780942774,-2.217245626691567,-0.05768077042898808,1.6047967084707375,-0.0008757358834997958,-0.0029245055790497157,0.04364894023232181,1.5966330246290876,-0.011250832900976462,0.13988575747204185,0.8000035747028472,1.153304191788295e-05,-0.00011727679957926118
0.296,pd_only,0.018117405380072345,1.690177349070165,0.007089389738495501,-4.384255704484551e-07,1.4650885577184248e-07,3.304552653236558e-05,-0.6962110589940896,0.013153551480927582,-0.48517996796616036,0.00046463978122065824,0.0015409318868179543,-0.050806404723716024,-2.217360953621404,-0.057663464918287936,1.611545305783903,-0.0008815831282010962,-0.0029236223506502236,0.04381910997929217,1.5966105308614624,-0.011246883812637032,0.14042854877769384,0.8000035977130072,1.1505079993900776e-05,-0.00011762622461504254
0.298,pd_only,0.01823795524898578,1.6972643597905197,0.00708736303539213,-4.381326722041805e-07,1.46449122137302e-07,3.302292165507061e-05,-0.6961847546839043,0.013152155092692493,-0.48726500120581157,0.0004677206172873451,0.0015404180333434036,-0.051015967327261526,-2.217476245948225,-0.05764616341043885,1.618291866467099,-0.0008874286068513749,-0.0029227393251393154,0.043989227949934234,1.5965880449900547,-0.01124293570383281,0.14097114752662665,0.8000036206672678,1.1477130305045148e-05,-0.00011797458011910615
0.3,pd_only,0.018358469861931397,1.7043493443092168,0.007085336767120841,-4.3783989338879574e-07,1.4638940769238866e-07,3.3000326066412215e-05,-0.6961584531685558,0.013150757674200658,-0.4893497965853487,0.00047080042591686325,0.0015399043147590913,-0.051225459610235,-2.217591503680035,-0.05762886590515875,1.6250363909978718,-0.0008932723198563945,-0.002921856502509763,0.044159294156377135,1.5965655670129055,-0.011238988574562401,0.14151355376779906,0.8000036435656536,1.1449192847242466e-05,-0.00011832186657575146
0.302,pd_only,0.018478949226067697,1.711432303041283,0.00708331093362184,-4.375472339639099e-07,1.4632971244291154e-07,3.297773976341022e-05,-0.6961321544501029,0.013149359226480037,-0.491434353954338,0.00047387920737895463,0.0015393907310456982,-0.051434881591289526,-2.2177067268248396,-0.05761157240216741,1.631778879853683,-0.0008991142676219028,-0.002920973882754186,0.044329308610750406,1.5965430969280558,-0.011235042424823443,0.14205576755017602,0.8000036664081888,1.1421267618809206e-05,-0.00011866808445940268
0.304,pd_only,0.01859939334856788,1.7185132364020734,0.007081285534950675,-4.372546938911742e-07,1.462700363678458e-07,3.2955162742912034e-05,-0.6961058585306018,0.01314795975055824,-0.49351867316248477,0.00047695696194332253,0.0015388772821839372,-0.051644233289075206,-2.2178219153906418,-0.05759428290118198,1.6385193335120396,-0.0009049544505536335,-0.0029200914658653303,0.0444992713251822,1.5965206347335466,-0.011231097254611813,0.1425977889227232,0.800003689194898,1.1393354615965643e-05,-0.00011901323424960339
0.306,pd_only,0.018719802236621348,1.7255921448071023,0.00707926057100262,-4.369622731322319e-07,1.4621037947117071e-07,3.2932595002144095e-05,-0.6960795654121069,0.013146559247462462,-0.49560275405966725,0.00048003368987963155,0.0015383639681545052,-0.05185351472223983,-2.2179370693854454,-0.057576997401920946,1.6452577524503156,-0.0009107928690573051,-0.0029192092518357713,0.04466918231180099,1.5964981804274188,-0.011227153063923856,0.1431396179343975,0.8000037119258057,1.1365453837310853e-05,-0.00011935731642195328
0.308,pd_only,0.018840175897432063,1.732669028672199,0.007077236041832692,-4.366699716487371e-07,1.4615074174740063e-07,3.291003653798216e-05,-0.6960532750966705,0.013145157718218945,-0.4976865964959177,0.0004831093914575077,0.0015378507889380866,-0.05206272590942827,-2.2180521888172535,-0.05755971590410299,1.651994137145925,-0.0009166295235386213,-0.0029183272406580947,0.044839041582733774,1.5964757340077131,-0.011223209852758221,0.1436812546341526,0.8000037346009362,1.1337565280196262e-05,-0.00011970033146156721
0.31,pd_only,0.018960514338218295,1.7397438884134184,0.007075211947411013,-4.363777894023883e-07,1.4609112317439054e-07,3.288748734743536e-05,-0.6960269875863427,0.013143755163854234,-0.4997702003214236,0.00048618406694653856,0.0015373377445154165,-0.05227186686928258,-2.2181672736940685,-0.0575424384074437,1.6587284880762305,-0.0009224644144032713,-0.002917445432324969,0.04500884915010721,1.5964532954724708,-0.011219267621109728,0.14422269907096474,0.8000037572203141,1.1309688940793723e-05,-0.00012004227984412857
0.312,pd_only,0.019080817566211817,1.7468167244470263,0.007073188287701035,-4.360857263548789e-07,1.4603152375472225e-07,3.28649474277496e-05,-0.696000702883172,0.0131423515853929,-0.5018535653865367,0.0004892577166162728,0.0015368248348671446,-0.052480937620442696,-2.218282324023892,-0.057525164911662284,1.6654608057185376,-0.000928297542056929,-0.002916563826828839,0.04517860502604795,1.596430864819733,-0.011215326368974543,0.14476395129378,0.8000037797839638,1.1281824816748761e-05,-0.00012038316204504336
0.314,pd_only,0.019201085588657546,1.7538875371895282,0.007071165062696811,-4.3579378246789943e-07,1.4597194348973212e-07,3.28424167758242e-05,-0.6959744209892043,0.013140946983860664,-0.5039366915417409,0.0004923303407362208,0.0015363120599739919,-0.05268993818154483,-2.2183973398147248,-0.05750789541647401,1.6721910905501338,-0.0009341289069052537,-0.0029156824241623395,0.045348309222680905,1.5964084420475402,-0.011211386096348214,0.1453050113515511,0.8000038022919096,1.1253972906299488e-05,-0.00012072297854117137
0.316,pd_only,0.019321318412814224,1.7609563270576076,0.00706914227233775,-4.3550195770316536e-07,1.4591238236703595e-07,3.281989538857571e-05,-0.6959481419064837,0.013139541360281674,-0.5060195786377052,0.0004954019395758541,0.001535799419816641,-0.05289886857122336,-2.218512321074568,-0.0574906299215964,1.6789193430482148,-0.0009399585093538895,-0.0029148012243179018,0.045517961752131644,1.5963860271539336,-0.011207446803227607,0.14584587929323886,0.800003824744176,1.1226133206436094e-05,-0.0001210617298161836
0.318,pd_only,0.019441516045952362,1.7680230944682434,0.0070671199166849556,-4.352102520224227e-07,1.4585284037133377e-07,3.2797383263114724e-05,-0.6959218656370523,0.013138134715679433,-0.5081022265252451,0.0004984725134046056,0.0015352869143757794,-0.05310772880810948,-2.218627267811421,-0.05747336842674582,1.685645563690025,-0.0009457863498084656,-0.0029139202272880395,0.0456875626265241,1.5963636201369544,-0.011203508489606544,0.14638655516779953,0.8000038471407874,1.119830571385838e-05,-0.00012139941634431851
0.32,pd_only,0.01956167849535512,1.775087839838573,0.0070650979956666205,-4.3491866538741377e-07,1.457933175044659e-07,3.2774880396595146e-05,-0.6958955921829502,0.013136727051077464,-0.5101846350553267,0.0005015420624918699,0.001534774543632097,-0.05331651891083175,-2.2187421800332845,-0.057456110931638674,1.6923697529527175,-0.0009516124286745959,-0.0029130394330651736,0.045857111857982205,1.5963412209946435,-0.011199571155481926,0.14692703902417417,0.8000038694817683,1.1170490425834407e-05,-0.0001217360386030939
0.322,pd_only,0.019681805768316702,1.7821505635859758,0.007063076509300821,-4.3462719775989477e-07,1.4573381375950401e-07,3.2752386785930576e-05,-0.6958693215462152,0.013135318367499045,-0.512266804079068,0.0005046105871070025,0.0015342623075663105,-0.05352523889801605,-2.2188570577481563,-0.057438857435988686,1.6990919113134457,-0.0009574367463578796,-0.002912158841641831,0.04602660945862892,1.5963188297250417,-0.011195634800849273,0.14746733091132475,0.8000038917671429,1.1142687340226447e-05,-0.00012207159706785966
0.324,pd_only,0.019801897872143072,1.7892112661279769,0.00706105545751162,-4.3433584910163833e-07,1.4567432912823225e-07,3.2729902428158524e-05,-0.6958430537288832,0.013133908665965687,-0.5143487334477695,0.0005076780875193207,0.0015337502061590752,-0.0537338887882859,-2.218971900964035,-0.057421607939513696,1.7058120392492564,-0.0009632593032639002,-0.002911278453010284,0.04619605544058737,1.5962964463261904,-0.011191699425702842,0.1480074308782064,0.8000039139969358,1.1114896454557554e-05,-0.00012240609221856303
0.326,pd_only,0.019921954814151425,1.7962699478823636,0.007059034840345617,-4.3404461937445115e-07,1.456148635935853e-07,3.270742732033582e-05,-0.6958167887329882,0.013132497947499136,-0.5164304230128585,0.0005107445639981029,0.0015332382393910978,-0.05394246860026135,-2.219086709688919,-0.057404362441928265,1.7125301372372372,-0.0009690800997982261,-0.002910398267162978,0.04636544981597871,1.5962740707961303,-0.011187765030037053,0.14854733897375672,0.8000039361711714,1.10871177651377e-05,-0.00012273952453379437
0.328,pd_only,0.020041976601669186,1.8033266092671008,0.0070570146577677295,-4.3375350854010796e-07,1.455554171715967e-07,3.26849614596459e-05,-0.695790526560562,0.013131086213121592,-0.5185118726259248,0.000513810016812589,0.0015327264072430805,-0.05415097835256038,-2.219201483930805,-0.057387120942945444,1.7192462057544167,-0.0009748991363664108,-0.002909518284092324,0.046534792596924654,1.5962517031329027,-0.011183831613847466,0.14908705524693094,0.8000039582898739,1.105935127065463e-05,-0.00012307189448729168
0.33,pd_only,0.0201619632420338,1.8103812507003207,0.007054994909738422,-4.334625165604223e-07,1.4549598984283532e-07,3.2662504842806285e-05,-0.6957642672136343,0.013129673463853022,-0.5205930821387427,0.0005168744462319804,0.0015322147096956797,-0.0543594180637982,-2.2193162236976898,-0.05736988344228124,1.725960245277755,-0.000980716413373992,-0.00290863850379055,0.04670408379554627,1.5962293433345485,-0.011179899177128314,0.14962657974667318,0.8000039803530679,1.1031596967660842e-05,-0.00012340320256008363
0.332,pd_only,0.020281914742593252,1.8174338726003416,0.007052975596239649,-4.33171643397235e-07,1.4543658159364081e-07,3.264005746703409e-05,-0.6957380106942328,0.013128259700713536,-0.5226740514031972,0.0005199378525254396,0.0015317031467296004,-0.05456778775258678,-2.219430928997569,-0.057352649939650065,1.732672256284188,-0.0009865319312264919,-0.002907758926249979,0.046873323423963054,1.5962069913991088,-0.011175967719874773,0.15016591252193212,0.8000040023607775,1.1003854853292848e-05,-0.00012373344922687833
0.334,pd_only,0.020401831110704885,1.8244844753856944,0.007050956717284084,-4.32880889012367e-07,1.4537719243398863e-07,3.261761932946783e-05,-0.6957117570043834,0.01312684492472291,-0.5247547802713619,0.0005230002359620906,0.001531191718325497,-0.05477608743753598,-2.2195455998384386,-0.057335420434766325,1.7393822392506366,-0.0009923456903294177,-0.0029068795514628886,0.04704251149429463,1.5961846473246246,-0.011172037242077605,0.15070505362165557,0.8000040243130273,1.097612492527868e-05,-0.00012406263496249955
0.336,pd_only,0.020521712353735466,1.8315330594750656,0.007048938272831862,-4.32590253367688e-07,1.4531782233948516e-07,3.259519042691352e-05,-0.6956855061461096,0.013125429136900395,-0.5268352685954477,0.0005260615968110188,0.0015306804244640945,-0.054984317137252305,-2.219660236228293,-0.05731819492734248,1.7460901946539673,-0.0009981576910882608,-0.0029060003794215846,0.04721164801865986,1.5961623111091372,-0.011168107743735048,0.15124400309477481,0.8000040462098417,1.0948407180097808e-05,-0.0001243907602463575
0.338,pd_only,0.020641558479061052,1.838579625287315,0.0070469202628634705,-4.32299736425044e-07,1.452584713219948e-07,3.257277075666225e-05,-0.695659258121433,0.013124012338264572,-0.5289155162278357,0.0005291219353412708,0.0015301692651260436,-0.05519247687034044,-2.219774838175127,-0.057300973417092185,1.752796122971001,-0.0010039679339084973,-0.002905121410118266,0.047380733009177334,1.5961399827506875,-0.011164179224837048,0.15178276099024746,0.8000040680512449,1.0920701616620009e-05,-0.00012471782555286822
0.34,pd_only,0.020761369494066095,1.8456241732414909,0.0070449026873795366,-4.3200933814633277e-07,1.4519913935560775e-07,3.255036031549559e-05,-0.6956330129323733,0.013122594529833264,-0.5309955230210578,0.0005321812518218549,0.0015296582402920416,-0.05540056665540148,-2.2198894056869345,-0.057283755903729146,1.7595000246785442,-0.0010097764191955875,-0.0029042426435450953,0.047549766477964515,1.5961176622473168,-0.011160251685380297,0.1523213273570007,0.8000040898372613,1.0893008230659048e-05,-0.0001250438313637885
0.342,pd_only,0.020881145406144205,1.8526667037567934,0.007042885546347171,-4.317190584934309e-07,1.4513982645093987e-07,3.252795910072811e-05,-0.6956067705809481,0.013121175712624061,-0.533075288827795,0.0005352395465217404,0.0015291473499427436,-0.05560858651103434,-2.2200039387717085,-0.057266542386966636,1.7662019002533502,-0.0010155831473549761,-0.0029033640796942567,0.04771874843713819,1.596095349597066,-0.011156325125354987,0.15285970224398443,0.8000041115679154,1.0865327020437561e-05,-0.00012536877814865106
0.34400000000000003,pd_only,0.021000886222696465,1.859707217252617,0.00704086883977871,-4.314288974282499e-07,1.4508053259051119e-07,3.2505567109161316e-05,-0.6955805310691728,0.013119755887654135,-0.5351548135008847,0.0005382968197098581,0.0015286365940588547,-0.05581653645583475,-2.2201184374374416,-0.057249332866515575,1.772901750172168,-0.001021388118792092,-0.0029024857185579746,0.047887678898814824,1.5960730447979765,-0.01115239954475662,0.15339788570012705,0.8000041332432314,1.0837657982922313e-05,-0.00012569266638884463
0.34600000000000003,pd_only,0.021120591951132157,1.8667457141484562,0.0070388525675975835,-4.3113885491272057e-07,1.4502125776466896e-07,3.248318433799284e-05,-0.6955542943990609,0.013118335055939468,-0.5372340968933275,0.0005413530716551002,0.0015281259726210434,-0.056024416508396326,-2.2202329016921256,-0.05723212734208959,1.7795995749116433,-0.0010271913339123487,-0.0029016075601282867,0.04805655787511061,1.5960507478480894,-0.011148474943578216,0.15393587777437245,0.8000041548632336,1.0810001115655463e-05,-0.00012601549655851392
0.34800000000000003,pd_only,0.021240262598868836,1.8737821948639979,0.0070368367298202185,-4.308489309087595e-07,1.449620019805488e-07,3.246081078431228e-05,-0.695528060572624,0.013116913218496805,-0.5393131388582759,0.0005444083026263202,0.00152761548560999,-0.05623222668730953,-2.2203473315437523,-0.057214925813399764,1.786295374948422,-0.0010329927931211434,-0.0029007296043973463,0.04822538537814018,1.5960284587454459,-0.01114455132181123,0.1544736785156577,0.8000041764279464,1.0782356415858303e-05,-0.0001263372691341052
0.35000000000000003,pd_only,0.021359898173331365,1.880816659819092,0.0070348213264396844,-4.305591253783167e-07,1.4490276522138506e-07,3.2438446444973075e-05,-0.6955018295918712,0.013115490376341311,-0.5413919392490356,0.000547462512892333,0.001527105133006366,-0.056439967011162294,-2.2204617270003126,-0.0571977282801573,1.7929891507591251,-0.0010387924968238578,-0.0028998518513572336,0.04839416142001838,1.596006177488087,-0.011140628679448247,0.155011287972912,0.8000041979373942,1.0754723880421797e-05,-0.00012665798459078143
0.352,pd_only,0.02147949868195153,1.8878491094337282,0.007032806357426481,-4.3026943828335844e-07,1.4484354747913734e-07,3.241609131716594e-05,-0.6954756014588103,0.013114066530487578,-0.5434704979190761,0.0005505157027219146,0.0015265949147908432,-0.056647637498539696,-2.2205760880697967,-0.05718053474207416,1.7996809028203204,-0.0010445904454258578,-0.002898974300999958,0.04856288601285914,1.595983904074054,-0.011136707016482684,0.15554870619507022,0.8000042193916012,1.07271035067963e-05,-0.00012697764340460454
0.354,pd_only,0.021599064132168853,1.8948795441280295,0.007030791822749877,-4.299798695858558e-07,1.447843487513327e-07,3.239374539796075e-05,-0.6954493761754463,0.013112641681949817,-0.5455488147220012,0.0005535678723838028,0.0015260848309440887,-0.05685523816802414,-2.2206904147601945,-0.057163345198862084,1.8063706316085313,-0.001050386639332493,-0.002898096953317541,0.04873155916877549,1.5959616385013882,-0.011132786332905506,0.1560859332310658,0.8000042407905917,1.069949529300942e-05,-0.00012729624604943318
0.356,pd_only,0.021718594531428947,1.9019079643223007,0.007028777722429753,-4.2969041924779755e-07,1.4472516902911046e-07,3.23714086843498e-05,-0.6954231537437828,0.013111215831742054,-0.5476268895115873,0.0005566190221466963,0.0015255748814467765,-0.057062769038195266,-2.2208047070794947,-0.05714615965023082,1.813058337600278,-0.001056181078949097,-0.0028972198083020303,0.04890018089988003,1.5959393807681308,-0.011128866628710469,0.15662296912982554,0.8000042621343902,1.0671899234942341e-05,-0.00012761379300587592
0.358,pd_only,0.021838089887185153,1.9089343704369277,0.007026764056388074,-4.2940108723117503e-07,1.4466600831126728e-07,3.234908117341625e-05,-0.695396934165821,0.013109788980877647,-0.5497047221417588,0.0005596691522792554,0.001525065066279583,-0.057270230127630065,-2.2209189650356866,-0.05712897809589191,1.8197440212719815,-0.0010619737646809877,-0.002896342865945339,0.04906875121828509,1.595917130872323,-0.01112494790388817,0.15715981394028455,0.8000042834230209,1.0644315331752245e-05,-0.00012793028474373519
0.36,pd_only,0.021957550206896097,1.915958762892513,0.0070247508246855765,-4.2911187349800347e-07,1.4460686658577557e-07,3.2326762862136256e-05,-0.6953707174435603,0.013108361130369823,-0.5517823124665999,0.0005627182630501018,0.001524555385423183,-0.05747762145490287,-2.2210331886367576,-0.05711180053555379,1.826427683100107,-0.0010677646969334668,-0.0028954661262395056,0.04923727013610167,1.5958948888120061,-0.01112103015843037,0.15769646771136786,0.8000043046565081,1.0616743578662464e-05,-0.00012824572174369696
0.362,pd_only,0.022076975498027687,1.9229811421097005,0.007022738027210689,-4.288227780103207e-07,1.4454774384139184e-07,3.230445374763942e-05,-0.6953445035789978,0.01310693228123008,-0.5538596603403523,0.0005657663547278183,0.0015240458388582467,-0.05768494303858532,-2.2211473778906954,-0.057094626968927746,1.8331093235609823,-0.0010735538761118195,-0.002894589589176372,0.049405737665441034,1.5958726545852215,-0.01111711339232852,0.15823293049200055,0.800004325834876,1.0589183975057165e-05,-0.00012856010447515265
0.364,pd_only,0.022196365768051708,1.9300015085093485,0.00702072566402719,-4.285338007301558e-07,1.4448864008243246e-07,3.228215382704617e-05,-0.6953182925741288,0.013105502434470302,-0.5559367656173938,0.0005688134275809491,0.0015235364265654206,-0.057892194897246244,-2.221261532805487,-0.0570774573957236,1.8397889431309897,-0.001079341302621315,-0.0028937132547478413,0.04957415381841282,1.5958504281900103,-0.01111319760557453,0.15876920233110633,0.800004346958149,1.0561636517271661e-05,-0.0001288734334196962
0.366,pd_only,0.02231572102444548,1.937019862512424,0.007018713735096418,-4.2824494161954955e-07,1.444295553031181e-07,3.225986309725841e-05,-0.6952920844309466,0.013104071591102507,-0.5580136281522763,0.0005718594818779999,0.001523027148525391,-0.05809937704945148,-2.2213756533891185,-0.05706029181564885,1.846466542286445,-0.0010851269768672068,-0.002892837122945867,0.0497425186071265,1.595828209624414,-0.011109282798159129,0.15930528327761667,0.8000043680263514,1.0534101202225863e-05,-0.00012918570904894657
0.368,pd_only,0.022435041274692306,1.9440362045399804,0.007016702240360295,-4.2795620064058747e-07,1.4437048948103873e-07,3.223758155532031e-05,-0.6952658791514423,0.013102639752136195,-0.5600902477997045,0.0005749045178874376,0.0015225180047188048,-0.05830648951376469,-2.2214897396495754,-0.057043130228414805,1.853142121503586,-0.001090910899254731,-0.002891961193762178,0.0499108320436914,1.595805998886474,-0.011105368970073906,0.159841173380446,0.8000043890395075,1.05065780273903e-05,-0.00012949693183686106
0.37,pd_only,0.02255432652628116,1.951050535013239,0.0070146911798431005,-4.276675777553344e-07,1.4431144262652813e-07,3.221530919851245e-05,-0.6952396767376051,0.013101206918582572,-0.5621666244145165,0.0005779485358776903,0.001522008995126348,-0.058513532308746286,-2.221603791594843,-0.057025972633728494,1.8598156812586621,-0.0010966930701891084,-0.0028910854671887003,0.050079094140215,1.5957837959742314,-0.011101456121307675,0.1603768726885243,0.8000044099976416,1.0479066990805341e-05,-0.00012980710225959946
0.372,pd_only,0.022673576786706208,1.9580628543535212,0.007012680553506888,-4.2737907292589333e-07,1.4425241472053e-07,3.219304602365536e-05,-0.6952134771914222,0.013099773091450358,-0.564242757851743,0.0005809915361171476,0.0015215001197286548,-0.0587205054529545,-2.2217178092329055,-0.05700881903129927,1.8664872220278546,-0.0011024734900755427,-0.0028902099432171796,0.050247304908805454,1.5957616008857276,-0.011097544251853513,0.1609123812507564,0.8000044309007778,1.0451568088357213e-05,-0.00013011622079338049
0.374,pd_only,0.022792792063467397,1.9650731629822644,0.007010670361328714,-4.2709068611436194e-07,1.4419340576569437e-07,3.217079202798404e-05,-0.6951872805148788,0.013098338271749348,-0.5663186479665226,0.0005840335188741605,0.001520991378506414,-0.058927408964944195,-2.2218317925717472,-0.056991669420834536,1.873156744287313,-0.0011082521593192216,-0.0028893346218394197,0.050415464361569365,1.5957394136190042,-0.011093633361699285,0.16144769911607967,0.8000044517489404,1.0424081319214462e-05,-0.00013042428790802676
0.376,pd_only,0.022911972364069125,1.9720814613210487,0.0070086606033174705,-4.268024172828729e-07,1.441344157445093e-07,3.2148547208429236e-05,-0.6951610867099578,0.013096902460487654,-0.5683942946141858,0.000587074484417041,0.0015204827714402794,-0.0591342428632682,-2.221945741619351,-0.056974523802042355,1.8798242485131686,-0.001114029078325316,-0.0028884595030471564,0.05058357251061316,1.5957172341721024,-0.011089723450837185,0.16198282633339423,0.8000044725421538,1.0396606679477073e-05,-0.00013073130408426968
0.378,pd_only,0.023031117696021727,1.9790877497915313,0.007006651279417563,-4.265142663935471e-07,1.4407544466289555e-07,3.21263115622067e-05,-0.6951348957786404,0.013095465658673424,-0.5704696976501997,0.0005901144330140627,0.0015199742985108834,-0.05934100716647622,-2.2220596563837005,-0.05695738217463095,1.8864897351814789,-0.0011198042474989801,-0.0028875845868320768,0.050751629368042415,1.595695062543064,-0.011085814519256804,0.16251776295162745,0.8000044932804421,1.0369144165825176e-05,-0.0001310372697927869
0.38,pd_only,0.023150228066839248,1.9860920288155455,0.00700464238967466,-4.2622623340852237e-07,1.4401649251237184e-07,3.210408508620323e-05,-0.6951087077229058,0.013094027867314659,-0.572544856930192,0.0005931533649334605,0.001519465959698919,-0.05954770189311499,-2.222173536872777,-0.05694024453830652,1.8931532047683295,-0.001125577667245352,-0.00288670987318594,0.05091963494596186,1.59567289872993,-0.01108190656694731,0.16305250901968812,0.8000045139638297,1.0341693777302499e-05,-0.00013134218550435613
