Ovmem/robot-control-retargeting-framework/results/hand_retargeting/runs/20260620_222630/raw/hand_retargeting_run.csv
timestamp,frame_id,detected_hand,detection_confidence,wrist_x,wrist_y,wrist_z,pinch_ratio,target_pos_x,target_pos_y,target_pos_z,filtered_target_pos_x,filtered_target_pos_y,filtered_target_pos_z,target_quat_w,target_quat_x,target_quat_y,target_quat_z,gripper_width,workspace_clipped,actual_ee_pos_x,actual_ee_pos_y,actual_ee_pos_z,ee_position_error,ee_orientation_error,joint_q_1,joint_q_2,joint_q_3,joint_q_4,joint_q_5,joint_q_6,joint_q_7,joint_dq_1,joint_dq_2,joint_dq_3,joint_dq_4,joint_dq_5,joint_dq_6,joint_dq_7,torque_norm,max_abs_torque
0.512,0,0,,0.000000,0.000000,0.000000,1.0000,0.3350,0.0000,0.6396,0.3350,0.0000,0.6396,-0.000365,0.998724,-0.007292,0.049978,0.0400,,0.3350,-0.0000,0.6396,0.0000,0.000000,0.0000,-0.7000,-0.0000,-2.2000,0.0000,1.6000,0.8000,-0.0000,-0.0000,-0.0000,0.0000,0.0000,0.0000,0.0000,22.75,21.74
1.027,1,0,,0.000000,0.000000,0.000000,1.0000,0.3350,0.0000,0.6396,0.3350,0.0000,0.6396,-0.000365,0.998724,-0.007292,0.049978,0.0400,,0.3350,-0.0000,0.6396,0.0000,0.000000,0.0000,-0.7000,-0.0000,-2.2000,0.0000,1.6000,0.8000,0.0000,0.0000,0.0000,-0.0000,-0.0000,-0.0000,-0.0000,22.75,21.74
1.070,2,0,,0.000000,0.000000,0.000000,1.0000,0.3350,0.0000,0.6396,0.3350,0.0000,0.6396,-0.000365,0.998724,-0.007292,0.049978,0.0400,,0.3350,-0.0000,0.6396,0.0000,0.000000,0.0000,-0.7000,-0.0000,-2.2000,0.0000,1.6000,0.8000,0.0000,0.0000,0.0000,-0.0000,-0.0000,-0.0000,-0.0000,22.75,21.74
1.112,3,0,,0.000000,0.000000,0.000000,1.0000,0.3350,0.0000,0.6396,0.3350,0.0000,0.6396,-0.000365,0.998724,-0.007292,0.049978,0.0400,,0.3350,-0.0000,0.6396,0.0000,0.000000,0.0000,-0.7000,-0.0000,-2.2000,0.0000,1.6000,0.8000,0.0000,0.0000,0.0000,-0.0000,-0.0000,-0.0000,-0.0000,22.75,21.74
1.152,4,0,,0.000000,0.000000,0.000000,1.0000,0.3350,0.0000,0.6396,0.3350,0.0000,0.6396,-0.000365,0.998724,-0.007292,0.049978,0.0400,,0.3350,-0.0000,0.6396,0.0000,0.000000,0.0000,-0.7000,-0.0000,-2.2000,0.0000,1.6000,0.8000,0.0000,0.0000,0.0000,-0.0000,-0.0000,-0.0000,-0.0000,22.75,21.74
1.194,5,0,,0.000000,0.000000,0.000000,1.0000,0.3350,0.0000,0.6396,0.3350,0.0000,0.6396,-0.000365,0.998724,-0.007292,0.049978,0.0400,,0.3350,-0.0000,0.6396,0.0000,0.000000,0.0000,-0.7000,-0.0000,-2.2000,0.0000,1.6000,0.8000,0.0000,0.0000,0.0000,-0.0000,-0.0000,-0.0000,-0.0000,22.75,21.74
1.235,6,0,,0.000000,0.000000,0.000000,1.0000,0.3350,0.0000,0.6396,0.3350,0.0000,0.6396,-0.000365,0.998724,-0.007292,0.049978,0.0400,,0.3350,-0.0000,0.6396,0.0000,0.000000,0.0000,-0.7000,-0.0000,-2.2000,0.0000,1.6000,0.8000,0.0000,0.0000,0.0000,-0.0000,-0.0000,-0.0000,-0.0000,22.75,21.74
1.278,7,0,,0.000000,0.000000,0.000000,1.0000,0.3350,0.0000,0.6396,0.3350,0.0000,0.6396,-0.000365,0.998724,-0.007292,0.049978,0.0400,,0.3350,-0.0000,0.6396,0.0000,0.000000,0.0000,-0.7000,-0.0000,-2.2000,0.0000,1.6000,0.8000,0.0000,0.0000,0.0000,-0.0000,-0.0000,-0.0000,-0.0000,22.75,21.74
1.321,8,0,,0.000000,0.000000,0.000000,1.0000,0.3350,0.0000,0.6396,0.3350,0.0000,0.6396,-0.000365,0.998724,-0.007292,0.049978,0.0400,,0.3350,-0.0000,0.6396,0.0000,0.000000,0.0000,-0.7000,-0.0000,-2.2000,0.0000,1.6000,0.8000,0.0000,0.0000,0.0000,-0.0000,-0.0000,-0.0000,-0.0000,22.75,21.74
1.363,9,0,,0.000000,0.000000,0.000000,1.0000,0.3350,0.0000,0.6396,0.3350,0.0000,0.6396,-0.000365,0.998724,-0.007292,0.049978,0.0400,,0.3350,-0.0000,0.6396,0.0000,0.000000,0.0000,-0.7000,-0.0000,-2.2000,0.0000,1.6000,0.8000,0.0000,0.0000,0.0000,-0.0000,-0.0000,-0.0000,-0.0000,22.75,21.74
1.394,10,0,,0.000000,0.000000,0.000000,1.0000,0.3350,0.0000,0.6396,0.3350,0.0000,0.6396,-0.000365,0.998724,-0.007292,0.049978,0.0400,,0.3350,-0.0000,0.6396,0.0000,0.000000,0.0000,-0.7000,-0.0000,-2.2000,0.0000,1.6000,0.8000,0.0000,0.0000,0.0000,-0.0000,-0.0000,-0.0000,-0.0000,22.75,21.74
1.435,11,0,,0.000000,0.000000,0.000000,1.0000,0.3350,0.0000,0.6396,0.3350,0.0000,0.6396,-0.000365,0.998724,-0.007292,0.049978,0.0400,,0.3350,-0.0000,0.6396,0.0000,0.000000,0.0000,-0.7000,-0.0000,-2.2000,0.0000,1.6000,0.8000,0.0000,0.0000,0.0000,-0.0000,-0.0000,-0.0000,-0.0000,22.75,21.74
1.476,12,0,,0.000000,0.000000,0.000000,1.0000,0.3350,0.0000,0.6396,0.3350,0.0000,0.6396,-0.000365,0.998724,-0.007292,0.049978,0.0400,,0.3350,-0.0000,0.6396,0.0000,0.000000,0.0000,-0.7000,-0.0000,-2.2000,0.0000,1.6000,0.8000,0.0000,0.0000,0.0000,-0.0000,-0.0000,-0.0000,-0.0000,22.75,21.74
1.521,13,0,,0.000000,0.000000,0.000000,1.0000,0.3350,0.0000,0.6396,0.3350,0.0000,0.6396,-0.000365,0.998724,-0.007292,0.049978,0.0400,,0.3350,-0.0000,0.6396,0.0000,0.000000,0.0000,-0.7000,-0.0000,-2.2000,0.0000,1.6000,0.8000,-0.0000,0.0000,0.0000,-0.0000,-0.0000,-0.0000,-0.0000,22.75,21.74
1.577,14,1,0.9815,0.298687,0.312038,-0.000000,0.2625,0.3350,0.0000,0.6396,0.3350,0.0000,0.6396,-0.188093,0.045046,-0.064456,0.978998,0.0000,,0.3460,-0.0213,0.8192,0.1812,1.509387,0.0003,-0.7039,-0.0022,-2.1978,0.2816,3.0628,0.8046,0.0163,-0.0276,0.0019,0.1266,4.0485,21.5184,0.0404,99.17,55.00
1.633,15,1,0.9858,0.300138,0.303513,-0.000000,0.2247,0.3350,0.0026,0.6519,0.3350,0.0026,0.6519,-0.227919,0.039741,0.009475,0.972823,0.0000,,0.3634,0.0137,0.7886,0.1401,2.030454,0.0121,-0.7048,0.0105,-2.2054,-0.1003,2.7352,0.1707,0.1616,0.0834,0.2331,-0.0861,-7.1316,-17.3991,-8.9651,127.74,55.00
1.673,16,1,0.9815,0.300467,0.307945,-0.000000,0.1701,0.3350,0.0037,0.6477,0.3350,0.0037,0.6477,-0.219170,0.107053,-0.080800,0.966424,0.0000,,0.3304,-0.0823,0.7819,0.1594,1.852053,0.0207,-0.7062,0.0058,-2.1984,1.2470,3.2849,1.7313,0.0237,-0.1250,-0.1713,0.7592,21.5866,17.9488,26.2885,135.15,55.00
1.715,17,1,0.9915,0.304680,0.320088,-0.000000,0.1842,0.3350,0.0115,0.6295,0.3350,0.0115,0.6295,-0.172098,0.057457,-0.098041,0.978503,0.0000,,0.3671,-0.0307,0.7685,0.1488,1.839521,0.0253,-0.6981,0.0016,-2.2127,0.9124,2.7884,1.0943,0.0819,0.0493,0.0508,0.0711,-17.6963,-17.6111,-22.4281,137.92,55.00
1.761,18,1,0.9852,0.305260,0.306600,-0.000000,0.2216,0.3350,0.0139,0.6456,0.3350,0.0139,0.6456,-0.194582,0.048980,-0.173838,0.964116,0.0000,,0.3318,-0.0923,0.7417,0.1432,2.264765,0.0199,-0.7053,0.0027,-2.1974,1.6587,3.3038,1.9809,-0.1650,-0.1337,-0.2566,0.5300,19.2755,17.7986,23.6248,145.52,55.00
1.799,19,1,0.9916,0.304355,0.316888,0.000000,0.2155,0.3350,0.0127,0.6337,0.3350,0.0127,0.6337,-0.195243,0.088113,-0.016232,0.976654,0.0000,,0.3622,-0.0408,0.7649,0.1443,2.022332,0.0254,-0.7052,0.0007,-2.2006,1.2051,2.8128,1.2358,0.0496,-0.0366,-0.0146,0.1917,-18.0737,-17.3848,-22.6465,125.74,55.00
1.837,20,1,0.9907,0.305119,0.312155,-0.000000,0.2169,0.3350,0.0139,0.6384,0.3350,0.0139,0.6384,-0.201693,0.044701,-0.127972,0.970023,0.0000,,0.3190,-0.0981,0.7222,0.1407,2.559629,0.0190,-0.7138,-0.0010,-2.1818,1.9219,3.4012,2.1033,-0.1766,-0.1274,-0.4548,0.2861,18.9071,18.4255,23.5640,142.23,55.00
1.881,21,1,0.9891,0.306739,0.320471,-0.000000,0.2277,0.3350,0.0170,0.6272,0.3350,0.0170,0.6272,-0.188418,0.083984,-0.030294,0.978022,0.0000,,0.3501,-0.0606,0.7615,0.1558,2.139133,0.0262,-0.7140,-0.0012,-2.1853,1.4816,2.9420,1.3166,0.0238,-0.0253,-0.0702,0.1580,-17.7068,-17.2490,-22.9259,128.84,55.00
1.913,22,1,0.9829,0.308061,0.324122,-0.000000,0.1667,0.3350,0.0200,0.6199,0.3350,0.0200,0.6199,-0.195851,0.107168,-0.030899,0.974270,0.0000,,0.3004,-0.1002,0.6895,0.1431,2.915130,0.0177,-0.7168,-0.0098,-2.1757,2.1966,3.5732,2.1645,-0.1821,-0.0165,-0.7643,0.0432,18.7912,18.7414,23.5485,125.46,55.00
1.953,23,1,0.9823,0.311060,0.317220,-0.000000,0.2240,0.3350,0.0259,0.6286,0.3350,0.0259,0.6286,-0.180559,0.047442,-0.088989,0.978381,0.0000,,0.3560,-0.0515,0.7477,0.1436,2.380719,0.0265,-0.7146,-0.0079,-2.1803,1.7638,2.8501,1.3725,0.0060,0.0114,-0.1040,0.1388,-17.9686,-18.7103,-22.9577,130.08,55.00
1.982,24,1,0.9883,0.308835,0.328981,-0.000000,0.1941,0.3350,0.0230,0.6132,0.3350,0.0230,0.6132,-0.174752,0.071094,-0.083355,0.978499,0.0000,,0.3260,-0.0726,0.6652,0.1092,3.065196,0.0170,-0.7041,-0.0208,-2.1884,2.4914,3.3995,2.2150,-0.1914,0.1411,-0.9362,-0.1590,19.1447,18.5126,23.4170,137.30,55.00
2.022,25,1,0.9836,0.309491,0.325880,-0.000000,0.1538,0.3350,0.0236,0.6149,0.3350,0.0236,0.6149,-0.181079,0.092749,-0.157972,0.966257,0.0000,,0.3531,-0.0601,0.7202,0.1358,2.441918,0.0280,-0.7137,-0.0150,-2.1921,2.0294,2.9556,1.4247,0.0059,-0.0823,-0.0968,0.0872,-18.0383,-16.9675,-22.9207,145.52,55.00
2.060,26,1,0.9907,0.309008,0.310473,-0.000000,0.2670,0.3350,0.0229,0.6374,0.3350,0.0229,0.6374,-0.210585,0.031026,-0.081333,0.973692,0.0000,,0.3023,-0.0665,0.6272,0.0957,3.031894,0.0159,-0.7008,-0.0377,-2.2038,2.7128,3.6245,2.2702,-0.1891,0.1932,-1.1079,-0.3623,18.7353,19.1001,23.5197,145.52,55.00
2.102,27,1,0.9891,0.308304,0.319127,-0.000000,0.1819,0.3350,0.0215,0.6290,0.3350,0.0215,0.6290,-0.183251,0.052494,-0.129329,0.973107,0.0000,,0.3621,-0.0554,0.7178,0.1205,2.619144,0.0275,-0.7107,-0.0294,-2.2100,2.0106,2.8350,1.5238,-0.0185,-0.0874,-0.1421,0.1346,-19.9415,-18.6987,-22.6094,145.52,55.00
2.130,28,1,0.9902,0.306641,0.318102,-0.000000,0.2193,0.3350,0.0182,0.6290,0.3350,0.0182,0.6290,-0.178728,0.068881,-0.151891,0.969660,0.0000,,0.3277,-0.0754,0.6417,0.0948,2.975994,0.0168,-0.6987,-0.0453,-2.2200,2.5806,3.4000,2.3838,-0.1916,0.1781,-0.9349,-0.2136,18.3817,18.6410,23.4371,145.52,55.00
2.207,29,1,0.9841,0.307761,0.311633,-0.000000,0.2418,0.3350,0.0196,0.6383,0.3350,0.0196,0.6383,-0.207544,0.036374,-0.061273,0.975627,0.0000,,0.3567,-0.0705,0.6982,0.1104,2.712281,0.0282,-0.7083,-0.0380,-2.2241,2.0733,2.9612,1.5984,0.0026,-0.0788,-0.0963,0.0780,-18.2519,-16.9240,-22.8767,145.52,55.00
2.247,30,1,0.9854,0.308670,0.318997,-0.000000,0.2046,0.3350,0.0215,0.6293,0.3350,0.0215,0.6293,-0.191151,0.063942,-0.089396,0.975388,0.0000,,0.3017,-0.0758,0.6099,0.1047,2.894179,0.0160,-0.6951,-0.0606,-2.2357,2.7105,3.6307,2.4441,-0.1880,0.1923,-1.0620,-0.3586,18.3947,19.0802,23.4855,145.52,55.00
2.289,31,1,0.9923,0.309931,0.321020,-0.000000,0.2061,0.3350,0.0242,0.6248,0.3350,0.0242,0.6248,-0.182712,0.039727,-0.137501,0.972693,0.0000,,0.3673,-0.0642,0.7008,0.1209,2.764304,0.0273,-0.7052,-0.0528,-2.2417,2.0039,2.8062,1.6997,-0.0226,-0.0899,-0.1424,0.1453,-20.0022,-18.9516,-22.5789,145.52,55.00
2.317,32,1,0.9908,0.307807,0.321178,-0.000000,0.2141,0.3350,0.0208,0.6238,0.3350,0.0208,0.6238,-0.177322,0.034517,-0.154875,0.971277,0.0000,,0.3340,-0.0829,0.6281,0.1038,2.865433,0.0170,-0.6931,-0.0676,-2.2516,2.5757,3.3467,2.5572,-0.1926,0.1734,-0.9006,-0.2004,18.4274,18.4916,23.3847,145.52,55.00
2.357,33,1,0.9848,0.308415,0.310272,-0.000000,0.2692,0.3350,0.0213,0.6393,0.3350,0.0213,0.6393,-0.184220,0.066104,-0.007999,0.980627,0.0000,,0.3636,-0.0762,0.6835,0.1108,2.956709,0.0281,-0.7024,-0.0610,-2.2559,2.0596,2.9033,1.7504,-0.0019,-0.0834,-0.0984,0.0927,-18.4311,-16.9038,-23.0266,145.52,55.00
2.397,34,1,0.9898,0.312097,0.313704,-0.000000,0.2640,0.3350,0.0280,0.6372,0.3350,0.0280,0.6372,-0.171441,0.090399,-0.043632,0.980067,0.0000,,0.3087,-0.0841,0.5970,0.1220,2.688039,0.0163,-0.6892,-0.0824,-2.2672,2.6975,3.5713,2.5804,-0.1895,0.1968,-1.0639,-0.3090,18.4148,19.0874,23.3604,145.52,55.00
2.436,35,1,0.9729,0.311733,0.332835,-0.000000,0.1746,0.3350,0.0286,0.6092,0.3350,0.0286,0.6092,-0.179663,0.066371,-0.040032,0.980670,0.0000,,0.3677,-0.0787,0.6772,0.1312,2.983079,0.0277,-0.6997,-0.0750,-2.2727,2.0401,2.8529,1.8116,-0.0199,-0.0839,-0.1304,0.1206,-19.5952,-18.5306,-22.7012,145.52,55.00
2.464,36,1,0.9819,0.312922,0.309062,-0.000000,0.2661,0.3350,0.0308,0.6384,0.3350,0.0308,0.6384,-0.203367,0.050984,0.037368,0.977060,0.0000,,0.3291,-0.0874,0.6023,0.1237,2.554361,0.0167,-0.6871,-0.0930,-2.2828,2.6578,3.3915,2.6577,-0.1929,0.1860,-0.9914,-0.2298,18.6698,18.3988,23.3425,145.52,55.00
2.507,37,1,0.9872,0.311370,0.306655,-0.000000,0.2558,0.3350,0.0284,0.6472,0.3350,0.0284,0.6472,-0.221836,0.001978,0.087489,0.971149,0.0000,,0.3637,-0.0894,0.6608,0.1221,3.010891,0.0283,-0.6968,-0.0853,-2.2874,2.0827,2.9316,1.7062,-0.0067,-0.0809,-0.1021,0.0840,-18.8942,-17.0278,-23.7612,145.52,55.00
2.550,38,1,0.9805,0.314154,0.328723,-0.000000,0.1429,0.3350,0.0330,0.6169,0.3350,0.0330,0.6169,-0.197816,0.074876,-0.057152,0.975703,0.0000,,0.3047,-0.0907,0.5770,0.1335,2.830484,0.0162,-0.6833,-0.1082,-2.2988,2.7260,3.5933,2.4515,-0.1894,0.1927,-1.0884,-0.3556,18.5442,19.0601,22.9021,145.52,55.00
2.593,39,1,0.9765,0.316023,0.323879,-0.000000,0.2318,0.3350,0.0372,0.6184,0.3350,0.0372,0.6184,-0.177576,0.069638,-0.045740,0.980574,0.0000,,0.3703,-0.0910,0.6600,0.1393,2.819344,0.0275,-0.6936,-0.1011,-2.3046,1.9943,2.8412,1.6319,-0.0258,-0.0913,-0.1351,0.1384,-20.0760,-18.7602,-23.0304,145.52,55.00
2.634,40,1,0.9840,0.311725,0.302036,-0.000000,0.2669,0.3350,0.0302,0.6502,0.3350,0.0302,0.6502,-0.233128,-0.000482,-0.011281,0.972380,0.0000,,0.3270,-0.1025,0.5860,0.1476,2.881742,0.0171,-0.6807,-0.1178,-2.3148,2.5999,3.3999,2.4574,-0.1927,0.1814,-0.9689,-0.2209,18.6618,18.6091,23.2709,145.52,55.00
2.665,41,1,0.9798,0.312695,0.320137,-0.000000,0.2252,0.3350,0.0307,0.6298,0.3350,0.0307,0.6298,-0.216052,-0.002940,0.033229,0.975812,0.0000,,0.3634,-0.1011,0.6383,0.1351,2.929164,0.0284,-0.6906,-0.1105,-2.3192,2.1093,2.9491,1.6638,-0.0032,-0.0772,-0.0904,0.0714,-18.2461,-17.0510,-22.8998,145.52,55.00
2.708,42,1,0.9801,0.315540,0.313380,-0.000000,0.2695,0.3350,0.0359,0.6359,0.3350,0.0359,0.6359,-0.210879,0.047026,0.023702,0.976093,0.0000,,0.3009,-0.0938,0.5565,0.1559,2.720752,0.0161,-0.6774,-0.1345,-2.3312,2.7773,3.6072,2.5049,-0.1890,0.1857,-1.0880,-0.4112,18.5533,19.0369,23.4493,144.60,55.00
2.740,43,1,0.9809,0.316940,0.323808,-0.000000,0.2493,0.3350,0.0394,0.6220,0.3350,0.0394,0.6220,-0.187195,0.070151,0.011261,0.979750,0.0000,,0.3725,-0.1024,0.6426,0.1481,2.963473,0.0272,-0.6880,-0.1272,-2.3386,1.9333,2.8239,1.7640,-0.0313,-0.1026,-0.1377,0.1656,-20.7305,-18.8154,-22.5496,145.52,55.00
2.770,44,1,0.9708,0.316243,0.320484,-0.000000,0.2783,0.3350,0.0388,0.6242,0.3350,0.0388,0.6242,-0.181879,0.073080,0.032312,0.980069,0.0000,,0.3279,-0.1195,0.5746,0.1660,2.664599,0.0178,-0.6756,-0.1408,-2.3490,2.4898,3.3727,2.6192,-0.1914,0.1602,-0.8422,-0.1887,18.4234,18.4628,23.3762,144.28,55.00
2.801,45,1,0.9821,0.313787,0.329593,-0.000000,0.1903,0.3350,0.0342,0.6115,0.3350,0.0342,0.6115,-0.186564,0.037676,-0.139160,0.971807,0.0000,,0.3664,-0.1123,0.6262,0.1506,2.740187,0.0279,-0.6858,-0.1351,-2.3529,1.9981,2.9115,1.7465,-0.0064,-0.0906,-0.0909,0.1040,-18.2643,-17.1405,-23.3784,145.52,55.00
2.834,46,1,0.9540,0.311447,0.327944,-0.000000,0.2083,0.3350,0.0292,0.6116,0.3350,0.0292,0.6116,-0.198579,0.052557,-0.047454,0.977524,0.0000,,0.3041,-0.1114,0.5459,0.1582,2.826472,0.0168,-0.6729,-0.1558,-2.3645,2.6725,3.5551,2.5508,-0.1896,0.1813,-1.0529,-0.2964,18.6303,18.9205,23.2491,143.88,55.00
2.863,47,1,0.9583,0.310117,0.329319,-0.000000,0.1934,0.3350,0.0259,0.6096,0.3350,0.0259,0.6096,-0.191655,0.043279,-0.072524,0.977822,0.0000,,0.3696,-0.1110,0.6158,0.1413,2.903452,0.0279,-0.6834,-0.1487,-2.3697,2.0534,2.8589,1.7589,-0.0236,-0.0832,-0.1187,0.1141,-19.4461,-18.5420,-22.8768,145.52,55.00
2.904,48,1,0.9802,0.308982,0.330770,-0.000000,0.2019,0.3350,0.0232,0.6072,0.3350,0.0232,0.6072,-0.179600,0.058235,-0.037986,0.981280,0.0000,,0.3179,-0.1123,0.5430,0.1510,2.692908,0.0170,-0.6699,-0.1681,-2.3801,2.6790,3.4339,2.5944,-0.1922,0.1915,-1.0251,-0.2479,18.5954,18.7237,23.3189,145.52,55.00
2.943,49,1,0.9754,0.310781,0.321075,-0.000000,0.1945,0.3350,0.0260,0.6207,0.3350,0.0260,0.6207,-0.185239,0.061664,-0.062225,0.978781,0.0000,,0.3596,-0.1262,0.5988,0.1558,2.876574,0.0284,-0.6803,-0.1606,-2.3847,2.0562,2.9796,1.7668,-0.0127,-0.0853,-0.0977,0.0829,-19.1694,-17.1052,-23.0988,145.52,55.00
2.995,50,1,0.9836,0.310532,0.317250,-0.000000,0.2300,0.3350,0.0260,0.6287,0.3350,0.0260,0.6287,-0.209823,0.058647,-0.045866,0.974901,0.0000,,0.2903,-0.1211,0.5264,0.1847,2.866351,0.0169,-0.6683,-0.1819,-2.3962,2.6613,3.6280,2.5900,-0.1863,0.1669,-0.9852,-0.3141,18.2964,18.8813,23.3531,142.28,55.00
3.028,51,1,0.9620,0.312071,0.316493,-0.000000,0.2511,0.3350,0.0288,0.6312,0.3350,0.0288,0.6312,-0.227936,0.025424,0.014311,0.973239,0.0000,,0.3730,-0.1140,0.5995,0.1512,3.065620,0.0277,-0.6791,-0.1741,-2.4013,2.0737,2.7926,1.8146,-0.0281,-0.0806,-0.1206,0.1256,-19.3525,-19.1482,-22.7417,145.52,55.00
3.058,52,1,0.9835,0.310810,0.308756,-0.000000,0.2267,0.3350,0.0271,0.6428,0.3350,0.0271,0.6428,-0.240945,0.001437,-0.077714,0.967421,0.0000,,0.3283,-0.1129,0.5311,0.1792,2.747281,0.0170,-0.6659,-0.1931,-2.4112,2.7279,3.3173,2.6575,-0.2118,0.1900,-1.0420,-0.2339,18.8788,18.4836,23.3052,145.52,55.00
3.093,53,1,0.9881,0.310197,0.320634,-0.000000,0.2269,0.3350,0.0256,0.6278,0.3350,0.0256,0.6278,-0.205183,0.014031,-0.029067,0.978191,0.0000,,0.3679,-0.1279,0.5894,0.1617,2.881601,0.0286,-0.6759,-0.1869,-2.4163,1.9828,2.8635,1.7068,-0.0217,-0.0988,-0.1056,0.1287,-20.1123,-16.9518,-23.7645,145.52,55.00
3.137,54,1,0.9666,0.312531,0.311385,-0.000000,0.2117,0.3350,0.0296,0.6384,0.3350,0.0296,0.6384,-0.214908,0.036838,-0.051738,0.974567,0.0000,,0.2996,-0.1357,0.5181,0.2075,2.996780,0.0182,-0.6642,-0.2052,-2.4272,2.5694,3.5245,2.4486,-0.1891,0.1619,-0.9629,-0.2421,18.3514,18.9612,22.8468,141.96,55.00
3.169,55,1,0.9774,0.310695,0.315307,-0.000000,0.2318,0.3350,0.0270,0.6347,0.3350,0.0270,0.6347,-0.207312,0.011082,-0.060507,0.976339,0.0000,,0.3630,-0.1306,0.5730,0.1715,2.822602,0.0289,-0.6752,-0.1982,-2.4312,2.1030,2.8938,1.6178,-0.0133,-0.0761,-0.0927,0.0850,-18.2065,-18.2965,-23.0859,145.52,55.00
3.208,56,1,0.9804,0.310736,0.322212,-0.000000,0.2203,0.3350,0.0266,0.6240,0.3350,0.0266,0.6240,-0.189318,0.041263,-0.061176,0.979139,0.0000,,0.3052,-0.1151,0.5026,0.1890,2.792955,0.0173,-0.6610,-0.2209,-2.4423,2.7951,3.4690,2.4450,-0.1920,0.1977,-1.0818,-0.3162,18.7634,18.7228,23.3297,145.52,55.00
3.236,57,1,0.9825,0.307165,0.308417,-0.000000,0.2006,0.3350,0.0201,0.6420,0.3350,0.0201,0.6420,-0.203227,0.027695,-0.188768,0.960364,0.0000,,0.3538,-0.1492,0.5644,0.1872,2.558544,0.0293,-0.6724,-0.2125,-2.4488,1.9599,2.9894,1.6994,-0.0239,-0.0981,-0.1068,0.1112,-20.3134,-17.1879,-22.5612,145.52,55.00
3.277,58,1,0.9784,0.307936,0.320671,-0.000000,0.2339,0.3350,0.0203,0.6276,0.3350,0.0203,0.6276,-0.206334,0.002655,-0.037301,0.977767,0.0000,,0.2801,-0.1514,0.5059,0.2175,3.067015,0.0190,-0.6651,-0.2300,-2.4534,2.4959,3.6280,2.5597,-0.1842,0.1110,-0.8522,-0.1855,18.0277,18.7247,23.5172,130.39,55.00
3.316,59,1,0.9747,0.310093,0.317855,-0.000000,0.1954,0.3350,0.0242,0.6291,0.3350,0.0242,0.6291,-0.197429,0.069777,-0.139398,0.967843,0.0000,,0.3685,-0.1339,0.5703,0.1720,2.811345,0.0285,-0.6767,-0.2236,-2.4561,1.9905,2.7842,1.7511,-0.0226,-0.0889,-0.1046,0.1447,-18.7554,-19.3014,-23.0584,145.52,55.00
3.356,60,1,0.9780,0.309218,0.320995,-0.000000,0.2001,0.3350,0.0234,0.6248,0.3350,0.0234,0.6248,-0.202066,0.087906,-0.060520,0.973540,0.0000,,0.3222,-0.1330,0.5055,0.1971,2.687247,0.0188,-0.6630,-0.2400,-2.4666,2.6424,3.2892,2.5760,-0.2037,0.1780,-0.9321,-0.2060,18.7339,18.3289,23.2270,145.52,55.00
3.397,61,1,0.9871,0.309363,0.314071,-0.000000,0.2010,0.3350,0.0235,0.6340,0.3350,0.0235,0.6340,-0.203828,0.065559,-0.074187,0.973988,0.0000,,0.3648,-0.1373,0.5556,0.1814,2.937927,0.0300,-0.6730,-0.2340,-2.4712,2.0601,2.8202,1.7645,-0.0176,-0.0897,-0.0917,0.1144,-19.2506,-17.0792,-23.0389,145.52,55.00
3.437,62,1,0.9775,0.305296,0.315783,-0.000000,0.2411,0.3350,0.0161,0.6332,0.3350,0.0161,0.6332,-0.192097,0.063835,-0.122631,0.971589,0.0000,,0.2969,-0.1326,0.4845,0.2138,2.839055,0.0191,-0.6590,-0.2550,-2.4821,2.7043,3.4708,2.5884,-0.1905,0.1937,-1.0508,-0.2647,18.5578,18.9960,23.2869,145.52,55.00
3.474,63,1,0.9900,0.304931,0.309896,-0.000000,0.2276,0.3350,0.0142,0.6416,0.3350,0.0142,0.6416,-0.211503,0.061728,-0.164399,0.961472,0.0000,,0.3515,-0.1533,0.5388,0.1972,2.747634,0.0301,-0.6705,-0.2473,-2.4875,2.0369,2.9468,1.8142,-0.0209,-0.0882,-0.0972,0.0986,-19.5818,-17.6373,-22.7156,145.52,55.00
3.514,64,1,0.9868,0.305432,0.313321,-0.000000,0.2156,0.3350,0.0147,0.6381,0.3350,0.0147,0.6381,-0.205746,0.045791,-0.136402,0.967970,0.0000,,0.2804,-0.1474,0.4771,0.2349,2.992056,0.0195,-0.6567,-0.2660,-2.4985,2.5936,3.5672,2.6628,-0.1856,0.1754,-0.8734,-0.2540,17.9775,18.7517,23.4273,144.30,55.00
3.554,65,1,0.9883,0.305794,0.309231,-0.000000,0.2366,0.3350,0.0155,0.6434,0.3350,0.0155,0.6434,-0.216554,0.018591,-0.074135,0.973274,0.0000,,0.3551,-0.1488,0.5304,0.2004,2.868534,0.0300,-0.6680,-0.2579,-2.5025,2.0932,2.8832,1.7031,-0.0176,-0.0779,-0.0908,0.0930,-18.5608,-18.5538,-23.8125,145.52,55.00
3.596,66,1,0.9879,0.303636,0.302740,-0.000000,0.2322,0.3350,0.0117,0.6537,0.3350,0.0117,0.6537,-0.218893,-0.005265,-0.102955,0.970288,0.0000,,0.2935,-0.1340,0.4673,0.2402,2.981551,0.0190,-0.6537,-0.2786,-2.5132,2.7322,3.4531,2.4451,-0.1900,0.1930,-0.9848,-0.2649,18.4053,18.7180,22.8252,145.52,55.00
3.634,67,1,0.9804,0.300271,0.297529,-0.000000,0.1954,0.3350,0.0050,0.6631,0.3350,0.0050,0.6631,-0.242257,0.072498,-0.098402,0.962483,0.0000,,0.3473,-0.1622,0.5218,0.2193,2.656894,0.0300,-0.6649,-0.2699,-2.5179,1.9872,2.9548,1.6241,-0.0235,-0.0942,-0.0960,0.1104,-19.9872,-17.4632,-23.0178,145.52,55.00
3.674,68,1,0.9875,0.299133,0.303974,-0.000000,0.1824,0.3350,0.0017,0.6555,0.3350,0.0017,0.6555,-0.218488,0.068721,-0.155354,0.960940,0.0000,,0.2712,-0.1557,0.4646,0.2554,3.122532,0.0197,-0.6548,-0.2883,-2.5252,2.5577,3.5910,2.4533,-0.1857,0.1380,-0.8747,-0.2179,18.1708,18.8216,23.3809,135.39,55.00
3.714,69,1,0.9856,0.295598,0.305506,-0.000000,0.1783,0.3350,-0.0053,0.6519,0.3350,-0.0053,0.6519,-0.215920,0.059906,-0.088535,0.970542,0.0000,,0.3567,-0.1521,0.5204,0.1983,2.832825,0.0296,-0.6663,-0.2812,-2.5283,2.0473,2.8192,1.6599,-0.0234,-0.0826,-0.0960,0.1226,-18.8254,-19.0917,-22.9129,145.52,55.00
3.757,70,1,0.9830,0.295028,0.300619,-0.000000,0.2502,0.3350,-0.0075,0.6583,0.3350,-0.0075,0.6583,-0.219785,0.068758,0.053507,0.971650,0.0000,,0.3017,-0.1379,0.4591,0.2404,2.616440,0.0192,-0.6530,-0.3010,-2.5380,2.7353,3.3456,2.4955,-0.2011,0.1837,-1.0201,-0.2380,18.9205,18.5160,23.3083,143.86,55.00
3.802,71,1,0.9827,0.293148,0.295643,-0.000000,0.2976,0.3350,-0.0114,0.6666,0.3350,-0.0114,0.6666,-0.246722,0.134243,0.086096,0.955874,0.0000,,0.3504,-0.1622,0.5111,0.2172,3.073802,0.0306,-0.6637,-0.2941,-2.5426,1.9785,2.8739,1.7528,-0.0249,-0.0983,-0.0929,0.1318,-20.2576,-17.1257,-22.5421,145.52,55.00
3.843,72,1,0.9885,0.289905,0.298203,-0.000000,0.2938,0.3350,-0.0179,0.6644,0.3350,-0.0179,0.6644,-0.231714,0.174920,0.029258,0.956481,0.0000,,0.2756,-0.1601,0.4552,0.2599,2.675165,0.0206,-0.6550,-0.3118,-2.5465,2.5518,3.5167,2.6104,-0.1878,0.1268,-0.8737,-0.1741,18.2056,18.8365,23.4544,131.60,55.00
3.877,73,1,0.9926,0.285375,0.285414,-0.000000,0.2914,0.3350,-0.0272,0.6825,0.3350,-0.0272,0.6825,-0.260244,0.075503,-0.022447,0.962325,0.0000,,0.3451,-0.1628,0.5020,0.2260,2.928852,0.0308,-0.6666,-0.3039,-2.5498,2.0798,2.8924,1.7440,-0.0141,-0.0802,-0.0805,0.0935,-18.3013,-18.3782,-23.3439,145.52,55.00
3.917,74,1,0.9896,0.286268,0.299661,-0.000000,0.1568,0.3350,-0.0273,0.6652,0.3350,-0.0273,0.6652,-0.186370,0.161545,-0.118283,0.961862,0.0000,,0.2840,-0.1395,0.4426,0.2544,2.679999,0.0197,-0.6522,-0.3249,-2.5606,2.7609,3.4366,2.5495,-0.1895,0.1923,-0.9762,-0.2674,18.6642,18.4674,23.2080,145.52,55.00
3.960,75,1,0.9894,0.283061,0.295517,-0.000000,0.3050,0.3350,-0.0331,0.6681,0.3350,-0.0331,0.6681,-0.228809,0.229893,-0.074081,0.943031,0.0000,,0.3388,-0.1742,0.4949,0.2234,2.867549,0.0307,-0.6635,-0.3166,-2.5653,1.9663,2.9410,1.7990,-0.0252,-0.0974,-0.0923,0.1226,-20.3213,-17.3598,-22.5589,145.52,55.00
3.991,76,1,0.9950,0.281054,0.298588,-0.000000,0.1790,0.3350,-0.0378,0.6641,0.3350,-0.0378,0.6641,-0.168944,0.283129,-0.101835,0.938576,0.0000,,0.2657,-0.1677,0.4433,0.2654,2.669626,0.0208,-0.6525,-0.3334,-2.5713,2.5139,3.5429,2.6555,-0.1856,0.1404,-0.7848,-0.1874,18.0640,18.5011,23.4551,135.61,55.00
4.034,77,1,0.9887,0.278302,0.298747,-0.000000,0.2803,0.3350,-0.0436,0.6632,0.3350,-0.0436,0.6632,-0.174780,0.248320,0.018217,0.952605,0.0000,,0.3428,-0.1678,0.4898,0.2134,3.092160,0.0306,-0.6642,-0.3259,-2.5744,2.0423,2.8680,1.7047,-0.0157,-0.0832,-0.0797,0.1088,-18.3560,-18.6357,-23.7648,145.52,55.00
4.061,78,0,,0.000000,0.000000,0.000000,1.0000,0.3350,-0.0436,0.6632,0.3350,-0.0436,0.6632,-0.174780,0.248320,0.018217,0.952605,0.0000,,0.2791,-0.1464,0.4318,0.2593,2.467275,0.0201,-0.6504,-0.3462,-2.5833,2.7260,3.4280,2.4486,-0.1904,0.1843,-0.9782,-0.2433,18.6619,18.6751,22.8321,142.70,55.00
4.105,79,0,,0.000000,0.000000,0.000000,1.0000,0.3350,-0.0436,0.6632,0.3350,-0.0436,0.6632,-0.174780,0.248320,0.018217,0.952605,0.0000,,0.3330,-0.1787,0.4800,0.2277,2.978330,0.0309,-0.6618,-0.3382,-2.5873,1.9873,2.9467,1.6305,-0.0222,-0.0944,-0.0858,0.1133,-20.0373,-17.3463,-22.9998,145.52,55.00
4.164,80,0,,0.000000,0.000000,0.000000,1.0000,0.3350,-0.0436,0.6632,0.3350,-0.0436,0.6632,-0.174780,0.248320,0.018217,0.952605,0.0000,,0.2586,-0.1666,0.4317,0.2731,2.640267,0.0207,-0.6535,-0.3562,-2.5893,2.5585,3.5520,2.4597,-0.1854,0.1190,-0.8169,-0.1645,18.1595,18.5582,23.3638,129.67,55.00
4.222,81,1,0.9826,0.306937,0.322703,-0.000000,0.2147,0.3350,0.0070,0.6285,0.3350,0.0070,0.6285,-0.177901,0.114712,-0.119503,0.970006,0.0000,,0.3406,-0.1695,0.4794,0.2311,2.877826,0.0308,-0.6653,-0.3482,-2.5923,2.0791,2.8359,1.6656,-0.0177,-0.0799,-0.0816,0.1088,-18.5081,-18.8338,-22.9136,145.52,55.00
4.281,82,1,0.9802,0.311871,0.316980,-0.000000,0.2176,0.3350,0.0251,0.6305,0.3350,0.0251,0.6305,-0.197944,0.086909,-0.050432,0.975049,0.0000,,0.2796,-0.1466,0.4227,0.2751,2.702102,0.0201,-0.6511,-0.3688,-2.6027,2.7608,3.3820,2.5026,-0.1912,0.1904,-0.9896,-0.2570,18.7037,18.6281,23.3348,145.52,55.00
4.324,83,1,0.9850,0.308737,0.314691,-0.000000,0.2510,0.3350,0.0226,0.6341,0.3350,0.0226,0.6341,-0.206618,0.025010,-0.077688,0.975012,0.0000,,0.3322,-0.1819,0.4712,0.2615,2.871115,0.0308,-0.6624,-0.3610,-2.6075,1.9577,2.9041,1.7608,-0.0249,-0.0989,-0.0861,0.1341,-20.4753,-17.2286,-22.5335,145.52,55.00
4.356,84,1,0.9789,0.308343,0.313087,-0.000000,0.2294,0.3350,0.0215,0.6371,0.3350,0.0215,0.6371,-0.207402,0.046510,-0.071405,0.974537,0.0000,,0.2577,-0.1750,0.4228,0.3008,2.972066,0.0211,-0.6518,-0.3775,-2.6118,2.5041,3.5128,2.6187,-0.1861,0.1359,-0.7636,-0.1653,18.0567,18.5445,23.4542,134.02,55.00
4.394,85,1,0.9866,0.308720,0.313892,-0.000000,0.2281,0.3350,0.0220,0.6365,0.3350,0.0220,0.6365,-0.208670,0.066497,-0.052633,0.974302,0.0000,,0.3311,-0.1796,0.4651,0.2646,2.952292,0.0308,-0.6636,-0.3699,-2.6148,2.0280,2.8830,1.7443,-0.0134,-0.0853,-0.0723,0.1098,-18.3550,-18.4125,-23.3896,145.52,55.00
4.434,86,1,0.9875,0.311498,0.309605,-0.000000,0.2565,0.3350,0.0271,0.6426,0.3350,0.0271,0.6426,-0.205616,-0.000995,0.052976,0.977197,0.0000,,0.2631,-0.1550,0.4121,0.3024,2.759155,0.0203,-0.6508,-0.3900,-2.6207,2.7043,3.4590,2.5467,-0.1883,0.1716,-0.9352,-0.2171,18.5427,18.7263,23.2089,138.25,55.00
4.474,87,1,0.9694,0.314352,0.326835,-0.000000,0.2508,0.3350,0.0331,0.6188,0.3350,0.0331,0.6188,-0.181272,0.052198,0.049981,0.980774,0.0000,,0.3219,-0.1877,0.4569,0.2742,3.115980,0.0311,-0.6625,-0.3815,-2.6242,2.0027,2.9481,1.7565,-0.0208,-0.0918,-0.0809,0.1109,-19.8937,-17.6071,-22.8488,145.52,55.00
4.514,88,1,0.9626,0.309717,0.313881,-0.000000,0.2156,0.3350,0.0259,0.6332,0.3350,0.0259,0.6332,-0.199168,0.010219,-0.064582,0.977782,0.0000,,0.2443,-0.1696,0.4098,0.3104,3.001883,0.0209,-0.6507,-0.4000,-2.6293,2.5792,3.5683,2.5946,-0.1842,0.1506,-0.8156,-0.2005,18.1114,18.7475,23.3994,135.85,55.00
4.544,89,1,0.9758,0.308125,0.309799,-0.000000,0.2304,0.3350,0.0217,0.6417,0.3350,0.0217,0.6417,-0.208532,0.012967,-0.064825,0.975779,0.0000,,0.3288,-0.1786,0.4530,0.2752,2.993836,0.0311,-0.6625,-0.3914,-2.6322,2.1000,2.8496,1.7638,-0.0162,-0.0776,-0.0760,0.1023,-18.5356,-18.8742,-23.1252,145.52,55.00
4.587,90,1,0.9847,0.305557,0.313204,-0.000000,0.1979,0.3350,0.0163,0.6383,0.3350,0.0163,0.6383,-0.199725,0.015418,0.002059,0.979728,0.0000,,0.2665,-0.1534,0.4018,0.2990,2.719684,0.0203,-0.6484,-0.4112,-2.6424,2.7441,3.3901,2.5846,-0.1894,0.1865,-0.8985,-0.2520,18.3849,18.5695,23.2553,145.52,55.00
4.629,91,1,0.9863,0.308863,0.307321,-0.000000,0.2048,0.3350,0.0213,0.6462,0.3350,0.0213,0.6462,-0.214599,0.034117,-0.030919,0.975616,0.0000,,0.3218,-0.1893,0.4467,0.2904,2.962500,0.0310,-0.6599,-0.4027,-2.6466,1.9683,2.9012,1.7592,-0.0233,-0.0966,-0.0796,0.1328,-20.4048,-17.3403,-23.1212,145.52,55.00
4.660,92,1,0.9799,0.309615,0.320625,-0.000000,0.1824,0.3350,0.0235,0.6284,0.3350,0.0235,0.6284,-0.198491,0.042923,-0.029145,0.978728,0.0000,,0.2415,-0.1781,0.4016,0.3176,2.945168,0.0213,-0.6486,-0.4197,-2.6501,2.5167,3.5429,2.5760,-0.1852,0.1425,-0.7693,-0.1692,17.9851,18.8542,23.2869,134.29,55.00
4.704,93,1,0.9628,0.308899,0.317024,-0.000000,0.2415,0.3350,0.0227,0.6304,0.3350,0.0227,0.6304,-0.201873,0.044087,-0.029984,0.977959,0.0000,,0.3221,-0.1874,0.4426,0.2821,3.049992,0.0308,-0.6606,-0.4119,-2.6528,2.0109,2.8699,1.8104,-0.0159,-0.0864,-0.0718,0.1217,-18.6788,-18.6710,-22.6570,145.52,55.00
4.743,94,1,0.9756,0.310913,0.326138,-0.000000,0.2450,0.3350,0.0261,0.6176,0.3350,0.0261,0.6176,-0.187888,0.063585,-0.036713,0.979442,0.0000,,0.2557,-0.1609,0.3921,0.3035,2.707146,0.0206,-0.6463,-0.4309,-2.6608,2.6872,3.4232,2.6618,-0.1890,0.1822,-0.8888,-0.2254,18.6219,18.5942,23.4100,142.89,55.00
4.788,95,1,0.9716,0.310184,0.310748,-0.000000,0.2167,0.3350,0.0254,0.6375,0.3350,0.0254,0.6375,-0.206714,0.053889,-0.070385,0.974377,0.0000,,0.3129,-0.1915,0.4315,0.3000,2.904915,0.0313,-0.6579,-0.4222,-2.6645,2.0295,2.9284,1.7058,-0.0173,-0.0888,-0.0711,0.1071,-19.7111,-17.4976,-23.7772,145.52,55.00
4.818,96,1,0.9888,0.311352,0.329147,-0.000000,0.1971,0.3350,0.0274,0.6145,0.3350,0.0274,0.6145,-0.190532,0.024896,-0.021992,0.981119,0.0000,,0.2336,-0.1723,0.3888,0.3180,2.973042,0.0210,-0.6453,-0.4402,-2.6697,2.5795,3.5565,2.4500,-0.1837,0.1569,-0.7481,-0.1987,17.8211,18.7966,22.8851,137.27,55.00
4.861,97,1,0.9780,0.313840,0.318530,-0.000000,0.2371,0.3350,0.0323,0.6257,0.3350,0.0323,0.6257,-0.194307,0.068201,0.051508,0.977210,0.0000,,0.3161,-0.1883,0.4284,0.2966,3.101785,0.0311,-0.6572,-0.4310,-2.6724,2.0527,2.8735,1.6202,-0.0163,-0.0827,-0.0705,0.1111,-18.8723,-18.6272,-23.0702,145.52,55.00
4.900,98,1,0.9746,0.313778,0.312999,-0.000000,0.2279,0.3350,0.0330,0.6357,0.3350,0.0330,0.6357,-0.206121,0.043140,-0.023693,0.977288,0.0000,,0.2486,-0.1591,0.3815,0.3302,2.819254,0.0206,-0.6430,-0.4506,-2.6794,2.7143,3.4341,2.4464,-0.1880,0.1836,-0.8732,-0.2272,18.5360,18.6616,23.3191,142.08,55.00
4.930,99,1,0.9842,0.310446,0.316787,-0.000000,0.1858,0.3350,0.0272,0.6321,0.3350,0.0272,0.6321,-0.216199,0.056644,-0.099642,0.969598,0.0000,,0.3065,-0.1945,0.4194,0.3085,2.823023,0.0314,-0.6548,-0.4412,-2.6829,2.0314,2.9379,1.6608,-0.0173,-0.0883,-0.0691,0.1057,-19.7686,-17.5104,-22.8447,145.52,55.00
4.969,100,1,0.9757,0.308792,0.328013,-0.000000,0.1548,0.3350,0.0231,0.6152,0.3350,0.0231,0.6152,-0.196072,0.076141,-0.077388,0.974561,0.0000,,0.2266,-0.1688,0.3781,0.3237,2.940365,0.0210,-0.6416,-0.4601,-2.6878,2.6189,3.5661,2.5013,-0.1835,0.1640,-0.7814,-0.2092,18.1132,18.8073,23.4294,137.94,55.00
5.010,101,1,0.9608,0.308386,0.313323,-0.000000,0.2358,0.3350,0.0217,0.6334,0.3350,0.0217,0.6334,-0.205017,0.089680,-0.001473,0.974640,0.0000,,0.3103,-0.1875,0.4144,0.3039,3.111342,0.0315,-0.6535,-0.4503,-2.6906,2.1183,2.8730,1.7130,-0.0142,-0.0763,-0.0665,0.0950,-18.7309,-18.6960,-22.8663,145.52,55.00
5.052,102,1,0.9863,0.308849,0.322304,-0.000000,0.1933,0.3350,0.0222,0.6237,0.3350,0.0222,0.6237,-0.186005,0.086884,-0.117003,0.971681,0.0000,,0.2440,-0.1517,0.3698,0.3209,2.762041,0.0204,-0.6394,-0.4713,-2.7008,2.7885,3.4281,2.5517,-0.1881,0.1851,-0.8813,-0.2908,18.5288,18.6503,23.3670,145.52,55.00
5.091,103,1,0.9901,0.307209,0.302565,-0.000000,0.2564,0.3350,0.0194,0.6504,0.3350,0.0194,0.6504,-0.218411,0.020406,-0.037585,0.974919,0.0000,,0.3023,-0.2008,0.4101,0.3276,2.940254,0.0310,-0.6512,-0.4616,-2.7054,1.9347,2.9314,1.7522,-0.0237,-0.0974,-0.0727,0.1398,-20.7613,-17.4447,-22.9726,145.52,55.00
5.137,104,1,0.9896,0.310915,0.312164,-0.000000,0.1956,0.3350,0.0255,0.6414,0.3350,0.0255,0.6414,-0.203744,0.007125,-0.066806,0.976716,0.0000,,0.2210,-0.1891,0.3751,0.3605,3.101467,0.0218,-0.6399,-0.4773,-2.7056,2.4448,3.5604,2.5798,-0.1837,0.1356,-0.6542,-0.1273,17.7611,18.7259,23.3425,132.34,55.00
5.181,105,1,0.9806,0.314889,0.319881,-0.000000,0.2455,0.3350,0.0338,0.6286,0.3350,0.0338,0.6286,-0.203890,0.019605,-0.022941,0.978529,0.0000,,0.3071,-0.1989,0.4109,0.3199,3.014109,0.0306,-0.6521,-0.4699,-2.7075,1.9331,2.8702,1.7587,-0.0135,-0.0919,-0.0609,0.1429,-18.7090,-18.7186,-23.0920,145.52,55.00
5.210,106,1,0.9722,0.312006,0.319128,-0.000000,0.2371,0.3350,0.0301,0.6274,0.3350,0.0301,0.6274,-0.199492,0.013240,-0.014135,0.979708,0.0000,,0.2394,-0.1733,0.3674,0.3436,2.843145,0.0212,-0.6378,-0.4870,-2.7094,2.6069,3.4158,2.5803,-0.1891,0.1737,-0.7890,-0.1492,18.5894,18.5309,23.2830,137.75,55.00
5.251,107,1,0.9817,0.310670,0.336391,-0.000000,0.1909,0.3350,0.0270,0.6023,0.3350,0.0270,0.6023,-0.174337,0.043430,-0.051312,0.982389,0.0000,,0.2948,-0.1967,0.3976,0.3059,3.049031,0.0318,-0.6496,-0.4776,-2.7125,2.0891,2.9482,1.7641,-0.0067,-0.0829,-0.0524,0.0850,-18.7954,-17.2921,-23.0482,145.52,55.00
5.290,108,1,0.9851,0.306165,0.324523,-0.000000,0.2272,0.3350,0.0184,0.6149,0.3350,0.0184,0.6149,-0.188500,0.038670,-0.121209,0.973797,0.0000,,0.2134,-0.1574,0.3593,0.3332,2.954369,0.0207,-0.6351,-0.4981,-2.7210,2.7216,3.5898,2.5909,-0.1806,0.1806,-0.7714,-0.2651,18.1569,18.8970,23.3828,142.86,55.00
5.334,109,1,0.9853,0.305242,0.312068,-0.000000,0.2151,0.3350,0.0151,0.6351,0.3350,0.0151,0.6351,-0.198083,0.048645,-0.136508,0.969413,0.0000,,0.3076,-0.1930,0.3996,0.3155,2.957887,0.0310,-0.6471,-0.4887,-2.7237,2.0165,2.8088,1.8176,-0.0273,-0.0858,-0.0772,0.1517,-20.2504,-19.1573,-22.7178,145.52,55.00
5.365,110,1,0.9910,0.304869,0.322153,-0.000000,0.2491,0.3350,0.0139,0.6242,0.3350,0.0139,0.6242,-0.190474,0.049381,-0.036363,0.979775,0.0000,,0.2451,-0.1730,0.3575,0.3378,2.726269,0.0214,-0.6334,-0.5050,-2.7322,2.6090,3.3238,2.6601,-0.1913,0.1715,-0.7270,-0.1934,18.4103,18.3812,23.3184,144.38,55.00
5.407,111,1,0.9830,0.305585,0.303443,-0.000000,0.2613,0.3350,0.0149,0.6492,0.3350,0.0149,0.6492,-0.214630,0.032171,-0.033137,0.975603,0.0000,,0.2991,-0.1927,0.3887,0.3351,3.042831,0.0317,-0.6448,-0.4958,-2.7356,2.0748,2.8582,1.7097,-0.0087,-0.0841,-0.0504,0.1078,-19.0257,-17.1965,-23.7375,145.52,55.00
5.447,112,1,0.9812,0.307581,0.304320,-0.000000,0.1805,0.3350,0.0187,0.6525,0.3350,0.0187,0.6525,-0.222448,0.044285,-0.110803,0.967615,0.0000,,0.2224,-0.1588,0.3482,0.3698,2.952386,0.0208,-0.6306,-0.5153,-2.7437,2.7192,3.4725,2.4543,-0.1853,0.1809,-0.7730,-0.2436,18.3276,18.7323,22.8662,143.08,55.00
5.488,113,1,0.9686,0.307938,0.312584,-0.000000,0.1620,0.3350,0.0201,0.6411,0.3350,0.0201,0.6411,-0.202712,0.027043,-0.085226,0.975148,0.0000,,0.2868,-0.2001,0.3800,0.3449,2.872749,0.0316,-0.6427,-0.5055,-2.7467,2.0270,2.9381,1.6335,-0.0164,-0.0861,-0.0603,0.1106,-19.8968,-17.8212,-23.0042,145.52,55.00
5.528,114,1,0.9846,0.307210,0.314978,-0.000000,0.2245,0.3350,0.0190,0.6356,0.3350,0.0190,0.6356,-0.197969,0.041719,-0.014178,0.979217,0.0000,,0.2098,-0.1714,0.3477,0.3672,2.917099,0.0213,-0.6291,-0.5233,-2.7478,2.6041,3.5392,2.4629,-0.1835,0.1650,-0.6821,-0.1688,18.0388,18.6659,23.3747,136.41,55.00
5.571,115,1,0.9918,0.306002,0.307184,-0.000000,0.2237,0.3350,0.0166,0.6459,0.3350,0.0166,0.6459,-0.204655,0.056054,-0.106216,0.971438,0.0000,,0.2932,-0.1929,0.3779,0.3427,2.937072,0.0317,-0.6410,-0.5135,-2.7503,2.1070,2.8588,1.6697,-0.0118,-0.0762,-0.0560,0.1033,-18.7483,-18.7404,-22.8931,145.52,55.00
5.610,116,1,0.9824,0.305124,0.309386,-0.000000,0.1731,0.3350,0.0146,0.6446,0.3350,0.0146,0.6446,-0.218248,0.082657,-0.125558,0.964246,0.0000,,0.2265,-0.1537,0.3399,0.3646,2.821931,0.0207,-0.6271,-0.5334,-2.7602,2.7778,3.4079,2.5074,-0.1868,0.1846,-0.7922,-0.2630,18.5153,18.6246,23.3648,145.52,55.00
5.638,117,1,0.9833,0.303509,0.308426,-0.000000,0.1911,0.3350,0.0113,0.6457,0.3350,0.0113,0.6457,-0.225167,0.043886,-0.074495,0.970476,0.0000,,0.2814,-0.2050,0.3719,0.3530,2.923089,0.0315,-0.6391,-0.5236,-2.7640,1.9574,2.9445,1.7658,-0.0179,-0.0933,-0.0577,0.1307,-20.5209,-17.1634,-22.5230,145.52,55.00
5.676,118,1,0.9807,0.300715,0.299441,-0.000000,0.2081,0.3350,0.0057,0.6589,0.3350,0.0057,0.6589,-0.243994,0.045995,-0.072355,0.965979,0.0000,,0.2021,-0.1853,0.3440,0.3916,3.034299,0.0219,-0.6268,-0.5394,-2.7618,2.4816,3.5514,2.6254,-0.1829,0.1447,-0.5804,-0.1126,17.7892,18.4829,23.4892,132.85,55.00
5.710,119,1,0.9779,0.296753,0.290237,-0.000000,0.2632,0.3350,-0.0025,0.6745,0.3350,-0.0025,0.6745,-0.255553,0.070961,0.010522,0.964130,0.0000,,0.2907,-0.2011,0.3745,0.3626,3.072156,0.0310,-0.6389,-0.5308,-2.7635,1.9630,2.8507,1.7468,-0.0127,-0.0875,-0.0533,0.1440,-18.8866,-18.8877,-23.4086,145.52,55.00
5.751,120,1,0.9840,0.300274,0.304588,-0.000000,0.2432,0.3350,0.0024,0.6567,0.3350,0.0024,0.6567,-0.222882,0.074122,-0.001889,0.972022,0.0000,,0.2246,-0.1719,0.3379,0.3797,2.747369,0.0214,-0.6250,-0.5476,-2.7647,2.6268,3.3829,2.5455,-0.1892,0.1729,-0.7147,-0.1429,18.5378,18.4887,23.1707,137.61,55.00
5.794,121,1,0.9757,0.301223,0.314514,-0.000000,0.1719,0.3350,0.0050,0.6391,0.3350,0.0050,0.6391,-0.198510,0.138340,-0.047202,0.969138,0.0000,,0.2808,-0.1993,0.3649,0.3462,3.098182,0.0320,-0.6368,-0.5381,-2.7676,2.0782,2.9120,1.7503,-0.0071,-0.0826,-0.0459,0.0988,-19.1064,-17.2825,-22.8670,145.52,55.00
5.834,122,1,0.9740,0.304065,0.306868,-0.000000,0.2990,0.3350,0.0106,0.6470,0.3350,0.0106,0.6470,-0.188197,0.114025,0.028921,0.975061,0.0000,,0.1983,-0.1598,0.3317,0.3836,2.666664,0.0211,-0.6226,-0.5571,-2.7781,2.6936,3.5526,2.5890,-0.1826,0.1735,-0.6793,-0.2915,18.0500,18.8853,23.4234,145.52,55.00
5.876,123,1,0.9843,0.300800,0.312278,-0.000000,0.2812,0.3350,0.0057,0.6406,0.3350,0.0057,0.6406,-0.185488,0.133072,0.024716,0.973281,0.0000,,0.2824,-0.1997,0.3614,0.3506,3.054834,0.0315,-0.6347,-0.5470,-2.7810,2.0129,2.8698,1.7607,-0.0195,-0.0845,-0.0599,0.1363,-20.0963,-18.6126,-23.1384,145.52,55.00
5.916,124,1,0.9849,0.303725,0.319371,0.000000,0.1861,0.3350,0.0101,0.6292,0.3350,0.0101,0.6292,-0.176203,0.152647,-0.089893,0.968282,0.0000,,0.2114,-0.1726,0.3281,0.3733,2.739846,0.0216,-0.6209,-0.5635,-2.7868,2.5938,3.4255,2.5759,-0.1869,0.1699,-0.6400,-0.1882,18.1480,18.5565,23.2474,141.61,55.00
5.955,125,1,0.9830,0.301147,0.309119,-0.000000,0.2438,0.3350,0.0063,0.6420,0.3350,0.0063,0.6420,-0.208063,0.104065,-0.100897,0.967316,0.0000,,0.2697,-0.2005,0.3518,0.3622,2.978749,0.0320,-0.6328,-0.5536,-2.7894,2.0683,2.9504,1.7556,-0.0036,-0.0824,-0.0394,0.0929,-18.8172,-17.4028,-23.0647,145.52,55.00
5.984,126,1,0.9780,0.300984,0.306277,-0.000000,0.2332,0.3350,0.0053,0.6484,0.3350,0.0053,0.6484,-0.211842,0.079358,-0.047613,0.972912,0.0000,,0.1897,-0.1581,0.3255,0.3899,2.836576,0.0211,-0.6186,-0.5722,-2.7919,2.6965,3.5790,2.5814,-0.1802,0.1742,-0.6290,-0.2065,18.0750,18.8067,23.3838,138.21,55.00
6.021,127,1,0.9863,0.296561,0.291621,-0.000000,0.2944,0.3350,-0.0029,0.6707,0.3350,-0.0029,0.6707,-0.229345,0.034581,0.068909,0.970287,0.0000,,0.2850,-0.1970,0.3561,0.3730,3.003639,0.0313,-0.6306,-0.5620,-2.7938,2.0050,2.8065,1.8139,-0.0229,-0.0843,-0.0616,0.1591,-20.3164,-19.1318,-22.6720,145.52,55.00
6.058,128,1,0.9829,0.301798,0.311394,-0.000000,0.2129,0.3350,0.0051,0.6461,0.3350,0.0051,0.6461,-0.200882,0.057948,-0.059711,0.976075,0.0000,,0.2208,-0.1736,0.3219,0.3874,2.764601,0.0218,-0.6172,-0.5775,-2.8000,2.5902,3.3207,2.6597,-0.1905,0.1682,-0.6203,-0.1686,18.3244,18.3744,23.3396,142.28,55.00
6.091,129,1,0.9903,0.302162,0.320457,-0.000000,0.1742,0.3350,0.0072,0.6286,0.3350,0.0072,0.6286,-0.202081,0.067503,-0.101246,0.971780,0.0000,,0.2775,-0.1965,0.3482,0.3513,2.987817,0.0319,-0.6287,-0.5682,-2.8029,2.0473,2.8481,1.7103,-0.0062,-0.0841,-0.0389,0.1208,-19.1521,-17.2692,-23.7297,145.52,55.00
6.129,130,1,0.9855,0.303124,0.311397,-0.000000,0.2001,0.3350,0.0093,0.6386,0.3350,0.0093,0.6386,-0.200800,0.106833,-0.098228,0.968823,0.0000,,0.1955,-0.1603,0.3167,0.3896,2.863718,0.0214,-0.6148,-0.5863,-2.8088,2.6790,3.4917,2.4552,-0.1842,0.1755,-0.6606,-0.2207,18.1696,18.9759,22.8820,141.21,55.00
6.171,131,1,0.9867,0.303190,0.302218,-0.000000,0.2322,0.3350,0.0098,0.6536,0.3350,0.0098,0.6536,-0.208527,0.030523,-0.109652,0.971371,0.0000,,0.2644,-0.2020,0.3407,0.3844,2.865544,0.0319,-0.6269,-0.5758,-2.8111,2.0251,2.9342,1.6330,-0.0124,-0.0836,-0.0475,0.1151,-19.8516,-17.9779,-23.0036,145.52,55.00
6.210,132,1,0.9900,0.302365,0.309072,-0.000000,0.2097,0.3350,0.0084,0.6464,0.3350,0.0084,0.6464,-0.208246,0.066987,-0.104692,0.970147,0.0000,,0.1887,-0.1685,0.3157,0.4025,2.990951,0.0217,-0.6130,-0.5927,-2.8127,2.6035,3.5189,2.4624,-0.1831,0.1681,-0.5753,-0.1693,18.0048,18.5787,23.3742,137.99,55.00
6.250,133,1,0.9821,0.299549,0.295632,-0.000000,0.2087,0.3350,0.0031,0.6645,0.3350,0.0031,0.6645,-0.244390,0.032008,-0.108223,0.963087,0.0000,,0.2701,-0.1965,0.3390,0.3873,2.901239,0.0319,-0.6249,-0.5822,-2.8148,2.0752,2.8674,1.6705,-0.0096,-0.0777,-0.0446,0.1144,-19.0690,-18.6212,-22.8760,145.52,55.00
6.290,134,1,0.9774,0.297864,0.304661,-0.000000,0.1699,0.3350,-0.0009,0.6547,0.3350,-0.0009,0.6547,-0.239662,0.032263,-0.134203,0.960995,0.0000,,0.2008,-0.1571,0.3099,0.4016,2.964353,0.0213,-0.6112,-0.6001,-2.8214,2.7145,3.4218,2.5090,-0.1856,0.1766,-0.6397,-0.2227,18.2974,18.6024,23.3788,142.43,55.00
6.330,135,1,0.9853,0.297324,0.312717,-0.000000,0.1489,0.3350,-0.0026,0.6414,0.3350,-0.0026,0.6414,-0.210404,0.100685,-0.044612,0.971392,0.0000,,0.2581,-0.2025,0.3327,0.3756,3.055662,0.0321,-0.6232,-0.5893,-2.8239,2.0224,2.9485,1.7286,-0.0094,-0.0849,-0.0414,0.1124,-19.9200,-17.3279,-22.8012,145.52,55.00
6.371,136,1,0.9801,0.299853,0.304243,-0.000000,0.2739,0.3350,0.0016,0.6512,0.3350,0.0016,0.6512,-0.219146,0.086609,0.100990,0.966579,0.0000,,0.1735,-0.1667,0.3090,0.4141,2.723805,0.0218,-0.6094,-0.6058,-2.8340,2.5812,3.5802,2.5713,-0.1809,0.1655,-0.5184,-0.2488,17.8356,18.7454,23.4510,145.52,55.00
6.409,137,1,0.9791,0.304754,0.319579,-0.000000,0.1842,0.3350,0.0112,0.6308,0.3350,0.0112,0.6308,-0.171983,0.053223,-0.098221,0.978745,0.0000,,0.2718,-0.1918,0.3315,0.3671,3.091316,0.0317,-0.6212,-0.5961,-2.8360,2.0541,2.7989,1.7595,-0.0122,-0.0773,-0.0445,0.1404,-19.1944,-19.3072,-23.0426,145.52,55.00
6.450,138,1,0.9853,0.305047,0.308577,-0.000000,0.2663,0.3350,0.0135,0.6430,0.3350,0.0135,0.6430,-0.200266,0.071056,-0.063312,0.975108,0.0000,,0.2131,-0.1578,0.3012,0.4013,2.703797,0.0215,-0.6080,-0.6128,-2.8440,2.7071,3.2777,2.5828,-0.1913,0.1743,-0.6156,-0.2025,18.6023,18.1776,23.2445,144.34,55.00
6.490,139,1,0.9920,0.305340,0.315450,-0.000000,0.2441,0.3350,0.0144,0.6353,0.3350,0.0144,0.6353,-0.181809,0.067607,-0.061681,0.979066,0.0000,,0.2732,-0.1907,0.3289,0.3739,3.099136,0.0318,-0.6193,-0.6028,-2.8467,2.0010,2.7683,1.8169,-0.0123,-0.0875,-0.0382,0.1631,-20.3301,-17.4086,-22.6682,145.52,55.00
6.528,140,1,0.9868,0.307841,0.314371,-0.000000,0.1657,0.3350,0.0191,0.6355,0.3350,0.0191,0.6355,-0.170050,0.079367,-0.162062,0.968772,0.0000,,0.1916,-0.1659,0.2974,0.4112,2.886946,0.0220,-0.6060,-0.6185,-2.8548,2.5835,3.3991,2.6633,-0.1879,0.1682,-0.5563,-0.2007,18.1183,18.9054,23.3793,143.97,55.00
6.568,141,1,0.9912,0.306798,0.329724,-0.000000,0.2261,0.3350,0.0181,0.6133,0.3350,0.0181,0.6133,-0.155739,0.116180,-0.059370,0.979144,0.0000,,0.2531,-0.1941,0.3169,0.3736,3.130732,0.0322,-0.6178,-0.6081,-2.8572,2.0508,2.9050,1.7081,-0.0020,-0.0810,-0.0286,0.1110,-19.0322,-17.6958,-23.7555,145.52,55.00
6.598,142,1,0.9911,0.308997,0.328867,-0.000000,0.2274,0.3350,0.0219,0.6106,0.3350,0.0219,0.6106,-0.150046,0.077898,-0.087548,0.981709,0.0000,,0.1752,-0.1527,0.2952,0.3943,2.881416,0.0216,-0.6041,-0.6250,-2.8621,2.6737,3.5086,2.4529,-0.1824,0.1705,-0.5088,-0.2128,18.0740,18.7186,22.9011,140.55,55.00
6.634,143,1,0.9666,0.310921,0.322930,-0.000000,0.2028,0.3350,0.0260,0.6187,0.3350,0.0260,0.6187,-0.178300,0.076335,-0.079807,0.977759,0.0000,,0.2517,-0.1949,0.3142,0.3853,3.007025,0.0320,-0.6161,-0.6145,-2.8640,2.0200,2.8973,1.6305,-0.0108,-0.0815,-0.0384,0.1293,-19.9746,-18.3676,-23.0035,145.52,55.00
6.664,144,1,0.9888,0.307251,0.328198,-0.000000,0.1831,0.3350,0.0201,0.6125,0.3350,0.0201,0.6125,-0.147811,0.077026,-0.156900,0.973448,0.0000,,0.1770,-0.1612,0.2922,0.4006,2.991712,0.0219,-0.6027,-0.6304,-2.8689,2.5972,3.4686,2.4592,-0.1844,0.1661,-0.4853,-0.1898,18.0145,18.6059,23.3542,140.91,55.00
6.703,145,1,0.9848,0.306600,0.318910,0.000000,0.2249,0.3350,0.0179,0.6248,0.3350,0.0179,0.6248,-0.191342,0.063245,-0.094939,0.974872,0.0000,,0.2461,-0.1927,0.3087,0.3901,2.995695,0.0323,-0.6146,-0.6199,-2.8708,2.0637,2.9198,1.6669,-0.0019,-0.0789,-0.0277,0.1064,-19.0291,-18.0250,-22.8677,145.52,55.00
6.745,146,1,0.9872,0.306950,0.311694,-0.000000,0.2445,0.3350,0.0181,0.6374,0.3350,0.0181,0.6374,-0.207644,0.040919,-0.118942,0.970084,0.0000,,0.1725,-0.1500,0.2898,0.4189,2.971940,0.0216,-0.6010,-0.6366,-2.8743,2.6846,3.4965,2.5072,-0.1821,0.1699,-0.4686,-0.1998,18.0748,18.5688,23.4298,139.50,55.00
6.782,147,1,0.9834,0.309254,0.315988,-0.000000,0.2298,0.3350,0.0223,0.6335,0.3350,0.0223,0.6335,-0.202792,0.033916,-0.047189,0.977496,0.0000,,0.2476,-0.1939,0.3078,0.4006,3.082458,0.0321,-0.6130,-0.6259,-2.8760,2.0165,2.8951,1.7260,-0.0101,-0.0816,-0.0357,0.1325,-20.0915,-18.2540,-22.7988,145.52,55.00
6.823,148,1,0.9896,0.311287,0.314906,-0.000000,0.2329,0.3350,0.0267,0.6344,0.3350,0.0267,0.6344,-0.179754,0.000028,-0.121003,0.976241,0.0000,,0.1772,-0.1615,0.2870,0.4255,3.023891,0.0220,-0.5997,-0.6413,-2.8794,2.5862,3.4354,2.5664,-0.1849,0.1643,-0.4445,-0.1664,18.0209,18.3097,23.3803,139.78,55.00
6.863,149,1,0.9768,0.308501,0.313188,-0.000000,0.2319,0.3350,0.0225,0.6370,0.3350,0.0225,0.6370,-0.190851,0.054427,-0.090934,0.975881,0.0000,,0.2445,-0.1920,0.3039,0.4064,3.055559,0.0323,-0.6115,-0.6309,-2.8813,2.0469,2.9021,1.7546,-0.0011,-0.0802,-0.0248,0.1153,-19.0909,-17.8405,-23.0201,145.52,55.00
6.905,150,1,0.9866,0.305522,0.314360,-0.000000,0.2092,0.3350,0.0164,0.6358,0.3350,0.0164,0.6358,-0.207741,0.078051,0.023217,0.974788,0.0000,,0.1673,-0.1494,0.2836,0.4238,2.735277,0.0217,-0.5981,-0.6472,-2.8909,2.6628,3.4910,2.5819,-0.1823,0.1685,-0.4436,-0.2480,18.0439,18.6198,23.3598,145.52,55.00
6.944,151,1,0.9875,0.310920,0.317812,-0.000000,0.2172,0.3350,0.0250,0.6306,0.3350,0.0250,0.6306,-0.189216,0.094816,0.033690,0.976766,0.0000,,0.2410,-0.1898,0.2987,0.4063,2.957793,0.0323,-0.6100,-0.6363,-2.8928,2.0460,2.9008,1.8129,-0.0059,-0.0789,-0.0292,0.1223,-19.7244,-18.2675,-22.6569,145.52,55.00
6.985,152,1,0.9843,0.309429,0.317955,-0.000000,0.2360,0.3350,0.0239,0.6295,0.3350,0.0239,0.6295,-0.182538,0.043912,0.007475,0.982189,0.0000,,0.1654,-0.1505,0.2796,0.4261,2.783168,0.0219,-0.5968,-0.6520,-2.9021,2.6351,3.4756,2.6629,-0.1830,0.1666,-0.4180,-0.2381,18.0027,18.6057,23.4429,145.52,55.00
7.028,153,1,0.9814,0.311992,0.325406,-0.000000,0.2175,0.3350,0.0283,0.6185,0.3350,0.0283,0.6185,-0.161716,0.074664,-0.055699,0.982431,0.0000,,0.2351,-0.1868,0.2927,0.4029,3.139925,0.0325,-0.6087,-0.6410,-2.9040,2.0715,2.9190,1.7086,-0.0006,-0.0774,-0.0222,0.1081,-19.3443,-18.0992,-23.7460,145.52,55.00
7.058,154,1,0.9860,0.311541,0.326614,-0.000000,0.1900,0.3350,0.0283,0.6148,0.3350,0.0283,0.6148,-0.161131,0.091966,-0.049071,0.981413,0.0000,,0.1650,-0.1461,0.2771,0.4163,2.800860,0.0218,-0.5954,-0.6569,-2.9076,2.6670,3.4664,2.4530,-0.1825,0.1667,-0.3838,-0.1920,17.9786,18.3418,22.8796,139.92,55.00
7.086,155,1,0.9812,0.310823,0.325023,-0.000000,0.1845,0.3350,0.0270,0.6164,0.3350,0.0270,0.6164,-0.187785,0.036213,-0.097520,0.976686,0.0000,,0.2344,-0.1774,0.2888,0.3990,3.108364,0.0331,-0.6078,-0.6444,-2.9060,2.2187,2.9053,1.7480,0.0129,-0.0683,-0.0087,0.0672,-17.6191,-18.1990,-21.7429,145.52,55.00
7.126,156,1,0.9862,0.310542,0.321661,-0.000000,0.2358,0.3350,0.0262,0.6215,0.3350,0.0262,0.6215,-0.170414,0.040761,-0.118937,0.977319,0.0000,,0.1675,-0.1152,0.2774,0.4080,2.787127,0.0208,-0.5942,-0.6622,-2.9162,2.9270,3.4859,2.6432,-0.1794,0.1729,-0.3300,-0.3999,18.2501,18.6780,23.6272,145.52,55.00
7.170,157,1,0.9896,0.309663,0.323327,-0.000000,0.2116,0.3350,0.0245,0.6201,0.3350,0.0245,0.6201,-0.167905,0.033944,-0.159884,0.972159,0.0000,,0.2393,-0.1882,0.2909,0.4034,3.029994,0.0319,-0.6068,-0.6497,-2.9181,1.9507,2.8610,1.8995,-0.0090,-0.0849,-0.0273,0.1652,-20.2851,-18.7142,-21.7992,145.52,55.00
7.203,158,0,,0.000000,0.000000,0.000000,1.0000,0.3350,0.0245,0.6201,0.3350,0.0245,0.6201,-0.167905,0.033944,-0.159884,0.972159,0.0000,,0.1679,-0.1610,0.2717,0.4286,2.952381,0.0225,-0.5939,-0.6638,-2.9216,2.5134,3.3979,2.7797,-0.1863,0.1589,-0.3681,-0.1436,18.0114,18.4044,23.4577,139.99,55.00
7.247,159,1,0.9164,0.530524,0.959939,0.000001,1.1175,0.3350,0.2094,0.5377,0.3350,0.2094,0.5377,0.317029,-0.598642,0.731804,-0.074716,0.0361,,0.2354,-0.1868,0.2873,0.4791,1.641353,0.0322,-0.6056,-0.6538,-2.9232,1.9794,2.8768,1.6109,0.0026,-0.0838,-0.0137,0.1381,-19.1313,-17.8181,-24.6186,145.52,55.00
7.305,160,1,0.9031,0.536488,0.970935,0.000001,1.0749,0.3350,0.2427,0.5229,0.3350,0.2427,0.5229,0.111106,-0.623683,0.770803,0.067360,0.0341,,0.1559,-0.1485,0.2690,0.4996,2.936206,0.0222,-0.5925,-0.6688,-2.9328,2.5955,3.4668,2.3528,-0.1838,0.1631,-0.3635,-0.2283,18.0768,18.6366,23.0611,145.52,55.00
7.351,161,1,0.9000,0.534661,0.971173,0.000001,1.0771,0.3350,0.2487,0.5202,0.3350,0.2487,0.5202,0.070366,-0.627261,0.771171,0.082988,0.0342,,0.2644,-0.1768,0.3007,0.4839,1.885435,0.0318,-0.6053,-0.6572,-2.9106,2.0242,2.6443,1.6131,-0.0065,-0.0792,-0.0249,0.1908,-19.1696,-19.5105,-22.1863,145.52,55.00
7.383,162,1,0.9119,0.535571,0.972276,0.000001,1.0775,0.3350,0.2498,0.5197,0.3350,0.2498,0.5197,0.065009,-0.625767,0.771969,0.090845,0.0342,,0.2047,-0.1485,0.2707,0.4874,3.119799,0.0217,-0.5929,-0.6723,-2.9192,2.7165,3.1438,2.5004,-0.2396,0.1747,-0.5200,-0.1833,19.0048,18.4904,23.4943,145.52,55.00
7.423,163,1,0.9138,0.541516,0.968240,0.000001,1.0681,0.3350,0.2500,0.5196,0.3350,0.2500,0.5196,0.051357,-0.627175,0.771054,0.097412,0.0338,,0.2616,-0.1763,0.2964,0.4867,1.925502,0.0322,-0.6038,-0.6624,-2.9215,1.9586,2.6497,1.7210,-0.0071,-0.0903,-0.0190,0.2101,-20.9247,-17.3046,-22.9008,145.52,55.00
7.465,164,1,0.9255,0.553729,0.967428,0.000001,1.0793,0.3350,0.2500,0.5196,0.3350,0.2500,0.5196,0.048296,-0.626655,0.770946,0.103023,0.0343,,0.1793,-0.1600,0.2661,0.5065,3.061066,0.0230,-0.5913,-0.6762,-2.9308,2.5225,3.2871,2.5503,-0.1911,0.1620,-0.4142,-0.1713,18.1841,19.0005,23.2578,145.52,55.00
7.505,165,1,0.9314,0.561289,0.971889,0.000001,1.0538,0.3350,0.2500,0.5196,0.3350,0.2500,0.5196,0.055486,-0.622359,0.772413,0.113877,0.0331,,0.2400,-0.1834,0.2845,0.5021,1.937127,0.0324,-0.6026,-0.6668,-2.9327,1.9565,2.8080,1.7656,0.0021,-0.0863,-0.0110,0.1623,-19.4077,-17.5138,-22.8038,145.52,55.00
7.543,166,1,0.9183,0.570268,0.968199,0.000001,1.0581,0.3350,0.2500,0.5196,0.3350,0.2500,0.5196,0.055245,-0.618872,0.776149,0.107412,0.0333,,0.1575,-0.1505,0.2638,0.5072,3.128599,0.0227,-0.5897,-0.6814,-2.9423,2.5708,3.4219,2.6044,-0.1855,0.1628,-0.3681,-0.2130,18.1049,18.7860,23.3728,145.52,55.00
7.582,167,1,0.9138,0.574804,0.973556,0.000001,1.0530,0.3350,0.2500,0.5196,0.3350,0.2500,0.5196,0.058046,-0.615884,0.778426,0.106630,0.0331,,0.2307,-0.1730,0.2761,0.4991,2.200004,0.0332,-0.6018,-0.6699,-2.9407,2.1620,2.8431,1.8789,0.0129,-0.0705,-0.0037,0.0952,-17.5935,-18.3262,-22.0016,145.52,55.00
7.624,168,1,0.9358,0.579852,0.975158,0.000001,1.0721,0.3350,0.2500,0.5196,0.3350,0.2500,0.5196,0.072718,-0.616138,0.778632,0.093909,0.0340,,0.1638,-0.1153,0.2632,0.4780,2.752100,0.0214,-0.5887,-0.6867,-2.9500,2.8884,3.4121,2.7156,-0.1817,0.1760,-0.3274,-0.3134,18.4334,18.6785,23.2129,145.52,55.00
7.663,169,1,0.9239,0.589352,0.979106,0.000001,1.0642,0.3350,0.2500,0.5196,0.3350,0.2500,0.5196,0.067929,-0.607475,0.784448,0.104888,0.0336,,0.2328,-0.1686,0.2772,0.4944,2.347117,0.0336,-0.6021,-0.6724,-2.9337,2.2839,2.8318,1.9513,0.0217,-0.0625,0.0023,0.0628,-16.3238,-18.7743,-20.8084,145.52,55.00
7.702,170,1,0.9410,0.585786,0.977075,0.000001,1.0824,0.3350,0.2500,0.5196,0.3350,0.2500,0.5196,0.098165,-0.601105,0.786518,0.102112,0.0345,,0.1764,-0.1056,0.2664,0.4645,2.491094,0.0217,-0.5893,-0.6890,-2.9468,2.9996,3.3644,2.9137,-0.0709,0.1167,-0.1397,-0.8722,5.0067,18.1782,24.6027,145.52,55.00
7.742,171,1,0.9623,0.579947,0.980911,0.000001,1.0685,0.3350,0.2500,0.5196,0.3350,0.2500,0.5196,0.119924,-0.577085,0.796553,0.134512,0.0338,,0.2460,-0.1754,0.2826,0.4950,1.829513,0.0324,-0.6018,-0.6773,-2.9420,2.0118,2.7171,1.7598,-0.0005,-0.0793,-0.0147,0.1753,-19.0947,-19.1191,-22.8040,145.52,55.00
7.782,172,1,0.9884,0.554336,0.963846,0.000001,1.0216,0.3350,0.2500,0.5196,0.3350,0.2500,0.5196,0.192285,-0.499154,0.801616,0.266992,0.0316,,0.1855,-0.1423,0.2584,0.4945,2.868311,0.0224,-0.5894,-0.6921,-2.9506,2.6872,3.2027,2.5986,-0.1925,0.1691,-0.4162,-0.1868,18.7774,18.2208,23.2955,145.52,55.00
7.822,173,1,0.9816,0.550165,0.955001,0.000000,1.0737,0.3350,0.2500,0.5196,0.3350,0.2500,0.5196,0.285582,-0.438343,0.778363,0.347059,0.0341,,0.2461,-0.1726,0.2798,0.4940,1.438590,0.0325,-0.6005,-0.6819,-2.9527,1.9770,2.6949,1.7779,-0.0026,-0.0865,-0.0116,0.1945,-20.6391,-17.3938,-23.0590,145.52,55.00
7.862,174,1,0.9815,0.571399,0.962090,0.000000,0.9682,0.3350,0.2500,0.5196,0.3350,0.2500,0.5196,0.286393,-0.394244,0.747769,0.450990,0.0291,,0.1638,-0.1500,0.2553,0.5090,2.570150,0.0229,-0.5881,-0.6959,-2.9617,2.5488,3.3237,2.5950,-0.1888,0.1619,-0.3505,-0.1854,18.1249,18.9383,23.2218,145.52,55.00
7.891,175,1,0.9905,0.594314,0.968466,0.000000,0.8539,0.3350,0.2500,0.5196,0.3350,0.2500,0.5196,0.332403,-0.350425,0.700481,0.525392,0.0237,,0.2280,-0.1688,0.2689,0.4997,1.639156,0.0333,-0.5999,-0.6847,-2.9613,2.1446,2.8092,1.9308,0.0154,-0.0723,0.0025,0.1064,-17.5101,-17.9805,-21.4996,145.52,55.00
7.929,176,1,0.9864,0.611165,0.964593,0.000000,0.6716,0.3350,0.2500,0.5196,0.3350,0.2500,0.5196,0.344804,-0.258327,0.681164,0.591940,0.0151,,0.1629,-0.1129,0.2557,0.4806,2.762308,0.0216,-0.5870,-0.7011,-2.9704,2.8863,3.3640,2.8368,-0.1829,0.1763,-0.3045,-0.2914,18.5863,18.4632,23.6144,145.52,55.00
7.969,177,1,0.9689,0.626462,0.955620,0.000000,0.7368,0.3350,0.2500,0.5196,0.3350,0.2500,0.5196,0.423745,-0.135195,0.555534,0.702528,0.0182,,0.2323,-0.1649,0.2706,0.4947,1.527506,0.0336,-0.6001,-0.6873,-2.9559,2.2483,2.7770,1.8737,0.0180,-0.0639,0.0018,0.0858,-16.9078,-18.7383,-21.6733,145.52,55.00
8.009,178,1,0.9861,0.629421,0.940871,0.000000,0.6340,0.3350,0.2500,0.5196,0.3350,0.2500,0.5196,0.418771,-0.010455,0.462999,0.781123,0.0134,,0.1747,-0.1060,0.2584,0.4698,2.317517,0.0216,-0.5874,-0.7039,-2.9665,2.9847,3.3163,2.7734,-0.0805,0.1128,-0.1535,-0.7025,8.9621,18.3785,24.1257,145.52,55.00
8.049,179,1,0.9915,0.638022,0.951496,0.000000,0.6133,0.3350,0.2500,0.5196,0.3350,0.2500,0.5196,0.428057,0.045890,0.415186,0.801425,0.0124,,0.2417,-0.1711,0.2745,0.4961,1.542087,0.0324,-0.5998,-0.6924,-2.9648,1.9678,2.6924,1.8219,-0.0004,-0.0835,-0.0096,0.1999,-19.7156,-18.9369,-22.3020,145.52,55.00
8.077,180,1,0.9932,0.649181,0.953851,0.000000,0.6575,0.3350,0.2500,0.5196,0.3350,0.2500,0.5196,0.431515,0.044286,0.403021,0.805858,0.0145,,0.1748,-0.1445,0.2503,0.5038,1.998784,0.0229,-0.5877,-0.7063,-2.9734,2.5984,3.2145,2.6956,-0.1925,0.1630,-0.3517,-0.1680,18.5402,18.4678,23.4582,145.52,55.00
8.115,181,1,0.9928,0.651559,0.964449,0.000000,0.5920,0.3350,0.2500,0.5196,0.3350,0.2500,0.5196,0.451259,0.104175,0.347827,0.815186,0.0114,,0.2324,-0.1683,0.2672,0.4992,1.691107,0.0330,-0.5988,-0.6958,-2.9755,2.0310,2.7426,1.7028,0.0061,-0.0810,-0.0016,0.1604,-19.6550,-17.2622,-23.9158,145.52,55.00
8.145,182,1,0.9963,0.648456,0.958129,0.000000,0.5552,0.3350,0.2500,0.5196,0.3350,0.2500,0.5196,0.470936,0.125866,0.314048,0.814709,0.0097,,0.1493,-0.1339,0.2490,0.5051,2.066791,0.0226,-0.5863,-0.7105,-2.9844,2.6408,3.3820,2.4912,-0.1852,0.1654,-0.2969,-0.2209,18.0955,18.9939,23.2292,145.52,55.00
8.188,183,1,0.9941,0.648265,0.952593,0.000000,0.6514,0.3350,0.2500,0.5196,0.3350,0.2500,0.5196,0.483001,0.115702,0.282456,0.820696,0.0142,,0.2533,-0.1636,0.2780,0.4860,1.703103,0.0320,-0.5987,-0.6996,-2.9734,1.8926,2.5657,1.6719,-0.0005,-0.0931,-0.0035,0.2613,-20.5916,-19.0436,-22.8982,145.52,55.00
8.219,184,1,0.9917,0.641127,0.941494,0.000001,0.6130,0.3350,0.2500,0.5196,0.3350,0.2500,0.5196,0.497233,0.157978,0.221564,0.823840,0.0124,,0.1894,-0.1550,0.2487,0.5085,1.836772,0.0236,-0.5871,-0.7118,-2.9828,2.4621,3.0782,2.5079,-0.2015,0.1518,-0.2966,-0.1031,18.5209,18.4434,23.2373,145.52,55.00
8.257,185,1,0.9907,0.632456,0.939877,0.000001,0.5827,0.3350,0.2500,0.5196,0.3350,0.2500,0.5196,0.494800,0.200904,0.219619,0.816442,0.0110,,0.2457,-0.1638,0.2714,0.4908,1.798269,0.0329,-0.5976,-0.7030,-2.9838,1.8918,2.6139,1.7252,0.0107,-0.0932,0.0097,0.2219,-19.5542,-17.1374,-22.8507,145.52,55.00
8.300,186,1,0.9933,0.627884,0.936720,0.000001,0.5862,0.3350,0.2500,0.5196,0.3350,0.2500,0.5196,0.487182,0.252883,0.211554,0.808671,0.0111,,0.1613,-0.1435,0.2440,0.5109,1.870604,0.0236,-0.5855,-0.7165,-2.9934,2.5443,3.2617,2.5634,-0.1917,0.1616,-0.3261,-0.1695,18.5333,19.1014,23.3236,145.52,55.00
8.332,187,1,0.9927,0.627079,0.946373,0.000001,0.5648,0.3350,0.2500,0.5196,0.3350,0.2500,0.5196,0.487141,0.241206,0.216441,0.810966,0.0101,,0.2458,-0.1622,0.2700,0.4901,1.777621,0.0327,-0.5959,-0.7062,-2.9888,1.8661,2.5961,1.7623,0.0084,-0.0948,0.0084,0.2446,-19.9424,-18.0230,-23.0390,145.52,55.00
8.374,188,1,0.9949,0.614964,0.943141,0.000001,0.5547,0.3350,0.2500,0.5196,0.3350,0.2500,0.5196,0.498030,0.208934,0.214203,0.813898,0.0096,,0.1746,-0.1476,0.2422,0.5106,1.836895,0.0239,-0.5841,-0.7190,-2.9984,2.4983,3.1489,2.5857,-0.1978,0.1554,-0.2965,-0.1280,18.7128,18.5139,23.2100,145.52,55.00
8.412,189,1,0.9901,0.612238,0.941550,0.000001,0.6252,0.3350,0.2500,0.5196,0.3350,0.2500,0.5196,0.489324,0.177962,0.218308,0.825369,0.0130,,0.2718,-0.1455,0.2893,0.4620,1.644880,0.0322,-0.5937,-0.7090,-2.9771,1.6291,2.3346,1.8211,0.0404,-0.1039,0.0401,0.6007,-20.8990,-18.5914,-22.8475,145.52,55.00
8.444,190,1,0.9915,0.609195,0.933337,0.000001,0.5095,0.3350,0.2500,0.5196,0.3350,0.2500,0.5196,0.475957,0.167753,0.284856,0.814973,0.0075,,0.2137,-0.1640,0.2518,0.5078,1.549987,0.0258,-0.5822,-0.7187,-2.9926,2.2435,2.8768,2.6637,-0.1953,0.1298,-0.2472,-0.0037,19.3320,18.4990,23.2243,145.52,55.00
8.476,191,1,0.9940,0.594386,0.930323,0.000000,0.5761,0.3350,0.2500,0.5196,0.3350,0.2500,0.5196,0.449708,0.133198,0.346550,0.812357,0.0106,,0.2616,-0.1542,0.2797,0.4757,1.556522,0.0332,-0.5923,-0.7103,-2.9844,1.6897,2.4497,1.7124,0.0297,-0.1075,0.0342,0.3165,-19.3883,-16.7113,-23.8354,145.52,55.00
8.515,192,1,0.9909,0.598633,0.917590,0.000000,0.6652,0.3350,0.2500,0.5196,0.3350,0.2500,0.5196,0.455143,0.010720,0.365609,0.811825,0.0148,,0.1804,-0.1579,0.2430,0.5165,1.924953,0.0254,-0.5804,-0.7220,-2.9962,2.3822,3.1080,2.4535,-0.2147,0.1503,-0.2981,-0.0905,19.0930,19.1159,22.7275,145.52,55.00
8.555,193,1,0.9913,0.547254,0.921529,0.000000,0.6902,0.3350,0.2500,0.5196,0.3350,0.2500,0.5196,0.422098,-0.253046,0.631148,0.599544,0.0160,,0.2677,-0.1465,0.2839,0.4661,0.931221,0.0329,-0.5899,-0.7142,-2.9833,1.5649,2.3587,1.6434,0.0456,-0.1066,0.0466,0.6475,-21.0319,-18.7154,-23.1263,145.52,55.00
8.597,194,1,0.9842,0.514291,0.931160,0.000000,1.0853,0.3350,0.2500,0.5196,0.3350,0.2500,0.5196,0.382056,-0.392805,0.692057,0.469887,0.0346,,0.2090,-0.1655,0.2479,0.5122,1.984365,0.0269,-0.5784,-0.7237,-3.0020,2.1733,2.8927,2.4681,-0.1881,0.1261,-0.2382,0.0037,19.3013,18.4623,23.1370,145.52,55.00
8.639,195,1,0.9850,0.507097,0.926469,0.000000,1.1074,0.3350,0.2500,0.5196,0.3350,0.2500,0.5196,0.331953,-0.437810,0.741081,0.385912,0.0356,,0.2587,-0.1532,0.2754,0.4775,0.959130,0.0333,-0.5887,-0.7161,-2.9927,1.5553,2.4526,1.6840,0.0409,-0.1116,0.0464,0.4238,-19.8874,-16.7837,-22.9149,145.52,55.00
8.679,196,1,0.9801,0.494295,0.924277,0.000000,1.0461,0.3350,0.2500,0.5196,0.3350,0.2500,0.5196,0.271500,-0.464629,0.774514,0.332468,0.0328,,0.1788,-0.1683,0.2413,0.5261,2.290007,0.0266,-0.5767,-0.7268,-3.0069,2.2077,3.1021,2.5198,-0.1921,0.1368,-0.2492,-0.0513,18.9461,18.9863,23.2440,145.52,55.00
8.719,197,1,0.9781,0.496586,0.927430,0.000000,1.0307,0.3350,0.2500,0.5196,0.3350,0.2500,0.5196,0.224270,-0.490879,0.792724,0.283424,0.0320,,0.2357,-0.1707,0.2622,0.5031,1.257361,0.0337,-0.5874,-0.7179,-3.0015,1.6564,2.6722,1.7400,0.0222,-0.1083,0.0282,0.2590,-19.3502,-16.9788,-22.8103,145.52,55.00
8.755,198,1,0.9792,0.497280,0.930346,0.000000,1.0189,0.3350,0.2500,0.5196,0.3350,0.2500,0.5196,0.214328,-0.493843,0.794075,0.282185,0.0315,,0.1505,-0.1610,0.2386,0.5310,2.571406,0.0259,-0.5752,-0.7299,-3.0130,2.3088,3.2839,2.5786,-0.1896,0.1454,-0.2521,-0.1204,18.5616,18.6738,23.3258,145.52,55.00
8.798,199,1,0.9770,0.503392,0.940516,0.000001,1.0264,0.3350,0.2500,0.5196,0.3350,0.2500,0.5196,0.159731,-0.526143,0.801201,0.236085,0.0318,,0.2438,-0.1657,0.2659,0.4955,1.370372,0.0334,-0.5857,-0.7190,-2.9972,1.6466,2.5948,1.7736,0.0243,-0.1048,0.0261,0.3477,-19.8335,-18.4474,-22.9369,145.52,55.00
8.839,200,1,0.9827,0.512001,0.950529,0.000001,1.0435,0.3350,0.2500,0.5196,0.3350,0.2500,0.5196,0.125944,-0.547426,0.798353,0.217015,0.0326,,0.1703,-0.1631,0.2387,0.5260,2.668234,0.0262,-0.5738,-0.7302,-3.0085,2.2829,3.1492,2.6027,-0.1921,0.1416,-0.2509,-0.0799,18.7625,18.5940,23.2261,145.52,55.00
8.882,201,1,0.9763,0.520345,0.953371,0.000001,1.0624,0.3350,0.2500,0.5196,0.3350,0.2500,0.5196,0.105918,-0.571012,0.794608,0.176990,0.0335,,0.2474,-0.1642,0.2677,0.4927,1.463701,0.0334,-0.5841,-0.7204,-2.9955,1.5976,2.5648,1.7741,0.0297,-0.1085,0.0330,0.3747,-20.1281,-17.6501,-23.1541,145.52,55.00
8.913,202,1,0.9707,0.526042,0.958796,0.000001,1.0611,0.3350,0.2500,0.5196,0.3350,0.2500,0.5196,0.100250,-0.587889,0.786391,0.161011,0.0335,,0.1691,-0.1694,0.2397,0.5309,2.706380,0.0265,-0.5721,-0.7313,-3.0077,2.2132,3.1634,2.5876,-0.1890,0.1383,-0.2477,-0.0695,18.6430,18.7384,23.1542,145.52,55.00
8.951,203,1,0.9702,0.534600,0.962282,0.000001,1.0565,0.3350,0.2500,0.5196,0.3350,0.2500,0.5196,0.090391,-0.592261,0.784848,0.158334,0.0332,,0.2322,-0.1737,0.2602,0.5073,1.610237,0.0338,-0.5833,-0.7229,-3.0009,1.6613,2.6963,1.8043,0.0208,-0.1070,0.0259,0.2560,-19.3311,-17.2520,-22.7676,145.52,55.00
8.994,204,1,0.9644,0.544985,0.965805,0.000001,1.0378,0.3350,0.2500,0.5196,0.3350,0.2500,0.5196,0.097664,-0.597828,0.780240,0.155849,0.0324,,0.1440,-0.1622,0.2386,0.5341,2.910595,0.0260,-0.5711,-0.7349,-3.0122,2.3062,3.3254,2.6446,-0.1890,0.1463,-0.2530,-0.1302,18.4301,18.8665,23.3457,145.52,55.00
9.036,205,1,0.9373,0.584519,0.963420,0.000001,0.9902,0.3350,0.2500,0.5196,0.3350,0.2500,0.5196,0.066474,-0.602711,0.780376,0.152751,0.0301,,0.2460,-0.1669,0.2670,0.4955,1.595615,0.0332,-0.5828,-0.7250,-2.9939,1.5891,2.5744,1.8140,0.0288,-0.1055,0.0289,0.4372,-20.3689,-18.9967,-22.8816,145.52,55.00
9.077,206,1,0.9318,0.665976,0.956913,0.000001,1.0152,0.3350,0.2500,0.5196,0.3350,0.2500,0.5196,0.071665,-0.582122,0.790794,0.175051,0.0313,,0.1804,-0.1722,0.2406,0.5292,2.692967,0.0269,-0.5710,-0.7352,-3.0062,2.1619,3.0830,2.6465,-0.1834,0.1319,-0.2386,-0.0418,18.5495,18.2770,23.2096,145.52,55.00
9.116,207,1,0.9064,0.698178,0.956674,0.000001,0.9405,0.3350,0.2500,0.5196,0.3350,0.2500,0.5196,0.059539,-0.588820,0.792908,0.145060,0.0278,,0.2431,-0.1650,0.2634,0.4963,1.522764,0.0335,-0.5817,-0.7285,-3.0030,1.5787,2.5810,1.7491,0.0323,-0.1092,0.0371,0.3568,-19.6408,-17.5245,-23.4804,145.52,55.00
9.145,208,1,0.8670,0.728841,0.954363,0.000001,0.9959,0.3350,0.2500,0.5196,0.3350,0.2500,0.5196,0.079275,-0.592898,0.793409,0.112646,0.0304,,0.1618,-0.1671,0.2364,0.5331,2.717125,0.0265,-0.5696,-0.7396,-3.0152,2.2278,3.1902,2.5407,-0.1896,0.1399,-0.2486,-0.0785,18.7379,18.8109,23.0735,145.52,55.00
9.183,209,1,0.8918,0.755749,0.949507,0.000001,0.9646,0.3350,0.2500,0.5196,0.3350,0.2500,0.5196,0.071063,-0.594757,0.794182,0.102413,0.0289,,0.2385,-0.1708,0.2617,0.5029,1.515267,0.0335,-0.5802,-0.7301,-3.0021,1.5665,2.6318,1.7503,0.0291,-0.1096,0.0332,0.3547,-19.9791,-17.6051,-22.8797,145.52,55.00
9.212,210,1,0.9148,0.776074,0.947648,0.000001,0.9499,0.3350,0.2500,0.5196,0.3350,0.2500,0.5196,0.053579,-0.591324,0.798204,0.101662,0.0282,,0.1566,-0.1726,0.2377,0.5385,2.729642,0.0267,-0.5680,-0.7410,-3.0143,2.1791,3.2332,2.5832,-0.1855,0.1378,-0.2453,-0.0803,18.4973,18.7127,23.2711,145.52,55.00
9.255,211,1,0.9178,0.796458,0.941929,0.000001,0.9147,0.3350,0.2500,0.5196,0.3350,0.2500,0.5196,0.028620,-0.589946,0.800261,0.103573,0.0266,,0.2222,-0.1796,0.2551,0.5170,1.636534,0.0339,-0.5793,-0.7323,-3.0069,1.6460,2.7652,1.7674,0.0213,-0.1055,0.0256,0.2418,-19.0372,-17.2507,-23.0451,145.52,55.00
9.297,212,1,0.8921,0.818737,0.945312,0.000001,0.9177,0.3350,0.2500,0.5196,0.3350,0.2500,0.5196,0.019764,-0.579820,0.805518,0.120659,0.0267,,0.1319,-0.1627,0.2379,0.5394,2.852098,0.0261,-0.5669,-0.7445,-3.0182,2.2943,3.3920,2.5899,-0.1861,0.1458,-0.2510,-0.1437,18.3429,18.8065,23.3005,145.52,55.00
9.330,213,1,0.8621,0.825446,0.947895,0.000001,0.9308,0.3350,0.2500,0.5196,0.3350,0.2500,0.5196,0.023278,-0.579535,0.807551,0.107048,0.0273,,0.2369,-0.1775,0.2623,0.5085,1.400817,0.0331,-0.5781,-0.7342,-2.9997,1.4683,2.6630,1.6684,0.0328,-0.1113,0.0341,0.4760,-21.0609,-18.6499,-23.5692,145.52,55.00
9.369,214,1,0.8910,0.840484,0.955613,0.000001,0.9163,0.3350,0.2500,0.5196,0.3350,0.2500,0.5196,0.011209,-0.559172,0.818965,0.128439,0.0266,,0.1637,-0.1859,0.2406,0.5452,2.400121,0.0274,-0.5658,-0.7441,-3.0143,2.0151,3.2024,2.4511,-0.1743,0.1281,-0.2311,-0.0456,18.3860,18.3744,23.0235,145.52,55.00
9.413,215,1,0.8830,0.843330,0.957305,0.000001,0.8723,0.3350,0.2500,0.5196,0.3350,0.2500,0.5196,0.004467,-0.556801,0.821050,0.125817,0.0246,,0.2318,-0.1773,0.2580,0.5116,1.359401,0.0334,-0.5770,-0.7380,-3.0105,1.4621,2.6890,1.6472,0.0361,-0.1136,0.0415,0.3548,-19.2774,-17.7287,-22.9431,145.52,55.00
9.455,216,1,0.8967,0.842400,0.957171,0.000001,0.8865,0.3350,0.2500,0.5196,0.3350,0.2500,0.5196,0.002187,-0.550318,0.824389,0.132394,0.0252,,0.1477,-0.1771,0.2362,0.5457,2.512627,0.0270,-0.5646,-0.7488,-3.0239,2.1155,3.2790,2.4791,-0.1821,0.1351,-0.2418,-0.0787,18.6294,18.6179,23.3027,145.52,55.00
9.485,217,1,0.8790,0.833152,0.960434,0.000001,0.8762,0.3350,0.2500,0.5196,0.3350,0.2500,0.5196,0.003001,-0.547031,0.825625,0.138173,0.0248,,0.2137,-0.1859,0.2518,0.5258,1.473788,0.0339,-0.5761,-0.7400,-3.0150,1.5830,2.8287,1.6936,0.0230,-0.1081,0.0283,0.2410,-18.9925,-17.0884,-22.8295,145.52,55.00
9.524,218,1,0.8616,0.818018,0.960302,0.000001,0.8957,0.3350,0.2500,0.5196,0.3350,0.2500,0.5196,0.012396,-0.544423,0.828324,0.131639,0.0257,,0.1197,-0.1697,0.2392,0.5488,2.665747,0.0265,-0.5636,-0.7522,-3.0269,2.2148,3.4650,2.5342,-0.1821,0.1417,-0.2475,-0.1437,18.1950,18.7602,23.4195,145.52,55.00
9.567,219,1,0.9043,0.798365,0.956534,0.000001,0.8932,0.3350,0.2500,0.5196,0.3350,0.2500,0.5196,0.035100,-0.549875,0.825879,0.119706,0.0256,,0.2204,-0.1899,0.2563,0.5253,1.280219,0.0333,-0.5748,-0.7420,-3.0101,1.4571,2.8028,1.6148,0.0251,-0.1153,0.0295,0.3202,-20.5121,-18.3384,-23.5868,144.02,55.00
9.598,220,1,0.9361,0.773344,0.955343,0.000001,0.9089,0.3350,0.2500,0.5196,0.3350,0.2500,0.5196,0.049449,-0.554220,0.823053,0.113923,0.0263,,0.1392,-0.1902,0.2413,0.5564,2.347611,0.0274,-0.5622,-0.7525,-3.0234,2.0051,3.3617,2.3989,-0.1739,0.1310,-0.2350,-0.0807,18.1069,18.3911,23.1026,145.52,55.00
9.636,221,1,0.9323,0.745495,0.960086,0.000001,0.9228,0.3350,0.2500,0.5196,0.3350,0.2500,0.5196,0.069845,-0.559707,0.818670,0.107839,0.0270,,0.2130,-0.1865,0.2498,0.5275,1.252387,0.0336,-0.5738,-0.7458,-3.0264,1.4834,2.8264,1.5907,0.0277,-0.1140,0.0356,0.2146,-18.9065,-17.9989,-22.9531,139.51,55.00
9.666,222,1,0.9133,0.711060,0.957503,0.000001,1.0262,0.3350,0.2500,0.5196,0.3350,0.2500,0.5196,0.095034,-0.564240,0.813484,0.104144,0.0318,,0.1302,-0.1733,0.2333,0.5506,2.491395,0.0268,-0.5614,-0.7572,-3.0393,2.1322,3.3657,2.4237,-0.1783,0.1358,-0.2389,-0.1032,18.4728,18.1950,23.3508,145.52,55.00
9.709,223,1,0.9146,0.676608,0.951442,0.000001,1.0122,0.3350,0.2500,0.5196,0.3350,0.2500,0.5196,0.098042,-0.576118,0.805161,0.100955,0.0312,,0.2212,-0.1849,0.2528,0.5227,1.233215,0.0334,-0.5727,-0.7481,-3.0213,1.4132,2.7703,1.6433,0.0336,-0.1152,0.0392,0.3772,-20.2620,-17.7179,-22.8247,145.52,55.00
9.738,224,1,0.9337,0.634785,0.950299,0.000001,1.0588,0.3350,0.2500,0.5196,0.3350,0.2500,0.5196,0.107642,-0.575297,0.803026,0.112233,0.0334,,0.1364,-0.1890,0.2382,0.5580,2.440052,0.0275,-0.5602,-0.7586,-3.0338,1.9870,3.3598,2.4806,-0.1731,0.1300,-0.2332,-0.0670,18.2177,18.4881,23.3403,144.41,55.00
9.777,225,1,0.9501,0.594071,0.950805,0.000001,1.0568,0.3350,0.2500,0.5196,0.3350,0.2500,0.5196,0.104799,-0.583253,0.795799,0.124649,0.0333,,0.2075,-0.1872,0.2463,0.5312,1.337485,0.0337,-0.5718,-0.7517,-3.0358,1.4702,2.8534,1.6930,0.0288,-0.1140,0.0375,0.2132,-18.8484,-17.7822,-22.8342,139.74,55.00
9.809,226,1,0.9542,0.564432,0.953284,0.000001,1.0638,0.3350,0.2500,0.5196,0.3350,0.2500,0.5196,0.077267,-0.591154,0.790697,0.139160,0.0336,,0.1192,-0.1746,0.2336,0.5556,2.664520,0.0269,-0.5594,-0.7633,-3.0477,2.1097,3.4300,2.5327,-0.1768,0.1356,-0.2384,-0.1042,18.3064,18.4142,23.3972,144.37,55.00
9.839,227,1,0.9579,0.527715,0.954877,0.000001,1.0814,0.3350,0.2500,0.5196,0.3350,0.2500,0.5196,0.073644,-0.592315,0.792367,0.126067,0.0344,,0.2208,-0.1850,0.2511,0.5238,1.311344,0.0332,-0.5708,-0.7543,-3.0316,1.3076,2.7699,1.7936,0.0408,-0.1249,0.0511,0.3665,-20.7953,-18.1572,-22.5014,141.07,55.00
9.882,228,1,0.9685,0.501512,0.958437,0.000001,1.0633,0.3350,0.2500,0.5196,0.3350,0.2500,0.5196,0.092537,-0.600256,0.782597,0.136642,0.0336,,0.1472,-0.1977,0.2385,0.5610,2.522109,0.0281,-0.5582,-0.7640,-3.0396,1.8431,3.2978,2.6489,-0.1606,0.1218,-0.2165,0.0210,18.1624,18.0103,23.3729,138.78,55.00
9.912,229,1,0.9596,0.468707,0.946492,0.000001,1.0611,0.3350,0.2500,0.5196,0.3350,0.2500,0.5196,0.103182,-0.599178,0.781723,0.138738,0.0335,,0.2197,-0.1781,0.2466,0.5207,1.260283,0.0334,-0.5698,-0.7581,-3.0439,1.3117,2.7396,1.7471,0.0447,-0.1280,0.0604,0.2304,-19.0564,-18.1017,-23.4786,136.85,55.00
9.941,230,1,0.9656,0.446394,0.949064,0.000001,1.0702,0.3350,0.2500,0.5196,0.3350,0.2500,0.5196,0.099341,-0.599269,0.778683,0.157037,0.0339,,0.1415,-0.1818,0.2292,0.5551,2.524535,0.0276,-0.5573,-0.7686,-3.0532,1.9712,3.2717,2.5378,-0.1702,0.1261,-0.2252,0.0003,18.6876,18.1637,23.1030,139.80,55.00
9.977,231,1,0.9655,0.433501,0.952757,0.000001,1.0328,0.3350,0.2500,0.5196,0.3350,0.2500,0.5196,0.099142,-0.604783,0.774815,0.155149,0.0321,,0.2114,-0.1862,0.2456,0.5298,1.327432,0.0337,-0.5689,-0.7607,-3.0433,1.3495,2.8212,1.7441,0.0375,-0.1209,0.0491,0.3028,-19.7197,-16.8772,-22.8478,143.39,55.00
10.020,232,1,0.9661,0.415839,0.950711,0.000001,1.0274,0.3350,0.2500,0.5196,0.3350,0.2500,0.5196,0.124840,-0.602619,0.774174,0.148055,0.0319,,0.1195,-0.1912,0.2374,0.5663,2.598021,0.0276,-0.5563,-0.7716,-3.0516,1.9454,3.4516,2.5791,-0.1710,0.1293,-0.2321,-0.0346,18.1634,18.5656,23.3662,139.61,55.00
10.052,233,1,0.9602,0.412654,0.947255,0.000001,1.0146,0.3350,0.2500,0.5196,0.3350,0.2500,0.5196,0.104656,-0.611721,0.770695,0.144477,0.0313,,0.1899,-0.2019,0.2450,0.5483,1.398092,0.0337,-0.5685,-0.7636,-3.0556,1.3529,3.0139,1.7647,0.0287,-0.1183,0.0393,0.1431,-19.2839,-17.0950,-23.0178,135.42,55.00
10.095,234,1,0.9668,0.407109,0.939969,0.000001,1.0276,0.3350,0.2406,0.5196,0.3350,0.2406,0.5196,0.098595,-0.615762,0.768496,0.143284,0.0319,,0.0971,-0.1967,0.2478,0.5672,2.687898,0.0275,-0.5556,-0.7751,-3.0567,1.9256,3.6291,2.5928,-0.1699,0.1290,-0.2349,-0.0084,17.8796,18.3358,23.4127,135.62,55.00
10.125,235,1,0.9653,0.407371,0.936525,0.000001,1.0326,0.3350,0.2394,0.5196,0.3350,0.2394,0.5196,0.092111,-0.616477,0.768985,0.141896,0.0321,,0.1978,-0.1977,0.2444,0.5344,1.328637,0.0332,-0.5686,-0.7661,-3.0685,1.2203,2.9625,1.8186,0.0368,-0.1301,0.0529,0.0924,-20.3236,-18.0525,-22.6727,136.88,55.00
10.164,236,1,0.9605,0.412678,0.934120,0.000001,1.0427,0.3350,0.2481,0.5196,0.3350,0.2481,0.5196,0.069664,-0.616778,0.772197,0.135807,0.0326,,0.1219,-0.2077,0.2431,0.5741,2.552848,0.0282,-0.5555,-0.7764,-3.0661,1.7372,3.4799,2.6651,-0.1551,0.1212,-0.2137,0.0977,17.7995,17.7803,23.4000,134.73,55.00
10.196,237,1,0.9596,0.416630,0.934447,0.000001,1.0486,0.3350,0.2497,0.5196,0.3350,0.2497,0.5196,0.068840,-0.616329,0.773865,0.128581,0.0329,,0.2022,-0.1861,0.2391,0.5350,1.241630,0.0334,-0.5677,-0.7701,-3.0750,1.2335,2.8739,1.7047,0.0448,-0.1292,0.0618,0.1010,-18.6746,-18.5554,-23.7774,138.57,55.00
10.236,238,1,0.9574,0.425260,0.932936,0.000001,1.0528,0.3350,0.2499,0.5196,0.3350,0.2499,0.5196,0.037459,-0.612022,0.779880,0.125749,0.0331,,0.1227,-0.1892,0.2308,0.5668,2.454792,0.0278,-0.5550,-0.7808,-3.0699,1.8902,3.3942,2.4473,-0.1657,0.1247,-0.2225,0.0657,18.4499,18.1633,22.8492,135.06,55.00
10.266,239,1,0.9535,0.429478,0.932505,0.000001,1.0539,0.3350,0.2500,0.5196,0.3350,0.2500,0.5196,0.024659,-0.606663,0.783708,0.130970,0.0331,,0.1984,-0.1922,0.2405,0.5405,1.231188,0.0336,-0.5671,-0.7724,-3.0709,1.2462,2.9219,1.6267,0.0391,-0.1276,0.0559,0.1650,-19.7882,-17.1427,-22.9793,134.87,55.00
10.309,240,1,0.9542,0.441993,0.925581,0.000001,1.0620,0.3350,0.2500,0.5196,0.3350,0.2500,0.5196,0.005583,-0.604768,0.783439,0.142995,0.0335,,0.1086,-0.2020,0.2416,0.5769,2.433885,0.0280,-0.5542,-0.7833,-3.0712,1.8098,3.5392,2.4566,-0.1637,0.1245,-0.2244,0.0332,17.9253,18.4200,23.3904,135.48,55.00
10.340,241,1,0.9837,0.474683,0.946500,-0.000001,0.1642,0.3350,0.2500,0.5196,0.3350,0.2500,0.5196,0.201364,-0.587113,0.766963,0.162845,0.0000,,0.1947,-0.1952,0.2403,0.5439,1.107913,0.0335,-0.5667,-0.7757,-3.0735,1.2435,2.9508,1.6636,0.0385,-0.1266,0.0537,0.1133,-19.2389,-18.1751,-22.8603,135.99,55.00
10.378,242,1,0.9891,0.473242,0.918793,-0.000000,0.1181,0.3350,0.2500,0.5196,0.3350,0.2500,0.5196,0.245459,-0.581134,0.765698,0.125461,0.0000,,0.1123,-0.1998,0.2386,0.5752,2.391954,0.0280,-0.5538,-0.7865,-3.0681,1.8295,3.4989,2.5044,-0.1630,0.1244,-0.2227,0.0954,18.0107,18.1588,23.4303,134.84,55.00
10.425,243,1,0.9935,0.477183,0.904871,-0.000000,0.1582,0.3350,0.2500,0.5196,0.3350,0.2500,0.5196,0.242629,-0.586366,0.763011,0.122964,0.0000,,0.1898,-0.1998,0.2410,0.5487,1.150401,0.0336,-0.5663,-0.7790,-3.0724,1.2593,2.9950,1.7160,0.0357,-0.1239,0.0498,0.1254,-19.1527,-17.6307,-22.8340,134.81,55.00
10.457,244,1,0.9926,0.478155,0.902939,-0.000000,0.1359,0.3350,0.2500,0.5196,0.3350,0.2500,0.5196,0.236751,-0.573756,0.774176,0.124114,0.0000,,0.1052,-0.2042,0.2433,0.5791,2.434689,0.0280,-0.5534,-0.7900,-3.0676,1.8101,3.5634,2.5604,-0.1619,0.1245,-0.2233,0.0855,17.7090,18.1003,23.4624,134.86,55.00
10.490,245,1,0.9948,0.482950,0.903924,-0.000000,0.1527,0.3350,0.2500,0.5196,0.3350,0.2500,0.5196,0.238285,-0.584713,0.766419,0.118040,0.0000,,0.1949,-0.1946,0.2391,0.5440,1.185415,0.0335,-0.5659,-0.7825,-3.0737,1.2392,2.9364,1.8056,0.0397,-0.1272,0.0554,0.1134,-19.2346,-18.2890,-22.5726,136.32,55.00
10.529,246,1,0.9924,0.489164,0.903437,-0.000000,0.1550,0.3350,0.2500,0.5196,0.3350,0.2500,0.5196,0.252173,-0.587563,0.761857,0.103690,0.0000,,0.1141,-0.1992,0.2364,0.5752,2.550645,0.0281,-0.5531,-0.7932,-3.0676,1.8302,3.4743,2.6637,-0.1623,0.1241,-0.2214,0.1083,18.0455,18.1163,23.4822,134.98,55.00
10.559,247,1,0.9905,0.495178,0.907991,-0.000000,0.2000,0.3350,0.2500,0.5196,0.3350,0.2500,0.5196,0.264425,-0.586031,0.759550,0.098651,0.0000,,0.1888,-0.1998,0.2397,0.5496,1.144029,0.0337,-0.5655,-0.7859,-3.0718,1.2689,2.9888,1.7075,0.0358,-0.1229,0.0497,0.1376,-19.0928,-17.5563,-23.7577,134.74,55.00
10.602,248,1,0.9881,0.500348,0.904751,-0.000000,0.2741,0.3350,0.2500,0.5196,0.3350,0.2500,0.5196,0.265780,-0.586074,0.757026,0.113093,0.0000,,0.1016,-0.2007,0.2411,0.5789,2.411654,0.0279,-0.5526,-0.7970,-3.0673,1.8497,3.5662,2.4535,-0.1651,0.1257,-0.2270,0.0748,17.9108,18.1965,22.9324,134.79,55.00
10.645,249,1,0.9881,0.503315,0.906674,-0.000000,0.3192,0.3350,0.2500,0.5196,0.3350,0.2500,0.5196,0.230644,-0.594813,0.763732,0.098555,0.0000,,0.1916,-0.2006,0.2408,0.5490,1.048181,0.0335,-0.5654,-0.7887,-3.0731,1.2139,2.9798,1.6267,0.0375,-0.1280,0.0532,0.1279,-19.7519,-17.9161,-23.0170,135.44,55.00
10.687,250,1,0.9894,0.504598,0.903563,0.000000,0.4238,0.3350,0.2500,0.5196,0.3350,0.2500,0.5196,0.231152,-0.584119,0.768452,0.121881,0.0035,,0.1098,-0.2074,0.2417,0.5807,2.323817,0.0282,-0.5524,-0.7993,-3.0671,1.7710,3.5292,2.4565,-0.1604,0.1228,-0.2207,0.1109,17.9344,18.0402,23.3905,135.12,55.00
10.729,251,1,0.9865,0.507838,0.908788,0.000000,0.5309,0.3350,0.2500,0.5196,0.3350,0.2500,0.5196,0.251286,-0.579851,0.765257,0.122511,0.0085,,0.1978,-0.1852,0.2342,0.5382,1.077172,0.0336,-0.5646,-0.7928,-3.0741,1.2926,2.8522,1.6604,0.0421,-0.1244,0.0573,0.1188,-18.5327,-18.9972,-22.9010,136.31,55.00
10.770,252,1,0.9836,0.513269,0.915743,0.000000,0.6586,0.3350,0.2500,0.5196,0.3350,0.2500,0.5196,0.222006,-0.578160,0.773751,0.133246,0.0145,,0.1248,-0.1798,0.2226,0.5632,2.462035,0.0277,-0.5522,-0.8037,-3.0700,1.9734,3.3205,2.4974,-0.1683,0.1263,-0.2234,0.0636,18.6905,17.8765,23.3551,135.21,55.00
10.799,253,1,0.9770,0.513688,0.914239,0.000000,0.7398,0.3350,0.2500,0.5196,0.3350,0.2500,0.5196,0.180823,-0.582544,0.779299,0.143665,0.0183,,0.2174,-0.1814,0.2425,0.5260,1.049203,0.0335,-0.5636,-0.7950,-3.0518,1.1513,2.7254,1.7585,0.0611,-0.1297,0.0741,0.5216,-21.0951,-17.6394,-22.5217,141.97,55.00
10.840,254,1,0.9727,0.518885,0.914671,0.000000,0.8074,0.3350,0.2500,0.5196,0.3350,0.2500,0.5196,0.160574,-0.581068,0.785706,0.138718,0.0215,,0.1417,-0.2109,0.2369,0.5742,2.312389,0.0289,-0.5508,-0.8045,-3.0535,1.6712,3.3222,2.6142,-0.1501,0.1164,-0.2045,0.1026,18.0406,18.4043,23.3888,135.21,55.00
10.871,255,1,0.9782,0.519343,0.917272,0.000001,0.8534,0.3350,0.2500,0.5196,0.3350,0.2500,0.5196,0.164126,-0.582211,0.785141,0.132836,0.0237,,0.2101,-0.1854,0.2394,0.5326,1.046185,0.0335,-0.5630,-0.7990,-3.0649,1.1365,2.7883,1.7479,0.0565,-0.1365,0.0762,0.1642,-18.9635,-18.0600,-23.3195,134.83,55.00
10.903,256,1,0.9757,0.521188,0.919718,0.000001,0.8114,0.3350,0.2500,0.5196,0.3350,0.2500,0.5196,0.161913,-0.588742,0.781062,0.130805,0.0217,,0.1334,-0.1979,0.2287,0.5709,2.380279,0.0285,-0.5502,-0.8092,-3.0635,1.7922,3.3141,2.5512,-0.1588,0.1192,-0.2130,0.1315,18.6081,18.0449,23.1790,134.74,55.00
10.945,257,1,0.9751,0.524055,0.920754,0.000000,0.7226,0.3350,0.2500,0.5196,0.3350,0.2500,0.5196,0.173178,-0.587207,0.779109,0.134857,0.0175,,0.2057,-0.1772,0.2333,0.5303,1.195269,0.0338,-0.5618,-0.8030,-3.0695,1.2860,2.7540,1.7572,0.0478,-0.1276,0.0656,0.2112,-18.9085,-18.1416,-22.8673,135.71,55.00
10.983,258,1,0.9765,0.521396,0.919952,0.000000,0.5352,0.3350,0.2500,0.5196,0.3350,0.2500,0.5196,0.196329,-0.591463,0.771280,0.129436,0.0087,,0.1236,-0.1816,0.2214,0.5656,2.575144,0.0279,-0.5496,-0.8139,-3.0716,1.9522,3.3196,2.5931,-0.1692,0.1263,-0.2242,0.0364,18.5805,18.4745,23.3383,136.75,55.00
11.013,259,1,0.9759,0.511026,0.923848,-0.000000,0.2580,0.3350,0.2500,0.5196,0.3350,0.2500,0.5196,0.213559,-0.583088,0.773988,0.123869,0.0000,,0.2145,-0.1836,0.2405,0.5295,1.040626,0.0335,-0.5608,-0.8056,-3.0538,1.1430,2.7371,1.7691,0.0618,-0.1282,0.0740,0.5534,-20.9342,-17.7246,-23.1347,142.78,55.00
11.050,260,1,0.9814,0.506848,0.924195,-0.000000,0.2719,0.3350,0.2500,0.5196,0.3350,0.2500,0.5196,0.244082,-0.569405,0.775213,0.123479,0.0000,,0.1388,-0.2120,0.2357,0.5766,2.257473,0.0290,-0.5481,-0.8150,-3.0534,1.6714,3.3282,2.5817,-0.1505,0.1165,-0.2050,0.1169,18.0672,18.3839,23.2004,134.87,55.00
11.079,261,1,0.9806,0.506820,0.925429,-0.000000,0.3097,0.3350,0.2500,0.5196,0.3350,0.2500,0.5196,0.254174,-0.562942,0.776612,0.123955,0.0000,,0.2084,-0.1879,0.2385,0.5355,0.977435,0.0336,-0.5602,-0.8095,-3.0627,1.1374,2.7914,1.7601,0.0560,-0.1360,0.0754,0.1824,-18.9536,-18.0787,-23.0751,134.73,55.00
11.120,262,1,0.9779,0.508961,0.924319,0.000000,0.4372,0.3350,0.2500,0.5196,0.3350,0.2500,0.5196,0.258686,-0.565489,0.771997,0.131624,0.0041,,0.1318,-0.1998,0.2283,0.5731,2.361195,0.0285,-0.5474,-0.8197,-3.0596,1.7939,3.3166,2.5814,-0.1593,0.1196,-0.2139,0.1442,18.6067,18.0434,23.2656,134.89,55.00
11.151,263,1,0.9745,0.510834,0.927714,0.000000,0.5809,0.3350,0.2500,0.5196,0.3350,0.2500,0.5196,0.256152,-0.558737,0.776084,0.141039,0.0109,,0.2043,-0.1802,0.2329,0.5332,1.132691,0.0339,-0.5590,-0.8136,-3.0634,1.3108,2.7556,1.7648,0.0460,-0.1249,0.0623,0.2232,-18.6908,-18.1649,-23.0577,136.70,55.00
11.194,264,1,0.9767,0.509657,0.931491,0.000000,0.6652,0.3350,0.2500,0.5196,0.3350,0.2500,0.5196,0.238982,-0.557981,0.781184,0.145936,0.0148,,0.1206,-0.1793,0.2197,0.5658,2.538948,0.0279,-0.5469,-0.8246,-3.0691,1.9935,3.3224,2.5879,-0.1719,0.1289,-0.2279,0.0173,18.6628,18.5029,23.2847,137.45,55.00
11.236,265,1,0.9764,0.513721,0.933711,0.000000,0.7139,0.3350,0.2500,0.5196,0.3350,0.2500,0.5196,0.229521,-0.550221,0.787657,0.155480,0.0171,,0.2200,-0.1791,0.2412,0.5243,0.921547,0.0335,-0.5581,-0.8170,-3.0462,1.1067,2.6616,1.7660,0.0739,-0.1267,0.0834,0.8048,-21.3071,-18.1354,-23.1453,145.40,55.00
11.276,266,1,0.9760,0.515041,0.933702,0.000000,0.7458,0.3350,0.2500,0.5196,0.3350,0.2500,0.5196,0.222675,-0.553211,0.788453,0.150715,0.0186,,0.1517,-0.2127,0.2339,0.5739,2.154678,0.0293,-0.5454,-0.8261,-3.0461,1.6276,3.2326,2.5768,-0.1434,0.1122,-0.1948,0.1254,18.2080,18.2970,23.1520,135.15,55.00
11.319,267,1,0.9735,0.518038,0.933142,0.000000,0.6908,0.3350,0.2500,0.5196,0.3350,0.2500,0.5196,0.198997,-0.558388,0.792472,0.143498,0.0160,,0.2169,-0.1831,0.2402,0.5287,0.967920,0.0336,-0.5575,-0.8210,-3.0524,1.0721,2.7005,1.8140,0.0671,-0.1440,0.0897,0.2180,-19.2073,-17.9807,-22.6311,134.84,55.00
11.360,268,1,0.9756,0.513754,0.931698,0.000000,0.6441,0.3350,0.2500,0.5196,0.3350,0.2500,0.5196,0.194143,-0.562224,0.791619,0.139827,0.0138,,0.1450,-0.2041,0.2281,0.5720,2.357823,0.0290,-0.5446,-0.8307,-3.0507,1.7313,3.2309,2.6646,-0.1533,0.1147,-0.2051,0.1723,18.7756,18.0475,23.3602,134.92,55.00
11.402,269,1,0.9774,0.511502,0.935261,0.000000,0.5197,0.3350,0.2500,0.5196,0.3350,0.2500,0.5196,0.205167,-0.567493,0.780427,0.163684,0.0080,,0.2133,-0.1792,0.2364,0.5285,1.047377,0.0338,-0.5562,-0.8252,-3.0527,1.2173,2.6829,1.7128,0.0559,-0.1342,0.0756,0.2538,-19.0619,-18.0450,-23.7649,136.85,55.00
11.433,270,1,0.9792,0.510296,0.937987,0.000000,0.4288,0.3350,0.2500,0.5196,0.3350,0.2500,0.5196,0.220373,-0.562771,0.779254,0.165793,0.0037,,0.1375,-0.1883,0.2200,0.5664,2.313726,0.0284,-0.5440,-0.8355,-3.0590,1.8932,3.2189,2.4550,-0.1652,0.1217,-0.2177,0.0654,18.8719,18.2033,22.7803,136.84,55.00
11.471,271,1,0.9806,0.509787,0.938797,0.000000,0.3523,0.3350,0.2500,0.5196,0.3350,0.2500,0.5196,0.217977,-0.557355,0.782153,0.173431,0.0001,,0.2084,-0.1870,0.2365,0.5359,1.007131,0.0339,-0.5554,-0.8288,-3.0480,1.2460,2.7407,1.6375,0.0521,-0.1206,0.0620,0.4738,-20.0753,-17.2466,-22.9924,144.71,55.00
11.504,272,1,0.9807,0.511286,0.937116,0.000000,0.3401,0.3350,0.2500,0.5196,0.3350,0.2500,0.5196,0.209085,-0.563468,0.780622,0.171514,0.0000,,0.1206,-0.2010,0.2279,0.5783,2.334419,0.0285,-0.5431,-0.8391,-3.0543,1.8393,3.3716,2.4651,-0.1653,0.1242,-0.2233,0.0233,18.2801,18.6868,23.3146,137.90,55.00
11.543,273,1,0.9803,0.507845,0.932850,0.000000,0.3491,0.3350,0.2500,0.5196,0.3350,0.2500,0.5196,0.219653,-0.559470,0.781902,0.165454,0.0000,,0.1908,-0.1961,0.2320,0.5500,1.134218,0.0341,-0.5549,-0.8325,-3.0600,1.3132,2.8766,1.6733,0.0383,-0.1209,0.0518,0.1857,-18.9112,-17.7772,-22.8639,135.82,55.00
11.583,274,1,0.9811,0.512013,0.933281,0.000000,0.3928,0.3350,0.2500,0.5196,0.3350,0.2500,0.5196,0.211648,-0.557188,0.785666,0.165757,0.0020,,0.1040,-0.1906,0.2258,0.5778,2.485477,0.0280,-0.5426,-0.8437,-3.0631,1.9437,3.4488,2.5131,-0.1692,0.1286,-0.2294,0.0151,18.2516,18.3347,23.4140,136.25,55.00
11.613,275,1,0.9748,0.515502,0.936674,0.000000,0.4813,0.3350,0.2500,0.5196,0.3350,0.2500,0.5196,0.206488,-0.556204,0.788072,0.164139,0.0062,,0.1952,-0.2018,0.2362,0.5513,1.081357,0.0337,-0.5545,-0.8353,-3.0576,1.1920,2.8839,1.7345,0.0421,-0.1322,0.0600,0.2327,-20.5291,-17.6474,-22.7831,136.05,55.00
11.656,276,1,0.9720,0.518197,0.938522,0.000000,0.5401,0.3350,0.2500,0.5196,0.3350,0.2500,0.5196,0.211680,-0.559960,0.786771,0.150428,0.0089,,0.1137,-0.2160,0.2364,0.5885,2.350751,0.0288,-0.5418,-0.8454,-3.0562,1.7123,3.4642,2.5753,-0.1565,0.1209,-0.2157,0.0995,17.8272,18.2394,23.3863,134.73,55.00
11.698,277,1,0.9703,0.516394,0.938440,0.000000,0.6111,0.3350,0.2500,0.5196,0.3350,0.2500,0.5196,0.209886,-0.560003,0.789424,0.138397,0.0123,,0.1897,-0.1983,0.2315,0.5523,1.100766,0.0338,-0.5540,-0.8394,-3.0733,1.1956,2.8980,1.7594,0.0458,-0.1276,0.0620,0.1068,-18.6732,-18.3359,-23.0478,136.78,55.00
11.741,278,1,0.9724,0.519585,0.940448,0.000000,0.6493,0.3350,0.2500,0.5196,0.3350,0.2500,0.5196,0.200879,-0.560506,0.792007,0.134925,0.0141,,0.1074,-0.1989,0.2263,0.5825,2.463118,0.0284,-0.5415,-0.8501,-3.0679,1.8424,3.4342,2.5847,-0.1639,0.1241,-0.2223,0.1089,18.3405,18.1860,23.3335,134.83,55.00
11.784,279,1,0.9715,0.520795,0.942250,0.000000,0.6825,0.3350,0.2500,0.5196,0.3350,0.2500,0.5196,0.199107,-0.565232,0.789846,0.130430,0.0156,,0.1830,-0.2043,0.2321,0.5587,1.215356,0.0340,-0.5535,-0.8418,-3.0706,1.2309,2.9586,1.8141,0.0388,-0.1246,0.0542,0.1514,-19.4384,-17.2352,-22.6627,134.76,55.00
11.823,280,1,0.9690,0.518879,0.942867,0.000000,0.7038,0.3350,0.2500,0.5196,0.3350,0.2500,0.5196,0.188465,-0.569909,0.789193,0.129842,0.0167,,0.0931,-0.2064,0.2353,0.5896,2.579181,0.0284,-0.5410,-0.8528,-3.0675,1.8111,3.5635,2.6654,-0.1643,0.1250,-0.2265,0.0747,17.9551,18.3353,23.4856,134.73,55.00
11.853,281,1,0.9680,0.520031,0.942253,0.000001,0.7307,0.3350,0.2500,0.5196,0.3350,0.2500,0.5196,0.181788,-0.571879,0.790330,0.123634,0.0179,,0.1818,-0.2093,0.2344,0.5619,1.106135,0.0338,-0.5537,-0.8449,-3.0734,1.1712,2.9929,1.7071,0.0394,-0.1284,0.0556,0.0981,-19.8135,-17.8322,-23.7569,137.53,55.00
11.894,282,1,0.9689,0.515461,0.942541,0.000001,0.8432,0.3350,0.2500,0.5196,0.3350,0.2500,0.5196,0.166770,-0.576964,0.789878,0.124067,0.0232,,0.0998,-0.2156,0.2378,0.5929,2.309250,0.0287,-0.5409,-0.8554,-3.0668,1.7172,3.5455,2.4509,-0.1580,0.1215,-0.2187,0.1249,17.8460,18.0295,22.8985,135.38,55.00
11.931,283,1,0.9655,0.516070,0.944263,0.000001,0.9142,0.3350,0.2500,0.5196,0.3350,0.2500,0.5196,0.155783,-0.579401,0.790449,0.123351,0.0266,,0.1924,-0.1892,0.2271,0.5466,1.075498,0.0338,-0.5531,-0.8491,-3.0755,1.2317,2.8200,1.6194,0.0473,-0.1294,0.0650,0.0972,-18.6488,-19.2972,-23.0657,141.27,55.00
11.970,284,1,0.9707,0.511481,0.944336,0.000001,0.9649,0.3350,0.2500,0.5196,0.3350,0.2500,0.5196,0.135492,-0.577445,0.790654,0.151871,0.0289,,0.1190,-0.1875,0.2169,0.5742,2.412053,0.0283,-0.5409,-0.8598,-3.0696,1.9124,3.3046,2.4445,-0.1661,0.1243,-0.2209,0.0829,18.7019,18.1357,23.2916,135.11,55.00
12.010,285,1,0.9763,0.507409,0.940878,0.000001,1.0166,0.3350,0.2500,0.5196,0.3350,0.2500,0.5196,0.154297,-0.563271,0.787647,0.196289,0.0314,,0.2035,-0.1911,0.2332,0.5421,1.039514,0.0339,-0.5525,-0.8514,-3.0569,1.1577,2.7632,1.6654,0.0548,-0.1332,0.0723,0.3446,-20.6862,-17.3270,-22.8056,138.63,55.00
12.053,286,1,0.9920,0.573996,0.945773,0.000000,0.9758,0.3350,0.2500,0.5196,0.3350,0.2500,0.5196,0.292601,-0.433272,0.690610,0.499717,0.0294,,0.1196,-0.2116,0.2283,0.5868,2.220431,0.0291,-0.5401,-0.8612,-3.0645,1.6973,3.3811,2.5028,-0.1543,0.1186,-0.2105,0.0478,18.0315,18.5189,23.3396,137.30,55.00
12.094,287,1,0.9920,0.594341,0.938820,0.000000,0.9397,0.3350,0.2500,0.5196,0.3350,0.2500,0.5196,0.349558,-0.384817,0.622421,0.585079,0.0277,,0.1921,-0.1953,0.2292,0.5505,1.361361,0.0340,-0.5520,-0.8554,-3.0718,1.1801,2.8472,1.7139,0.0494,-0.1302,0.0674,0.1689,-18.7878,-18.1067,-22.8400,134.73,55.00
12.121,288,1,0.9916,0.605105,0.937000,0.000000,0.9598,0.3350,0.2500,0.5196,0.3350,0.2500,0.5196,0.403091,-0.351683,0.612400,0.582067,0.0287,,0.1079,-0.1989,0.2229,0.5841,2.337192,0.0286,-0.5397,-0.8660,-3.0709,1.8278,3.4073,2.5529,-0.1630,0.1233,-0.2206,0.0618,18.3687,18.3382,23.3826,135.48,55.00
12.168,289,1,0.9944,0.604751,0.935466,0.000000,0.8997,0.3350,0.2500,0.5196,0.3350,0.2500,0.5196,0.427880,-0.350450,0.619471,0.557099,0.0259,,0.1874,-0.2043,0.2316,0.5578,1.377258,0.0340,-0.5516,-0.8592,-3.0666,1.1766,2.9105,1.8048,0.0437,-0.1299,0.0612,0.2443,-19.8527,-17.4406,-22.5250,137.48,55.00
12.210,290,1,0.9923,0.612931,0.925347,0.000000,1.0146,0.3350,0.2500,0.5196,0.3350,0.2500,0.5196,0.415674,-0.354094,0.633928,0.547693,0.0313,,0.1007,-0.2128,0.2325,0.5929,2.395077,0.0289,-0.5391,-0.8696,-3.0669,1.7363,3.5053,2.6630,-0.1590,0.1220,-0.2193,0.0743,17.9336,18.2969,23.4791,134.89,55.00
12.240,291,1,0.9933,0.627364,0.913421,0.000000,1.0089,0.3350,0.2500,0.5196,0.3350,0.2500,0.5196,0.414370,-0.371376,0.645491,0.523181,0.0310,,0.1852,-0.1957,0.2259,0.5544,1.279314,0.0341,-0.5511,-0.8634,-3.0728,1.2618,2.8670,1.7058,0.0435,-0.1232,0.0582,0.1475,-18.4848,-18.8457,-23.7697,134.89,55.00
12.283,292,1,0.9964,0.643900,0.907739,0.000000,0.9982,0.3350,0.2500,0.5196,0.3350,0.2500,0.5196,0.402885,-0.352862,0.647599,0.542022,0.0305,,0.1070,-0.1875,0.2169,0.5788,2.257034,0.0282,-0.5391,-0.8743,-3.0716,1.9328,3.3690,2.4488,-0.1671,0.1264,-0.2239,0.0337,18.5222,18.1072,22.8451,136.49,55.00
12.319,293,1,0.9939,0.654469,0.910040,0.000000,1.1743,0.3350,0.2500,0.5196,0.3350,0.2500,0.5196,0.397209,-0.358366,0.668218,0.516994,0.0388,,0.2069,-0.1919,0.2341,0.5415,1.051955,0.0338,-0.5506,-0.8667,-3.0517,1.0779,2.7258,1.6380,0.0693,-0.1304,0.0811,0.6324,-21.1851,-18.0655,-22.9690,142.68,55.00
12.361,294,1,0.9858,0.665369,0.908486,0.000000,1.2884,0.3350,0.2500,0.5196,0.3350,0.2500,0.5196,0.387552,-0.372102,0.693533,0.479954,0.0400,,0.1358,-0.2215,0.2299,0.5881,1.936782,0.0296,-0.5381,-0.8759,-3.0553,1.5631,3.2954,2.4638,-0.1394,0.1120,-0.1919,0.1064,17.8500,18.2268,23.2422,135.51,55.00
12.402,295,1,0.9864,0.677153,0.900378,0.000000,1.2749,0.3350,0.2500,0.5196,0.3350,0.2500,0.5196,0.375214,-0.360189,0.721656,0.456827,0.0400,,0.2046,-0.1912,0.2320,0.5426,0.900614,0.0338,-0.5503,-0.8707,-3.0661,0.9998,2.7479,1.6712,0.0701,-0.1456,0.0939,0.1754,-19.1936,-18.1225,-22.8750,135.15,55.00
12.440,296,1,0.9862,0.693179,0.890791,0.000000,1.2145,0.3350,0.2500,0.5196,0.3350,0.2500,0.5196,0.360589,-0.358100,0.741273,0.438467,0.0400,,0.1274,-0.2130,0.2242,0.5871,1.935524,0.0294,-0.5375,-0.8805,-3.0643,1.6459,3.3060,2.5066,-0.1495,0.1140,-0.2025,0.1755,18.5715,18.3087,23.3198,135.08,55.00
12.479,297,1,0.9787,0.694745,0.882564,0.000000,1.0782,0.3350,0.2500,0.5196,0.3350,0.2500,0.5196,0.359544,-0.358131,0.761138,0.403905,0.0343,,0.1968,-0.1897,0.2268,0.5460,0.854100,0.0341,-0.5494,-0.8750,-3.0709,1.1375,2.7665,1.7224,0.0576,-0.1353,0.0783,0.1919,-18.8754,-18.0739,-22.8208,134.74,55.00
12.517,298,1,0.9727,0.704604,0.882589,0.000000,1.0404,0.3350,0.2500,0.5196,0.3350,0.2500,0.5196,0.358658,-0.353047,0.776551,0.379067,0.0325,,0.1196,-0.1977,0.2165,0.5820,2.025524,0.0289,-0.5372,-0.8854,-3.0696,1.8047,3.2941,2.5608,-0.1592,0.1194,-0.2128,0.1114,18.6640,18.0918,23.3313,134.89,55.00
12.561,299,1,0.9783,0.717827,0.883118,0.000000,1.0773,0.3350,0.2500,0.5196,0.3350,0.2500,0.5196,0.359740,-0.351862,0.790264,0.349661,0.0342,,0.1900,-0.1980,0.2273,0.5542,0.852130,0.0342,-0.5489,-0.8787,-3.0650,1.1951,2.8320,1.7567,0.0473,-0.1301,0.0662,0.2668,-19.7308,-17.1489,-22.9632,138.88,55.00
12.599,300,1,0.9829,0.724849,0.878350,0.000000,1.0844,0.3350,0.2500,0.5196,0.3350,0.2500,0.5196,0.354280,-0.348798,0.804121,0.325907,0.0346,,0.1002,-0.2068,0.2252,0.5920,2.085524,0.0289,-0.5367,-0.8893,-3.0668,1.7873,3.4571,2.5833,-0.1624,0.1232,-0.2218,0.0644,18.1234,18.5620,23.3269,135.24,55.00
12.637,301,1,0.9856,0.733606,0.879946,0.000000,1.0466,0.3350,0.2500,0.5196,0.3350,0.2500,0.5196,0.349548,-0.334176,0.807290,0.338268,0.0328,,0.1732,-0.2122,0.2284,0.5697,0.961971,0.0342,-0.5489,-0.8825,-3.0718,1.2066,2.9926,1.8139,0.0384,-0.1240,0.0533,0.1529,-19.2180,-17.4499,-22.6403,134.74,55.00
12.677,302,1,0.9843,0.728206,0.883625,0.000000,1.0409,0.3350,0.2500,0.5196,0.3350,0.2500,0.5196,0.350580,-0.325441,0.811353,0.335989,0.0325,,0.0847,-0.2098,0.2323,0.5972,2.188638,0.0287,-0.5365,-0.8934,-3.0671,1.7929,3.5772,2.6666,-0.1633,0.1242,-0.2261,0.0894,17.9634,18.2017,23.4933,134.86,55.00
12.720,303,1,0.9695,0.719678,0.885061,0.000000,1.0203,0.3350,0.2500,0.5196,0.3350,0.2500,0.5196,0.344098,-0.326674,0.818017,0.325158,0.0315,,0.1724,-0.2150,0.2296,0.5717,0.881327,0.0341,-0.5492,-0.8856,-3.0733,1.1721,3.0108,1.7067,0.0385,-0.1261,0.0538,0.1175,-19.6036,-17.7684,-23.7646,136.02,55.00
12.761,304,1,0.9847,0.634666,0.914106,0.000000,1.1509,0.3350,0.2500,0.5196,0.3350,0.2500,0.5196,0.364972,-0.323103,0.790251,0.371352,0.0377,,0.0886,-0.2165,0.2340,0.6000,2.007780,0.0289,-0.5367,-0.8963,-3.0674,1.7259,3.5685,2.4502,-0.1592,0.1217,-0.2209,0.1116,17.8465,18.0425,22.9080,135.11,55.00
12.807,305,1,0.9873,0.600325,0.903794,0.000000,1.0234,0.3350,0.2500,0.5196,0.3350,0.2500,0.5196,0.372493,-0.320665,0.768551,0.409575,0.0317,,0.1864,-0.1921,0.2220,0.5532,0.866291,0.0341,-0.5487,-0.8900,-3.0743,1.2413,2.8048,1.6196,0.0476,-0.1271,0.0643,0.1252,-18.6920,-19.4853,-23.0605,137.71,55.00
12.849,306,1,0.9858,0.558511,0.916784,0.000000,1.0425,0.3350,0.2500,0.5196,0.3350,0.2500,0.5196,0.380237,-0.337608,0.754378,0.415156,0.0326,,0.1149,-0.1869,0.2110,0.5785,2.026829,0.0285,-0.5369,-0.9007,-3.0708,1.9217,3.2775,2.4444,-0.1659,0.1243,-0.2202,0.0642,18.7378,18.0911,23.2764,136.01,55.00
12.889,307,1,0.9914,0.533434,0.914961,0.000000,1.0021,0.3350,0.2500,0.5196,0.3350,0.2500,0.5196,0.329020,-0.354488,0.752020,0.447828,0.0307,,0.2050,-0.1904,0.2306,0.5426,0.857280,0.0341,-0.5483,-0.8938,-3.0506,1.0905,2.6853,1.7040,0.0716,-0.1285,0.0827,0.7066,-21.1531,-17.7107,-22.5359,144.04,55.00
12.930,308,1,0.9913,0.532622,0.910052,0.000001,0.9427,0.3350,0.2500,0.5196,0.3350,0.2500,0.5196,0.302954,-0.352779,0.753900,0.464113,0.0279,,0.1283,-0.2186,0.2240,0.5913,1.954570,0.0297,-0.5361,-0.9031,-3.0563,1.6138,3.2897,2.5585,-0.1452,0.1132,-0.1983,0.0834,18.1073,18.4659,23.3718,136.73,55.00
12.970,309,1,0.9871,0.485308,0.920622,0.000001,1.1194,0.3350,0.2500,0.5196,0.3350,0.2500,0.5196,0.328033,-0.381818,0.737480,0.450257,0.0362,,0.1965,-0.1952,0.2273,0.5503,0.982483,0.0341,-0.5481,-0.8979,-3.0658,1.0701,2.7639,1.8087,0.0626,-0.1395,0.0846,0.1842,-19.0626,-17.9889,-22.5586,134.78,55.00
13.011,310,1,0.9875,0.421134,0.908643,0.000001,1.0805,0.3350,0.2500,0.5196,0.3350,0.2500,0.5196,0.277677,-0.431211,0.754016,0.410382,0.0344,,0.1196,-0.2069,0.2173,0.5886,2.238644,0.0293,-0.5357,-0.9080,-3.0663,1.7223,3.2939,2.6635,-0.1534,0.1161,-0.2067,0.1384,18.6105,18.0346,23.3941,134.72,55.00
13.050,311,1,0.9759,0.386120,0.910627,0.000001,1.0446,0.3350,0.2027,0.5196,0.3350,0.2027,0.5196,0.228134,-0.467027,0.762417,0.385436,0.0327,,0.1915,-0.1870,0.2213,0.5114,1.086676,0.0344,-0.5473,-0.9022,-3.0706,1.2377,2.7358,1.7117,0.0523,-0.1284,0.0711,0.2035,-18.7671,-18.1542,-23.7489,135.08,55.00
13.092,312,1,0.9757,0.369570,0.926992,0.000001,0.9863,0.3350,0.1644,0.5196,0.3350,0.1644,0.5196,0.168140,-0.532854,0.767468,0.314306,0.0299,,0.1094,-0.1878,0.2102,0.5202,2.409197,0.0286,-0.5356,-0.9130,-3.0724,1.9181,3.3019,2.4544,-0.1673,0.1260,-0.2231,0.0467,18.6642,18.5196,22.8117,138.10,55.00
13.132,313,1,0.9797,0.357619,0.928049,0.000001,0.9526,0.3350,0.1359,0.5196,0.3350,0.1359,0.5196,0.136286,-0.572447,0.763159,0.267056,0.0284,,0.2056,-0.1876,0.2289,0.4537,0.998554,0.0340,-0.5470,-0.9063,-3.0560,1.0081,2.6560,1.6472,0.0817,-0.1407,0.0991,0.6141,-21.7080,-18.1145,-22.9661,139.47,55.00
13.177,314,1,0.9748,0.345239,0.930616,0.000001,0.9879,0.3350,0.1084,0.5196,0.3350,0.1084,0.5196,0.120036,-0.584299,0.757856,0.264274,0.0300,,0.1384,-0.2219,0.2233,0.4853,2.173939,0.0300,-0.5346,-0.9153,-3.0554,1.5244,3.2227,2.4706,-0.1346,0.1075,-0.1843,0.1720,18.2865,18.2604,23.2056,134.73,55.00
13.218,315,1,0.9755,0.330721,0.926966,0.000001,0.9591,0.3350,0.0773,0.5196,0.3350,0.0773,0.5196,0.100137,-0.619655,0.739672,0.242663,0.0287,,0.2023,-0.1884,0.2267,0.4171,1.097452,0.0341,-0.5467,-0.9104,-3.0674,0.9644,2.6876,1.6799,0.0774,-0.1496,0.1038,0.1650,-19.2849,-18.0070,-22.8744,135.92,55.00
13.262,316,1,0.9807,0.332963,0.932313,0.000001,0.9913,0.3350,0.0758,0.5196,0.3350,0.0758,0.5196,0.095904,-0.628706,0.737105,0.228489,0.0302,,0.1321,-0.2123,0.2171,0.4644,2.398822,0.0297,-0.5342,-0.9201,-3.0627,1.6219,3.2148,2.5150,-0.1438,0.1096,-0.1935,0.2270,18.8037,18.0386,23.2838,136.37,55.00
13.301,317,1,0.9795,0.340091,0.931060,0.000001,0.9794,0.3350,0.0883,0.5196,0.3350,0.0883,0.5196,0.096290,-0.627922,0.740504,0.219309,0.0296,,0.1989,-0.1833,0.2228,0.4248,1.253644,0.0343,-0.5459,-0.9148,-3.0701,1.0921,2.6654,1.7334,0.0677,-0.1419,0.0920,0.2065,-19.1693,-18.0460,-22.8232,134.72,55.00
13.345,318,1,0.9743,0.347954,0.923432,0.000001,0.9796,0.3350,0.1048,0.5196,0.3350,0.1048,0.5196,0.088718,-0.636980,0.739054,0.200459,0.0296,,0.1266,-0.1987,0.2102,0.4809,2.588356,0.0293,-0.5339,-0.9249,-3.0688,1.7627,3.1962,2.5714,-0.1545,0.1148,-0.2046,0.1512,18.8681,18.1365,23.2912,134.75,55.00
13.385,319,1,0.9545,0.381839,0.928212,0.000001,0.9338,0.3350,0.1689,0.5196,0.3350,0.1689,0.5196,0.095526,-0.634899,0.741527,0.194719,0.0275,,0.1909,-0.1915,0.2214,0.4894,1.382833,0.0345,-0.5454,-0.9186,-3.0677,1.1738,2.7393,1.7683,0.0547,-0.1337,0.0764,0.2576,-19.7009,-17.1555,-22.9688,136.91,55.00
13.427,320,1,0.9537,0.403311,0.922321,0.000001,0.9641,0.3350,0.2191,0.5196,0.3350,0.2191,0.5196,0.082906,-0.638699,0.743366,0.180550,0.0289,,0.1035,-0.2044,0.2153,0.5706,2.680062,0.0291,-0.5336,-0.9290,-3.0711,1.7741,3.3671,2.5945,-0.1594,0.1208,-0.2158,0.0628,18.1969,18.6510,23.2904,136.25,55.00
13.459,321,1,0.9584,0.436657,0.923427,0.000001,0.9264,0.3350,0.2444,0.5196,0.3350,0.2444,0.5196,0.087556,-0.641373,0.745364,0.159394,0.0271,,0.1734,-0.2120,0.2236,0.5676,1.461140,0.0344,-0.5455,-0.9219,-3.0719,1.1525,2.9372,1.8193,0.0440,-0.1284,0.0622,0.1431,-19.6637,-17.0122,-22.6773,135.02,55.00
13.490,322,1,0.9417,0.460776,0.917360,0.000001,0.9661,0.3350,0.2490,0.5196,0.3350,0.2490,0.5196,0.072923,-0.639729,0.750449,0.149182,0.0290,,0.0826,-0.2173,0.2289,0.6047,2.761429,0.0292,-0.5333,-0.9326,-3.0689,1.7186,3.5601,2.6676,-0.1601,0.1219,-0.2221,0.0899,17.8794,18.4154,23.4604,134.72,55.00
13.522,323,1,0.9503,0.491829,0.919830,0.000001,1.0124,0.3350,0.2498,0.5196,0.3350,0.2498,0.5196,0.091276,-0.631949,0.755929,0.144502,0.0312,,0.1721,-0.2096,0.2214,0.5714,1.349064,0.0342,-0.5456,-0.9257,-3.0759,1.1663,2.9256,1.7055,0.0438,-0.1297,0.0625,0.0711,-19.1895,-18.4392,-23.7793,145.52,55.00
13.552,324,1,0.9381,0.526641,0.922562,0.000001,0.9350,0.3350,0.2500,0.5196,0.3350,0.2500,0.5196,0.102026,-0.634071,0.756942,0.120757,0.0275,,0.0926,-0.2096,0.2201,0.5997,2.538757,0.0291,-0.5335,-0.9363,-3.0678,1.7657,3.4523,2.4481,-0.1592,0.1214,-0.2181,0.1157,18.0966,18.1151,22.8648,134.82,55.00
13.595,325,1,0.9311,0.558989,0.920282,0.000001,0.9586,0.3350,0.2500,0.5196,0.3350,0.2500,0.5196,0.099054,-0.637245,0.756868,0.106107,0.0286,,0.1627,-0.2178,0.2231,0.5800,1.317503,0.0346,-0.5458,-0.9288,-3.0737,1.1962,3.0123,1.6207,0.0381,-0.1224,0.0527,0.0837,-19.1161,-17.0787,-23.0141,137.26,55.00
13.627,326,1,0.9554,0.559529,0.922480,0.000001,1.0086,0.3350,0.2500,0.5196,0.3350,0.2500,0.5196,0.123976,-0.640174,0.750207,0.109532,0.0310,,0.0729,-0.2169,0.2322,0.6077,2.585912,0.0290,-0.5335,-0.9400,-3.0683,1.7408,3.6237,2.4538,-0.1612,0.1223,-0.2249,0.0872,17.6076,18.2735,23.4464,134.84,55.00
13.664,327,1,0.9351,0.593468,0.922180,0.000001,0.9249,0.3350,0.2500,0.5196,0.3350,0.2500,0.5196,0.091275,-0.634867,0.760712,0.099646,0.0271,,0.1657,-0.2165,0.2228,0.5782,1.315426,0.0343,-0.5461,-0.9321,-3.0754,1.1633,2.9870,1.6598,0.0399,-0.1276,0.0572,0.0529,-19.2412,-18.0357,-22.8637,145.52,55.00
13.705,328,1,0.9258,0.618663,0.918924,0.000001,0.9311,0.3350,0.2500,0.5196,0.3350,0.2500,0.5196,0.066637,-0.626101,0.769443,0.107302,0.0273,,0.0835,-0.2180,0.2270,0.6065,2.555678,0.0292,-0.5339,-0.9428,-3.0673,1.7129,3.5406,2.5013,-0.1573,0.1207,-0.2184,0.1188,17.7016,18.1159,23.4387,135.09,55.00
13.750,329,1,0.9318,0.658923,0.921172,0.000001,0.9214,0.3350,0.2500,0.5196,0.3350,0.2500,0.5196,0.094196,-0.613956,0.775776,0.111159,0.0269,,0.1747,-0.2049,0.2190,0.5683,1.303846,0.0343,-0.5460,-0.9364,-3.0761,1.1724,2.8728,1.7124,0.0468,-0.1309,0.0661,0.0837,-19.0676,-18.7783,-22.8385,145.05,55.00
13.790,330,1,0.9207,0.691640,0.920836,0.000001,0.8901,0.3350,0.2500,0.5196,0.3350,0.2500,0.5196,0.086242,-0.610638,0.778632,0.115827,0.0254,,0.0987,-0.2037,0.2137,0.5960,2.599466,0.0291,-0.5342,-0.9469,-3.0682,1.8010,3.3758,2.5510,-0.1596,0.1212,-0.2166,0.1169,18.3391,18.0638,23.3626,134.73,55.00
13.834,331,1,0.9182,0.735194,0.932512,0.000001,0.8725,0.3350,0.2500,0.5196,0.3350,0.2500,0.5196,0.049124,-0.605918,0.785675,0.114738,0.0246,,0.1748,-0.2110,0.2217,0.5717,1.360416,0.0344,-0.5461,-0.9399,-3.0721,1.1191,2.9018,1.8043,0.0475,-0.1325,0.0679,0.1566,-20.1445,-17.1176,-22.5147,135.24,55.00
