Ovmem/robot-control-retargeting-framework/results/hand_retargeting/runs/20260621_011911/raw/hand_retargeting_run.csv
timestamp,frame_id,detected_hand,detection_confidence,wrist_x,wrist_y,wrist_z,pinch_ratio,target_pos_x,target_pos_y,target_pos_z,filtered_target_pos_x,filtered_target_pos_y,filtered_target_pos_z,target_quat_w,target_quat_x,target_quat_y,target_quat_z,gripper_width,workspace_clipped,actual_ee_pos_x,actual_ee_pos_y,actual_ee_pos_z,ee_position_error,ee_orientation_error,joint_q_1,joint_q_2,joint_q_3,joint_q_4,joint_q_5,joint_q_6,joint_q_7,joint_dq_1,joint_dq_2,joint_dq_3,joint_dq_4,joint_dq_5,joint_dq_6,joint_dq_7,torque_norm,max_abs_torque
0.534,0,1,0.9760,0.545883,0.937692,0.000002,1.1546,0.3350,0.0000,0.6396,0.3350,0.0000,0.6396,-0.135219,-0.616113,0.726785,0.271853,0.0379,,0.3351,-0.0026,0.6380,0.0031,1.776877,-0.0035,-0.6986,-0.0030,-2.2018,-0.0016,1.5967,0.8601,-0.0298,0.0126,-0.0261,-0.0160,-0.0137,-0.0278,0.8231,26.93,16.12
1.084,1,1,0.9499,0.563059,0.958755,0.000002,1.3181,0.3350,0.0310,0.6092,0.3350,0.0310,0.6092,-0.099944,-0.639014,0.721918,0.245983,0.0400,,0.3360,0.0000,0.6323,0.0386,1.689142,-0.0022,-0.6940,0.0018,-2.2096,0.0003,1.5915,0.8839,0.0125,0.0399,0.0423,-0.0668,0.0160,-0.0437,0.0536,23.30,14.23
1.124,2,1,0.9637,0.547459,0.962549,0.000002,1.3410,0.3350,0.0084,0.5983,0.3350,0.0084,0.5983,-0.099261,-0.659550,0.709713,0.226825,0.0400,,0.3369,-0.0013,0.6262,0.0297,1.617332,-0.0044,-0.6892,0.0005,-2.2180,-0.0002,1.5864,0.8911,-0.0201,0.0402,-0.0129,-0.0700,-0.0040,-0.0428,0.0599,20.78,12.03
1.165,3,1,0.9636,0.551218,0.964040,0.000002,1.3020,0.3350,0.0111,0.5941,0.3350,0.0111,0.5941,-0.100241,-0.654518,0.712885,0.230982,0.0400,,0.3376,-0.0018,0.6205,0.0295,1.616883,-0.0060,-0.6848,0.0004,-2.2259,-0.0000,1.5814,0.8982,-0.0126,0.0372,-0.0003,-0.0660,0.0011,-0.0415,0.0591,17.65,11.88
1.205,4,1,0.9607,0.557838,0.968625,0.000002,1.3616,0.3350,0.0236,0.5868,0.3350,0.0236,0.5868,-0.103908,-0.651463,0.715843,0.228842,0.0400,,0.3383,-0.0007,0.6146,0.0370,1.613745,-0.0060,-0.6802,0.0029,-2.2342,0.0012,1.5763,0.9053,0.0004,0.0384,0.0217,-0.0691,0.0103,-0.0422,0.0593,18.65,11.92
1.245,5,1,0.9536,0.564031,0.973372,0.000002,1.3984,0.3350,0.0370,0.5786,0.3350,0.0370,0.5786,-0.098469,-0.661862,0.710893,0.216505,0.0400,,0.3389,0.0022,0.6085,0.0460,1.577574,-0.0045,-0.6755,0.0077,-2.2428,0.0035,1.5713,0.9124,0.0125,0.0393,0.0413,-0.0721,0.0195,-0.0419,0.0587,23.26,13.79
1.285,6,1,0.9655,0.571229,0.960685,0.000002,1.3699,0.3350,0.0524,0.5954,0.3350,0.0524,0.5954,-0.083664,-0.661790,0.713038,0.215897,0.0400,,0.3390,0.0066,0.6058,0.0471,1.575817,-0.0016,-0.6736,0.0149,-2.2464,0.0071,1.5680,0.9195,0.0246,0.0141,0.0605,-0.0279,0.0300,-0.0269,0.0591,29.77,20.43
1.325,7,1,0.9612,0.566440,0.953488,0.000002,1.3532,0.3350,0.0465,0.6089,0.3350,0.0465,0.6089,-0.083378,-0.653680,0.724076,0.203627,0.0400,,0.3387,0.0095,0.6054,0.0373,1.588520,-0.0001,-0.6736,0.0197,-2.2467,0.0097,1.5658,0.9327,0.0121,-0.0004,0.0398,-0.0015,0.0218,-0.0176,0.1463,29.89,21.50
1.354,8,1,0.9712,0.566768,0.960772,0.000002,1.3388,0.3350,0.0460,0.6008,0.3350,0.0460,0.6008,-0.077264,-0.640701,0.737248,0.199994,0.0400,,0.3386,0.0120,0.6038,0.0343,1.605512,0.0010,-0.6725,0.0240,-2.2488,0.0122,1.5631,0.9530,0.0096,0.0096,0.0356,-0.0185,0.0207,-0.0228,0.1840,24.05,15.53
1.405,9,1,0.9762,0.570544,0.947568,0.000002,1.3853,0.3350,0.0528,0.6184,0.3350,0.0528,0.6184,-0.058698,-0.642621,0.738097,0.196992,0.0400,,0.3381,0.0152,0.6050,0.0400,1.593535,0.0028,-0.6738,0.0291,-2.2466,0.0153,1.5619,0.9659,0.0148,-0.0120,0.0425,0.0201,0.0259,-0.0097,0.0597,37.66,29.05
1.440,10,1,0.9710,0.573493,0.953057,0.000002,1.4085,0.3350,0.0593,0.6136,0.3350,0.0593,0.6136,-0.046889,-0.642405,0.741479,0.187951,0.0400,,0.3377,0.0187,0.6053,0.0416,1.583593,0.0048,-0.6742,0.0347,-2.2459,0.0188,1.5603,0.9829,0.0172,-0.0029,0.0470,0.0054,0.0292,-0.0135,0.1977,33.64,23.91
1.471,11,1,0.9755,0.575069,0.956530,0.000002,1.3861,0.3350,0.0633,0.6077,0.3350,0.0633,0.6077,-0.056950,-0.642722,0.736014,0.204815,0.0400,,0.3374,0.0223,0.6047,0.0412,1.579259,0.0071,-0.6738,0.0405,-2.2464,0.0223,1.5582,0.9930,0.0185,0.0037,0.0489,-0.0052,0.0289,-0.0176,0.0588,30.69,20.17
1.515,12,1,0.9736,0.576796,0.956352,0.000002,1.3807,0.3350,0.0672,0.6069,0.3350,0.0672,0.6069,-0.063843,-0.643565,0.733851,0.207873,0.0400,,0.3371,0.0259,0.6041,0.0414,1.575919,0.0092,-0.6734,0.0463,-2.2470,0.0257,1.5562,1.0002,0.0181,0.0036,0.0487,-0.0042,0.0286,-0.0170,0.0599,30.87,20.50
1.555,13,1,0.9760,0.575670,0.943185,0.000002,1.3789,0.3350,0.0658,0.6258,0.3350,0.0658,0.6258,-0.066232,-0.643582,0.733772,0.207351,0.0400,,0.3365,0.0289,0.6062,0.0419,1.575537,0.0108,-0.6752,0.0510,-2.2432,0.0287,1.5555,1.0073,0.0129,-0.0167,0.0390,0.0323,0.0248,-0.0051,0.0598,41.06,33.31
1.592,14,1,0.9751,0.584804,0.929533,0.000002,1.3916,0.3350,0.0821,0.6489,0.3350,0.0821,0.6489,-0.071486,-0.639904,0.734477,0.214373,0.0400,,0.3353,0.0336,0.6113,0.0613,1.591151,0.0140,-0.6793,0.0583,-2.2352,0.0328,1.5562,1.0145,0.0271,-0.0352,0.0617,0.0683,0.0346,0.0062,0.0598,58.27,45.90
1.637,15,1,0.9771,0.584616,0.926737,0.000002,1.3923,0.3350,0.0846,0.6571,0.3350,0.0846,0.6571,-0.060934,-0.645488,0.730007,0.216151,0.0400,,0.3340,0.0381,0.6166,0.0617,1.581981,0.0168,-0.6834,0.0650,-2.2267,0.0367,1.5572,1.0217,0.0233,-0.0346,0.0552,0.0706,0.0327,0.0078,0.0597,57.53,46.65
1.667,16,1,0.9776,0.584247,0.936624,0.000002,1.4561,0.3350,0.0844,0.6443,0.3350,0.0844,0.6443,-0.038503,-0.651851,0.730809,0.198813,0.0400,,0.3332,0.0419,0.6193,0.0494,1.565447,0.0191,-0.6853,0.0708,-2.2221,0.0404,1.5571,1.0288,0.0185,-0.0148,0.0483,0.0372,0.0309,-0.0007,0.0595,43.44,34.87
1.706,17,1,0.9782,0.580657,0.941246,0.000002,1.4102,0.3350,0.0779,0.6353,0.3350,0.0779,0.6353,-0.055273,-0.652127,0.728715,0.201618,0.0400,,0.3327,0.0443,0.6204,0.0369,1.563119,0.0201,-0.6859,0.0747,-2.2199,0.0431,1.5563,1.0359,0.0082,-0.0039,0.0323,0.0176,0.0220,-0.0069,0.0592,33.52,27.99
1.750,18,1,0.9749,0.580606,0.945236,0.000002,1.4076,0.3350,0.0767,0.6280,0.3350,0.0767,0.6280,-0.069290,-0.647628,0.729999,0.207071,0.0400,,0.3325,0.0462,0.6203,0.0315,1.571672,0.0207,-0.6854,0.0781,-2.2195,0.0453,1.5549,1.0430,0.0052,0.0043,0.0284,0.0031,0.0187,-0.0119,0.0591,27.85,22.89
1.782,19,1,0.9738,0.572694,0.954483,0.000002,1.4155,0.3350,0.0622,0.6133,0.3350,0.0622,0.6133,-0.053491,-0.645024,0.734814,0.202809,0.0400,,0.3329,0.0459,0.6181,0.0171,1.567622,0.0194,-0.6833,0.0783,-2.2223,0.0463,1.5524,1.0502,-0.0117,0.0181,0.0005,-0.0239,0.0079,-0.0205,0.0594,19.11,13.45
1.820,20,1,0.9766,0.573221,0.952622,0.000002,1.4063,0.3350,0.0605,0.6133,0.3350,0.0605,0.6133,-0.062185,-0.643237,0.735456,0.203677,0.0400,,0.3331,0.0456,0.6164,0.0153,1.562719,0.0180,-0.6817,0.0784,-2.2243,0.0472,1.5502,1.0572,-0.0112,0.0136,0.0009,-0.0170,0.0073,-0.0183,0.0588,20.65,15.87
1.859,21,1,0.9770,0.574030,0.949646,0.000002,1.4176,0.3350,0.0617,0.6176,0.3350,0.0617,0.6176,-0.055546,-0.643227,0.737915,0.196611,0.0400,,0.3332,0.0454,0.6155,0.0165,1.553449,0.0169,-0.6808,0.0787,-2.2251,0.0483,1.5485,1.0643,-0.0095,0.0072,0.0028,-0.0057,0.0090,-0.0140,0.0587,23.89,19.83
1.899,22,1,0.9766,0.576189,0.946701,0.000002,1.4167,0.3350,0.0658,0.6227,0.3350,0.0658,0.6227,-0.060644,-0.646022,0.734267,0.199574,0.0400,,0.3332,0.0459,0.6155,0.0212,1.539873,0.0163,-0.6805,0.0799,-2.2246,0.0497,1.5472,1.0712,-0.0050,0.0019,0.0100,0.0043,0.0118,-0.0110,0.0580,27.08,23.36
1.928,23,1,0.9677,0.565670,0.966432,0.000002,1.4303,0.3350,0.0475,0.5951,0.3350,0.0475,0.5951,-0.054644,-0.646492,0.738384,0.183987,0.0400,,0.3339,0.0437,0.6115,0.0169,1.522574,0.0134,-0.6771,0.0776,-2.2303,0.0494,1.5439,1.0782,-0.0248,0.0306,-0.0209,-0.0494,-0.0023,-0.0277,0.0582,20.66,11.71
1.970,24,1,0.9685,0.566547,0.970221,0.000002,1.4194,0.3350,0.0458,0.5847,0.3350,0.0458,0.5847,-0.064241,-0.639834,0.742059,0.189299,0.0400,,0.3346,0.0418,0.6068,0.0225,1.525570,0.0107,-0.6731,0.0756,-2.2370,0.0493,1.5403,1.0852,-0.0222,0.0332,-0.0162,-0.0559,-0.0013,-0.0299,0.0578,19.36,11.62
2.011,25,1,0.9592,0.562835,1.001056,0.000002,1.3908,0.3350,0.0388,0.5383,0.3350,0.0388,0.5383,-0.069239,-0.647788,0.734954,0.188198,0.0400,,0.3360,0.0392,0.5962,0.0579,1.484705,0.0075,-0.6644,0.0732,-2.2526,0.0486,1.5339,1.0920,-0.0270,0.0757,-0.0206,-0.1334,-0.0056,-0.0542,0.0566,42.04,26.73
2.042,26,1,0.9216,0.555204,1.050684,0.000002,1.3364,0.3350,0.0238,0.5230,0.3350,0.0238,0.5230,-0.069589,-0.639292,0.736218,0.210821,0.0400,,0.3373,0.0351,0.5852,0.0633,1.483171,0.0028,-0.6554,0.0683,-2.2689,0.0470,1.5273,1.0987,-0.0392,0.0752,-0.0410,-0.1356,-0.0140,-0.0545,0.0563,46.03,26.13
2.080,27,1,0.6429,0.544401,1.195619,0.000002,1.1275,0.3350,0.0016,0.5202,0.3350,0.0016,0.5202,-0.118795,-0.610835,0.734349,0.271108,0.0366,,0.3382,0.0287,0.5751,0.0613,1.528205,-0.0039,-0.6473,0.0602,-2.2838,0.0434,1.5207,1.1055,-0.0568,0.0681,-0.0690,-0.1243,-0.0301,-0.0550,0.0563,50.33,25.76
2.122,28,1,0.9213,0.477347,1.303485,0.000002,1.1422,0.3350,-0.1234,0.5197,0.3350,-0.1234,0.5197,-0.095102,-0.608697,0.745206,0.255170,0.0373,,0.3399,-0.0366,0.5754,0.1031,1.499461,-0.0242,-0.6402,0.0328,-2.2977,-0.4021,1.5146,1.1122,-0.1759,0.0638,-0.2405,-0.1245,-6.4495,-0.0511,0.0559,124.57,87.00
2.167,29,1,0.9354,0.517623,1.346634,0.000002,1.1659,0.3350,-0.0732,0.5196,0.3350,-0.0732,0.5196,-0.071090,-0.602683,0.760464,0.231115,0.0384,,0.3390,-0.0200,0.5582,0.0658,1.481988,-0.0267,-0.6317,0.0276,-2.3135,-0.1884,1.5073,1.1176,-0.0082,0.0755,-0.0239,-0.1398,5.2079,-0.0578,0.0452,43.82,24.59
2.218,30,1,0.9441,0.507871,1.371759,0.000002,0.9802,0.3350,-0.0817,0.5196,0.3350,-0.0817,0.5196,-0.096604,-0.601153,0.764386,0.212122,0.0297,,0.3383,-0.0642,0.5653,0.0490,1.482873,-0.0405,-0.6281,0.0095,-2.3201,-0.5178,1.5022,1.1246,-0.1268,0.0325,-0.1684,-0.0610,-6.4250,-0.0424,0.0580,89.86,61.24
2.248,31,1,0.9523,0.517275,1.403660,0.000001,0.9234,0.3350,-0.0663,0.5196,0.3350,-0.0663,0.5196,-0.075534,-0.605496,0.766745,0.199428,0.0270,,0.3376,-0.0289,0.5433,0.0444,1.427755,-0.0398,-0.6204,0.0091,-2.3346,-0.1535,1.4972,1.1298,0.0189,0.0743,0.0165,-0.1391,7.7273,-0.0446,0.0431,44.98,27.83
2.291,32,1,0.9525,0.519262,1.401563,0.000002,0.9993,0.3350,-0.0600,0.5196,0.3350,-0.0600,0.5196,-0.077409,-0.597671,0.767534,0.218376,0.0306,,0.3364,-0.0744,0.5534,0.0368,1.466539,-0.0517,-0.6186,-0.0051,-2.3373,-0.5239,1.4939,1.1389,-0.1146,0.0200,-0.1402,-0.0355,-8.3493,-0.0284,0.0770,83.16,54.35
2.321,33,1,0.9428,0.513686,1.406203,0.000001,0.9489,0.3350,-0.0689,0.5196,0.3350,-0.0689,0.5196,-0.072200,-0.599545,0.769562,0.207622,0.0282,,0.3366,-0.0241,0.5307,0.0461,1.400228,-0.0492,-0.6114,-0.0033,-2.3513,-0.0331,1.4897,1.1436,0.0376,0.0785,0.0406,-0.1495,10.7819,-0.0399,0.0399,52.73,34.57
2.360,34,1,0.9475,0.495467,1.402336,0.000001,0.9591,0.3350,-0.1033,0.5196,0.3350,-0.1033,0.5196,-0.037031,-0.595267,0.774352,0.211340,0.0287,,0.3345,-0.1187,0.5640,0.0470,1.561761,-0.0681,-0.6093,-0.0278,-2.3538,-0.8701,1.4879,1.1831,-0.1927,0.0440,-0.2943,-0.0775,-17.2688,-0.0202,0.4953,134.30,87.00
2.404,35,1,0.9454,0.486146,1.374678,0.000001,1.0232,0.3350,-0.1264,0.5196,0.3350,-0.1264,0.5196,-0.051876,-0.591792,0.779823,0.197403,0.0317,,0.3326,-0.0099,0.4997,0.1182,1.338038,-0.0658,-0.5958,-0.0310,-2.4181,0.2597,1.4835,1.1873,0.0776,0.1355,0.0635,-2.1591,26.0476,-0.0378,0.0184,117.01,71.75
2.448,36,1,0.9419,0.478459,1.352195,0.000001,1.0400,0.3350,-0.1444,0.5196,0.3350,-0.1444,0.5196,-0.074367,-0.591583,0.777810,0.198773,0.0325,,0.3495,-0.1355,0.5426,0.0286,1.603019,-0.0833,-0.5951,-0.0551,-2.4282,-1.0820,1.6643,1.3158,-0.4110,0.0631,-0.5589,-0.0936,-34.9421,1.8470,1.8933,164.14,87.00
2.489,37,1,0.9369,0.485312,1.303810,0.000001,1.1887,0.3350,-0.1353,0.5196,0.3350,-0.1353,0.5196,-0.035226,-0.601295,0.766533,0.222778,0.0395,,0.3275,-0.0962,0.4760,0.0590,1.217640,-0.0818,-0.5762,-0.0690,-2.4739,-0.3587,1.5514,1.3576,-0.0044,0.1862,-0.1143,-1.8088,31.4544,-1.4097,0.0479,152.86,87.00
2.531,38,1,0.9424,0.493134,1.265224,0.000001,1.2414,0.3350,-0.1195,0.5196,0.3350,-0.1195,0.5196,-0.008346,-0.611004,0.763006,0.210775,0.0400,,0.3394,-0.1656,0.5310,0.0476,1.726038,-0.1023,-0.5899,-0.0883,-2.4793,-1.2817,1.6400,1.3641,-0.7001,-0.0891,-0.2819,0.0198,-32.6118,1.0367,0.0544,190.20,87.00
2.562,39,1,0.9231,0.499304,1.228121,0.000001,1.2114,0.3350,-0.1055,0.5196,0.3350,-0.1055,0.5196,-0.043056,-0.610979,0.758664,0.221993,0.0400,,0.3259,-0.1174,0.4594,0.0621,1.217486,-0.0991,-0.5736,-0.0966,-2.5239,-0.4593,1.6372,1.3697,0.0147,0.1715,-0.0841,-1.7906,31.9259,-0.0155,0.0477,149.59,87.00
2.600,40,1,0.9125,0.487460,1.201002,0.000001,1.3182,0.3350,-0.1244,0.5196,0.3350,-0.1244,0.5196,-0.017386,-0.607730,0.766642,0.206450,0.0400,,0.3318,-0.1807,0.5143,0.0566,1.772137,-0.1206,-0.5874,-0.1088,-2.5279,-1.3776,1.6465,1.3734,-0.7826,-0.0888,-0.1938,0.0121,-32.5772,0.0422,0.0279,181.49,87.00
2.632,41,1,0.9059,0.494614,1.168479,0.000001,1.3253,0.3350,-0.1149,0.5196,0.3350,-0.1149,0.5196,-0.044351,-0.608947,0.767271,0.196244,0.0400,,0.3139,-0.1316,0.4395,0.0845,1.207960,-0.1190,-0.5734,-0.1187,-2.5714,-0.4990,1.6482,1.3795,0.0003,0.1526,-0.1044,-1.7614,32.4258,0.0118,0.0523,144.26,87.00
2.658,42,1,0.7969,0.491863,1.103630,0.000001,1.3383,0.3350,-0.1181,0.5196,0.3350,-0.1181,0.5196,-0.052077,-0.619419,0.763326,0.175902,0.0400,,0.3295,-0.1836,0.4919,0.0713,1.723195,-0.1327,-0.5877,-0.1243,-2.5750,-1.3940,1.7157,1.3827,-0.2866,-0.1054,-0.1593,0.0338,-32.8400,0.2724,0.0251,168.06,87.00
2.701,43,1,0.8795,0.503136,1.029676,0.000001,1.3583,0.3350,-0.0984,0.5196,0.3350,-0.0984,0.5196,-0.054705,-0.626123,0.758466,0.172355,0.0400,,0.3098,-0.1339,0.4217,0.1072,1.042269,-0.1302,-0.5783,-0.1324,-2.6200,-0.4954,1.7169,1.5312,-0.0048,0.1100,-0.0973,-1.7431,32.7828,0.0076,2.2961,135.83,87.00
2.742,44,1,0.8936,0.515748,0.992660,0.000001,1.3502,0.3350,-0.0721,0.5387,0.3350,-0.0721,0.5387,-0.044743,-0.620438,0.760232,0.187355,0.0400,,0.3415,-0.1684,0.4729,0.1168,1.750371,-0.1360,-0.5935,-0.1276,-2.6209,-1.4240,1.9000,1.5427,-0.1337,-0.1386,-0.0518,0.1073,-33.8162,2.3356,-0.0186,156.48,87.00
2.781,45,1,0.9028,0.532832,0.944523,0.000001,1.3700,0.3350,-0.0365,0.6116,0.3350,-0.0365,0.6116,-0.011433,-0.621679,0.758213,0.196208,0.0400,,0.3297,-0.1280,0.4328,0.2009,0.764787,-0.1329,-0.6006,-0.1297,-2.6327,-0.5071,1.9162,2.2475,0.0106,0.0059,-0.0319,-0.2924,33.4907,-0.0465,10.3859,101.13,87.00
2.819,46,1,0.9148,0.541511,0.926268,0.000001,1.3578,0.3350,-0.0145,0.6511,0.3350,-0.0145,0.6511,0.535274,-0.526681,0.639722,0.163842,0.0400,,0.3832,-0.0964,0.4978,0.1804,2.496103,-0.1273,-0.6185,-0.1128,-2.6104,-1.0918,2.4727,1.3815,0.0073,-0.1810,0.1205,0.6359,-29.3031,8.9206,-16.1436,169.05,87.00
2.862,47,1,0.9212,0.544328,0.919914,0.000001,1.3262,0.3350,-0.0054,0.6673,0.3350,-0.0054,0.6673,0.111229,-0.621448,0.752747,0.186556,0.0400,,0.3804,-0.1115,0.5271,0.1816,1.095156,-0.1411,-0.6452,-0.1311,-2.5850,0.1428,2.4945,3.1573,-0.1566,-0.1833,-0.1989,0.3662,36.6482,-3.6557,-2.7806,207.74,87.00
2.918,48,1,0.9345,0.541984,0.915534,0.000001,1.2862,0.3350,-0.0080,0.6766,0.3350,-0.0080,0.6766,-0.528083,-0.524614,0.642758,0.181025,0.0400,,0.3838,-0.0975,0.5562,0.1577,2.022011,-0.1242,-0.6663,-0.1149,-2.5594,-0.2458,2.5576,0.8134,0.1663,-0.1892,0.2074,0.3356,-27.7947,1.4985,-31.1785,199.93,87.00
2.960,49,1,0.9211,0.543082,0.907197,0.000001,1.2954,0.3350,-0.0065,0.6903,0.3350,-0.0065,0.6903,-0.110369,-0.616673,0.753487,0.199474,0.0400,,0.3720,-0.1293,0.5779,0.1705,1.516660,-0.1338,-0.6869,-0.1303,-2.5327,0.9530,2.6329,2.5117,-0.1318,-0.1794,-0.2268,0.7408,34.1722,0.0289,41.0940,204.42,87.00
3.002,50,1,0.9342,0.545446,0.908431,0.000001,1.2750,0.3350,-0.0020,0.6910,0.3350,-0.0020,0.6910,-0.024023,-0.618370,0.756636,0.211053,0.0400,,0.3701,-0.0936,0.5811,0.1473,1.606829,-0.1159,-0.7132,-0.1168,-2.4963,0.1653,2.3464,0.8871,0.4786,-0.2527,0.3396,0.8613,-33.1678,-5.3769,-41.3658,214.25,87.00
3.034,51,1,0.9160,0.548864,0.899303,0.000001,1.2878,0.3350,0.0050,0.7043,0.3350,0.0050,0.7043,-0.012446,-0.623977,0.756455,0.195638,0.0400,,0.3604,-0.1302,0.6278,0.1574,1.425494,-0.1216,-0.7319,-0.1282,-2.4661,1.1155,2.6694,1.9789,-0.0757,-0.1692,-0.1631,1.1777,33.2828,6.0985,38.6756,199.10,87.00
3.075,52,1,0.9031,0.556445,0.894937,0.000001,1.2704,0.3350,0.0200,0.7130,0.3350,0.0200,0.7130,0.535035,-0.534093,0.634776,0.159818,0.0400,,0.3120,-0.0293,0.5884,0.1359,1.600308,-0.0754,-0.7509,-0.1003,-2.3417,0.2898,1.4917,0.7475,2.7174,-0.1023,2.0235,2.9676,-31.3951,-20.9602,-40.2583,211.94,87.00
3.116,53,1,0.8851,0.563880,0.884823,0.000001,1.2802,0.3350,0.0361,0.7291,0.3350,0.0361,0.7291,-0.451738,-0.566038,0.669845,0.163836,0.0400,,0.3473,-0.0794,0.7331,0.1162,2.586483,-0.0605,-0.7512,-0.0053,-2.2805,1.3919,2.9334,2.0267,0.0214,0.1149,1.0365,4.1891,33.4884,32.0375,39.3779,186.49,87.00
3.158,54,1,0.9043,0.569273,0.887654,0.000001,1.2548,0.3350,0.0487,0.7279,0.3350,0.0487,0.7279,-0.093784,-0.628252,0.748174,0.191676,0.0400,,0.3651,-0.0238,0.7224,0.0787,1.917629,-0.0469,-0.7448,-0.0086,-2.2801,0.3482,2.4052,0.8660,1.1540,0.0811,0.7630,0.8173,-33.9748,-27.6382,-38.9533,220.36,87.00
3.188,55,1,0.8651,0.574144,0.881394,0.000001,1.2710,0.3350,0.0597,0.7368,0.3350,0.0597,0.7368,-0.028325,-0.631705,0.751220,0.189247,0.0400,,0.3067,-0.0984,0.7769,0.1656,2.101706,-0.0629,-0.7476,0.0371,-2.2282,1.3137,3.3660,2.1282,-0.2045,-0.0303,-0.4041,4.1899,31.4383,29.6896,39.5994,230.18,87.00
3.227,56,1,0.8318,0.582661,0.872647,0.000001,1.2566,0.3350,0.0771,0.7510,0.3350,0.0771,0.7510,-0.011695,-0.632571,0.751621,0.186500,0.0400,,0.3595,-0.0132,0.7417,0.0940,1.815029,-0.0463,-0.7478,0.0070,-2.2340,0.3066,2.3561,0.9764,1.4906,0.1116,1.0105,0.9027,-33.5731,-30.7728,-38.9320,221.38,87.00
3.258,57,1,0.8651,0.587105,0.872975,0.000001,1.2404,0.3350,0.0882,0.7531,0.3350,0.0882,0.7531,-0.011652,-0.630094,0.751402,0.195552,0.0400,,0.3281,-0.0564,0.7864,0.1486,1.916841,-0.0658,-0.7507,0.0689,-2.1915,1.3573,3.0903,2.2430,-0.1695,-0.0185,-0.1997,3.9349,32.8739,28.4560,39.3889,230.18,87.00
3.301,58,1,0.8656,0.584652,0.865452,0.000001,1.2849,0.3350,0.0858,0.7643,0.3350,0.0858,0.7643,0.539035,-0.534087,0.635746,0.141492,0.0400,,0.3499,0.0098,0.7826,0.0796,1.631607,-0.0511,-0.7437,0.0475,-2.1469,0.3909,2.3498,1.0921,1.1997,0.1160,0.8550,1.2812,-33.4794,-28.8856,-38.8857,216.33,87.00
3.340,59,1,0.8764,0.585393,0.857605,0.000001,1.2690,0.3350,0.0867,0.7769,0.3350,0.0867,0.7769,0.103102,-0.620251,0.759380,0.167336,0.0400,,0.3059,-0.0486,0.8302,0.1483,1.843673,-0.0721,-0.7483,0.1012,-2.0910,1.4219,3.1785,2.3545,-0.2158,-0.0237,-0.2968,4.2537,32.4835,28.8403,39.3939,230.18,87.00
3.368,60,1,0.8934,0.592773,0.857739,0.000001,1.2348,0.3350,0.1002,0.7791,0.3350,0.1002,0.7791,-0.523233,-0.527907,0.650184,0.157489,0.0400,,0.3458,0.0120,0.8016,0.0917,2.441947,-0.0579,-0.7449,0.0709,-2.1509,0.3858,2.5160,1.0765,0.9839,0.0531,0.5891,0.6337,-33.9461,-28.2504,-39.5436,222.88,87.00
3.422,61,1,0.9119,0.594453,0.861757,0.000001,1.2352,0.3350,0.1057,0.7743,0.3350,0.1057,0.7743,0.456320,-0.547582,0.680419,0.170165,0.0400,,0.2807,-0.0583,0.8406,0.1850,1.447417,-0.0685,-0.7474,0.1189,-2.0960,1.3114,3.4366,2.2835,-0.2420,-0.0427,-0.4437,4.1978,30.9612,29.5525,39.3553,227.83,87.00
3.469,62,1,0.9212,0.593709,0.863969,0.000001,1.2466,0.3350,0.1053,0.7703,0.3350,0.1053,0.7703,0.099140,-0.611331,0.762272,0.188117,0.0400,,0.3521,0.0321,0.7575,0.0762,1.799878,-0.0459,-0.7558,0.0880,-2.1973,0.2173,2.3185,1.0959,1.8816,0.1241,1.3187,0.1789,-34.3038,-31.0890,-39.1769,230.18,87.00
3.512,63,1,0.9199,0.590829,0.863417,0.000001,1.2329,0.3350,0.1000,0.7703,0.3350,0.1000,0.7703,0.021015,-0.615842,0.764602,0.188894,0.0400,,0.3308,0.0078,0.8016,0.0975,1.733377,-0.0744,-0.7582,0.1640,-2.1725,1.2542,2.9937,2.3406,-0.1141,-0.0276,-0.0528,3.4202,33.0814,27.9527,39.2362,229.00,87.00
3.552,64,1,0.8970,0.595264,0.868621,0.000001,1.2469,0.3350,0.1071,0.7628,0.3350,0.1071,0.7628,0.010623,-0.612945,0.765373,0.195933,0.0400,,0.3576,0.0668,0.7149,0.0666,1.813220,-0.0511,-0.7520,0.1550,-2.2452,0.2131,2.2216,1.0749,1.9308,0.1655,1.4033,0.1333,-33.9147,-28.9008,-39.7134,226.79,87.00
3.592,65,1,0.9195,0.594851,0.871513,0.000001,1.2477,0.3350,0.1076,0.7573,0.3350,0.1076,0.7573,0.011937,-0.612584,0.764348,0.200923,0.0400,,0.3375,0.0266,0.7792,0.0839,1.732106,-0.0918,-0.7562,0.2223,-2.2153,1.2741,3.0380,2.2882,-0.1443,-0.0253,-0.0956,3.6809,33.0819,28.6114,39.1169,230.15,87.00
3.622,66,1,0.9113,0.594526,0.869990,0.000001,1.2441,0.3350,0.1071,0.7585,0.3350,0.1071,0.7585,0.007945,-0.611990,0.766589,0.194284,0.0400,,0.3581,0.0869,0.7283,0.0431,1.856575,-0.0707,-0.7483,0.2072,-2.2339,0.2736,2.3151,1.0961,1.7152,0.1409,1.0771,0.4161,-33.6409,-28.5685,-39.1669,221.76,87.00
3.665,67,1,0.9267,0.595091,0.876444,0.000001,1.2369,0.3350,0.1081,0.7494,0.3350,0.1081,0.7494,0.003748,-0.610608,0.766812,0.197849,0.0400,,0.3254,0.0333,0.7916,0.0864,1.865189,-0.1027,-0.7533,0.2697,-2.1920,1.3111,3.1876,2.3394,-0.2030,-0.0295,-0.2160,4.0349,32.3837,29.1039,39.3298,230.18,87.00
3.707,68,1,0.9142,0.594930,0.874392,0.000001,1.2428,0.3350,0.1079,0.7507,0.3350,0.1079,0.7507,0.003253,-0.612359,0.766187,0.194840,0.0400,,0.3575,0.0993,0.7460,0.0246,1.974889,-0.0848,-0.7460,0.2487,-2.2380,0.3031,2.4935,1.0715,1.3094,0.1270,0.7290,0.5135,-33.7212,-28.7993,-39.4648,222.83,87.00
3.750,69,1,0.9238,0.596939,0.879013,0.000001,1.2461,0.3350,0.1115,0.7443,0.3350,0.1115,0.7443,0.004861,-0.613974,0.764998,0.194399,0.0400,,0.3096,0.0336,0.8005,0.0993,1.997791,-0.1114,-0.7507,0.3056,-2.1903,1.2735,3.3762,2.2841,-0.3360,-0.0482,-0.2807,4.0838,31.3637,29.2986,39.3466,230.18,87.00
3.793,70,1,0.9162,0.596872,0.880404,0.000001,1.2444,0.3350,0.1121,0.7411,0.3350,0.1121,0.7411,-0.535529,-0.515709,0.648469,0.163526,0.0400,,0.3641,0.1124,0.6907,0.0582,2.268564,-0.0877,-0.7458,0.2816,-2.3042,0.1892,2.3507,1.0982,1.8401,0.2700,1.2958,0.1468,-34.2836,-31.0764,-39.1176,230.18,87.00
3.832,71,1,0.9170,0.596141,0.881007,0.000001,1.2396,0.3350,0.1108,0.7397,0.3350,0.1108,0.7397,-0.102985,-0.607560,0.763192,0.194432,0.0400,,0.3484,0.0834,0.7419,0.0307,1.831056,-0.1281,-0.7510,0.3593,-2.2797,1.2168,3.0519,2.3422,-0.1407,-0.0412,-0.0644,3.4039,32.8166,28.1610,39.2680,230.18,87.00
3.862,72,1,0.9264,0.594654,0.882091,0.000001,1.2597,0.3350,0.1079,0.7379,0.3350,0.1079,0.7379,0.521094,-0.520606,0.653189,0.175428,0.0400,,0.3581,0.1477,0.6957,0.0624,1.956275,-0.1046,-0.7404,0.3511,-2.2557,0.2604,2.2847,1.0681,1.8075,0.2082,1.1662,0.5701,-33.3184,-28.9891,-39.6680,218.49,87.00
3.904,73,1,0.9093,0.594633,0.884550,0.000001,1.2453,0.3350,0.1074,0.7340,0.3350,0.1074,0.7340,0.100873,-0.609987,0.762601,0.190212,0.0400,,0.3354,0.1020,0.7647,0.0311,1.568127,-0.1421,-0.7488,0.4174,-2.2131,1.3442,3.1405,2.2797,-0.2151,-0.0423,-0.2025,4.1048,32.8726,28.9757,39.1592,230.18,87.00
3.934,74,1,0.9312,0.592117,0.883625,0.000001,1.2515,0.3350,0.1027,0.7346,0.3350,0.1027,0.7346,-0.520624,-0.523088,0.654611,0.163750,0.0400,,0.3597,0.1635,0.7031,0.0728,2.346434,-0.1227,-0.7366,0.3992,-2.2651,0.3243,2.4285,1.1120,1.3835,0.1785,0.7883,0.4025,-33.8960,-28.9017,-38.9061,223.03,87.00
3.974,75,1,0.9296,0.590262,0.882545,0.000001,1.2557,0.3350,0.0986,0.7363,0.3350,0.0986,0.7363,-0.102165,-0.608356,0.763136,0.192584,0.0400,,0.3257,0.1057,0.7673,0.0332,2.040847,-0.1528,-0.7443,0.4607,-2.2175,1.3170,3.3002,2.3651,-0.3544,-0.0603,-0.2498,4.1779,31.7831,29.2089,39.4484,230.18,87.00
4.005,76,1,0.9159,0.595155,0.882135,0.000001,1.2549,0.3350,0.1066,0.7372,0.3350,0.1066,0.7372,-0.021723,-0.613376,0.765167,0.194470,0.0400,,0.3566,0.1815,0.7104,0.0824,2.007720,-0.1321,-0.7329,0.4369,-2.2437,0.3094,2.4512,1.1053,1.4380,0.2011,0.8151,0.5968,-33.6735,-29.9879,-39.2900,221.19,87.00
4.035,77,1,0.9144,0.592909,0.880348,0.000001,1.2575,0.3350,0.1040,0.7399,0.3350,0.1040,0.7399,0.534252,-0.521100,0.645204,0.163526,0.0400,,0.3259,0.1317,0.7690,0.0411,0.928639,-0.1627,-0.7420,0.5037,-2.1986,1.3079,3.2610,2.3316,-0.3254,-0.0652,-0.2209,4.0372,31.8912,28.8997,39.3054,230.18,87.00
4.074,78,1,0.9104,0.592841,0.880986,0.000001,1.2573,0.3350,0.1034,0.7395,0.3350,0.1034,0.7395,0.102538,-0.612995,0.759882,0.190532,0.0400,,0.3541,0.2025,0.7079,0.1057,2.037137,-0.1428,-0.7292,0.4855,-2.2418,0.2990,2.4916,1.0659,1.3274,0.1953,0.7603,0.4675,-33.6980,-29.4556,-39.4389,222.07,87.00
4.116,79,1,0.8974,0.588651,0.873420,0.000001,1.2660,0.3350,0.0958,0.7504,0.3350,0.0958,0.7504,-0.533417,-0.522141,0.642341,0.173876,0.0400,,0.3185,0.1442,0.7710,0.0552,2.905884,-0.1769,-0.7387,0.5499,-2.1938,1.2872,3.3530,2.2806,-0.3831,-0.0758,-0.2529,4.1521,31.5575,29.2374,39.3379,230.18,87.00
4.153,80,1,0.9346,0.536397,0.871142,0.000001,1.3875,0.3350,0.0001,0.7556,0.3350,0.0001,0.7556,0.471620,-0.545978,0.660545,0.207755,0.0400,,0.3564,0.2155,0.6740,0.2313,2.074453,-0.1576,-0.7249,0.5287,-2.2643,0.2376,2.3854,1.0947,1.3535,0.2706,1.2463,0.2156,-34.0077,-30.6861,-39.0810,222.29,87.00
4.193,81,1,0.9393,0.508356,0.864022,0.000001,1.3484,0.3350,-0.0677,0.7668,0.3350,-0.0677,0.7668,0.107986,-0.601307,0.752439,0.246178,0.0400,,0.3404,0.1834,0.7319,0.2535,1.511997,-0.2004,-0.7347,0.6071,-2.2307,1.2619,3.1345,2.3397,-0.1994,-0.0697,-0.1289,3.7231,32.5260,28.4982,39.3126,230.18,87.00
4.222,82,1,0.9385,0.493359,0.863002,0.000001,1.3677,0.3350,-0.1069,0.7703,0.3350,-0.1069,0.7703,0.039179,-0.616739,0.751345,0.231470,0.0400,,0.3648,0.2196,0.6171,0.3620,2.046303,-0.2007,-0.7194,0.6018,-2.3527,0.1837,2.4007,1.0764,0.2017,0.3329,1.8080,0.1965,-34.4540,-29.2315,-39.5173,214.12,87.00
4.270,83,1,0.9326,0.463956,0.867027,0.000001,1.3506,0.3350,-0.1670,0.7651,0.3350,-0.1670,0.7651,0.031557,-0.621047,0.750986,0.222092,0.0400,,0.3507,0.1773,0.6932,0.3521,1.663527,-0.2562,-0.7286,0.6735,-2.3234,1.1530,3.2574,2.2872,-0.2037,-0.0724,-0.1375,3.6017,31.7323,29.0617,39.2668,230.18,87.00
4.316,84,1,0.9258,0.465906,0.865313,0.000001,1.3248,0.3350,-0.1743,0.7667,0.3350,-0.1743,0.7667,0.023276,-0.627324,0.749147,0.211427,0.0400,,0.3753,0.2146,0.5772,0.4345,2.037809,-0.2648,-0.7146,0.6713,-2.4291,0.1037,2.4938,1.0976,0.1345,0.3247,1.8522,0.2062,-34.1408,-29.6827,-38.9715,213.13,87.00
4.353,85,1,0.9242,0.441655,0.866118,0.000001,1.3898,0.3350,-0.2194,0.7658,0.3350,-0.2194,0.7658,0.027769,-0.635056,0.742900,0.209839,0.0400,,0.3586,0.1720,0.6589,0.4064,1.690615,-0.3220,-0.7241,0.7417,-2.4045,1.0500,3.3601,2.3403,-0.2040,-0.0799,-0.1384,3.3739,31.0750,29.2628,39.5022,230.18,87.00
4.396,86,1,0.9125,0.426591,0.868328,0.000001,1.4184,0.3350,-0.2445,0.7624,0.3350,-0.2445,0.7624,0.042525,-0.647430,0.729835,0.215331,0.0400,,0.3837,0.1880,0.5261,0.4953,1.947272,-0.3497,-0.7103,0.7254,-2.4780,0.0046,2.3664,1.0720,0.0873,0.5224,2.2356,0.1351,-34.0771,-31.0760,-39.5694,207.73,87.00
4.436,87,1,0.9218,0.421337,0.874084,0.000001,1.3827,0.3350,-0.2490,0.7535,0.3350,-0.2490,0.7535,0.060923,-0.640805,0.732229,0.222481,0.0400,,0.3922,0.1446,0.5944,0.4284,1.429763,-0.4461,-0.7218,0.7903,-2.4768,1.0251,3.1467,2.2815,-0.1385,-0.0758,-0.0117,2.9179,32.4492,28.7037,39.2141,230.18,87.00
4.468,88,1,0.9453,0.405446,0.870123,0.000001,1.3508,0.3350,-0.2498,0.7576,0.3350,-0.2498,0.7576,0.035447,-0.637991,0.729392,0.244333,0.0400,,0.3995,0.1573,0.5001,0.4860,1.997910,-0.4600,-0.7096,0.7821,-2.5825,0.0412,2.6570,1.1123,0.0957,0.2079,1.1685,0.1694,-33.8229,-26.0421,-38.6992,201.62,87.00
4.499,89,1,0.9294,0.407515,0.872287,0.000001,1.3591,0.3350,-0.2500,0.7553,0.3350,-0.2500,0.7553,0.038513,-0.640612,0.731790,0.229382,0.0400,,0.3531,0.1114,0.6338,0.3816,2.086917,-0.5278,-0.7203,0.8167,-2.5484,0.8411,3.8028,2.3714,-0.4078,-0.1265,-0.2350,3.4593,29.1038,30.4860,40.0180,230.18,87.00
4.529,90,1,0.9448,0.395923,0.869207,0.000001,1.3097,0.3350,-0.2500,0.7593,0.3350,-0.2500,0.7593,0.022773,-0.633648,0.734416,0.242085,0.0400,,0.3789,0.0441,0.4350,0.4400,1.675563,-0.6889,-0.7017,0.8372,-2.5532,-0.2559,1.9244,1.0436,-0.0499,2.5838,3.9939,-0.2766,-33.9928,-35.0329,-40.5095,218.74,87.00
4.572,91,1,0.9543,0.386778,0.871299,0.000001,1.2847,0.3350,-0.2500,0.7570,0.3350,-0.2500,0.7570,0.008886,-0.634828,0.732068,0.246963,0.0400,,0.4055,-0.0386,0.4369,0.3900,0.984652,-0.9641,-0.7423,0.8687,-2.6417,0.4459,2.5342,2.2449,-1.1057,0.0457,0.1284,0.1829,28.6833,28.4570,39.1588,225.14,87.00
4.614,92,1,0.9444,0.388539,0.874785,0.000001,1.2970,0.3350,-0.2500,0.7515,0.3350,-0.2500,0.7515,0.027550,-0.637257,0.731187,0.241889,0.0400,,0.3958,-0.0472,0.4255,0.3887,2.037459,-0.9689,-0.7430,0.8825,-2.6546,-0.7736,2.3477,1.0820,0.1154,0.1462,2.1243,-0.6244,-35.1767,-19.6301,-38.7939,166.60,87.00
4.646,93,1,0.9534,0.382907,0.869951,0.000001,1.2591,0.3350,-0.2500,0.7575,0.3350,-0.2500,0.7575,0.005896,-0.636953,0.728972,0.250711,0.0400,,0.3623,-0.1163,0.4298,0.3550,1.078986,-1.1779,-0.8417,0.8810,-2.6653,0.1241,2.3009,2.3342,-1.5934,-0.6374,-0.0405,0.1276,33.7609,7.1494,39.4762,215.50,87.00
4.686,94,1,0.9575,0.381235,0.868990,0.000001,1.2564,0.3350,-0.2500,0.7600,0.3350,-0.2500,0.7600,0.007122,-0.635536,0.729191,0.253621,0.0400,,0.4098,-0.0842,0.4861,0.3288,2.132148,-1.1870,-0.8607,0.8620,-2.6116,-0.7783,2.7257,1.0567,0.0391,-0.1780,-0.0063,1.3789,-33.7731,1.3840,-39.3639,170.25,87.00
4.716,95,1,0.9515,0.381110,0.870055,0.000001,1.2651,0.3350,-0.2500,0.7589,0.3350,-0.2500,0.7589,0.013026,-0.636753,0.728243,0.253059,0.0400,,0.3104,-0.1151,0.4533,0.3350,0.905094,-1.2356,-0.8722,0.8320,-2.5228,0.0759,1.5802,2.2458,-2.1854,-0.1555,-1.5066,1.1471,31.2346,-19.0596,40.0700,202.34,87.00
4.758,96,1,0.9556,0.382063,0.870714,0.000001,1.2559,0.3350,-0.2500,0.7577,0.3350,-0.2500,0.7577,0.013984,-0.633634,0.729702,0.256607,0.0400,,0.3962,-0.1166,0.6000,0.2154,2.360117,-1.2798,-0.8844,0.6576,-2.4932,-0.9041,3.0861,1.0133,-0.9178,-0.0914,-4.6494,2.7253,-33.5340,33.0711,-39.0789,209.04,87.00
4.788,97,1,0.9492,0.381387,0.870167,0.000001,1.2578,0.3350,-0.2500,0.7583,0.3350,-0.2500,0.7583,0.016548,-0.635641,0.730545,0.248978,0.0400,,0.3182,-0.2133,0.5763,0.1864,1.474856,-1.2934,-0.8759,0.5801,-2.5991,0.0427,2.6322,2.1524,-0.8900,0.0219,-0.8649,0.1055,32.5875,-28.1562,38.0465,230.18,87.00
4.828,98,1,0.9529,0.381729,0.870885,0.000001,1.2449,0.3350,-0.2500,0.7574,0.3350,-0.2500,0.7574,0.012761,-0.634401,0.730428,0.252679,0.0400,,0.3714,-0.1157,0.6056,0.2059,2.599030,-1.3036,-0.8825,0.5920,-2.5705,-0.8502,3.4685,0.8594,0.0905,-0.1108,0.2614,2.8730,-30.8192,28.5956,-39.6635,230.18,87.00
4.860,99,1,0.9545,0.384635,0.869912,0.000001,1.2665,0.3350,-0.2500,0.7586,0.3350,-0.2500,0.7586,0.019467,-0.635651,0.728693,0.254118,0.0400,,0.2901,-0.2234,0.5226,0.2417,1.148565,-1.3073,-0.8765,0.5856,-2.6173,0.0073,2.2596,1.9749,-1.7024,0.0413,-1.5935,0.0545,31.7885,-31.3638,38.5773,224.55,87.00
4.889,100,1,0.9533,0.383977,0.870078,0.000001,1.2690,0.3350,-0.2500,0.7586,0.3350,-0.2500,0.7586,0.020303,-0.640062,0.729418,0.240537,0.0400,,0.3418,-0.1891,0.5440,0.2232,2.271273,-1.3236,-0.8866,0.6243,-2.6006,-1.0919,2.8287,0.7262,-0.0041,-0.1346,0.0813,2.4377,-34.6763,27.3785,-38.5304,230.18,87.00
4.932,101,1,0.9619,0.383401,0.866087,0.000001,1.2358,0.3350,-0.2500,0.7644,0.3350,-0.2500,0.7644,-0.538267,-0.533315,0.614614,0.219301,0.0400,,0.3041,-0.2114,0.5831,0.1879,1.027437,-1.3400,-0.8920,0.6180,-2.4585,-0.2835,2.1167,1.9225,-1.5716,-0.0740,-0.9804,2.9234,31.6945,-29.1793,39.1758,201.50,87.00
4.962,102,1,0.9392,0.386778,0.869210,0.000001,1.2907,0.3350,-0.2500,0.7609,0.3350,-0.2500,0.7609,0.457354,-0.571436,0.649669,0.205472,0.0400,,0.3856,-0.1368,0.6253,0.1837,2.959439,-1.3429,-0.9057,0.6438,-2.3937,-1.3489,2.9494,0.7158,0.0842,-0.0958,0.2575,3.5079,-34.0029,28.8789,-38.3927,230.18,87.00
5.001,103,1,0.9450,0.396736,0.872858,0.000001,1.3102,0.3350,-0.2500,0.7550,0.3350,-0.2500,0.7550,0.113021,-0.634610,0.728078,0.233237,0.0400,,0.3640,-0.1665,0.6673,0.1246,1.792640,-1.3494,-0.8957,0.6525,-2.3253,-0.4673,2.4263,1.9080,-0.4284,0.0473,-0.4996,1.3156,32.7925,-27.0552,38.7063,213.16,87.00
5.033,104,1,0.9422,0.395440,0.870347,0.000001,1.3019,0.3350,-0.2500,0.7576,0.3350,-0.2500,0.7576,0.034733,-0.638331,0.731459,0.237265,0.0400,,0.4157,-0.0535,0.6649,0.2318,3.094160,-1.3444,-0.9060,0.6557,-2.2535,-1.4250,3.3265,0.6856,0.1395,-0.0897,0.8711,4.1736,-32.0276,29.2501,-38.8174,230.18,87.00
5.063,105,1,0.9465,0.405454,0.877920,0.000001,1.3259,0.3350,-0.2500,0.7471,0.3350,-0.2500,0.7471,0.046321,-0.640270,0.731553,0.229650,0.0400,,0.3947,-0.1188,0.7160,0.1474,1.916409,-1.3500,-0.8995,0.6861,-2.2065,-0.5672,2.4858,1.8383,-0.3025,0.0441,-0.3883,1.1949,32.3983,-29.2895,38.4468,213.92,87.00
5.106,106,1,0.9388,0.419611,0.880150,0.000001,1.3283,0.3350,-0.2500,0.7420,0.3350,-0.2500,0.7420,0.034456,-0.640553,0.732175,0.228964,0.0400,,0.4258,-0.0501,0.7064,0.2225,3.069039,-1.3430,-0.9101,0.6870,-2.1383,-1.5756,3.0312,0.6038,0.1387,-0.0977,0.6392,3.7425,-33.4491,26.0014,-38.5503,227.43,87.00
5.148,107,1,0.9284,0.458542,0.886487,0.000001,1.3281,0.3350,-0.2026,0.7319,0.3350,-0.2026,0.7319,0.009535,-0.631287,0.739283,0.234194,0.0400,,0.3904,-0.1010,0.7490,0.1169,1.883785,-1.3521,-0.9018,0.7044,-2.0933,-0.6471,2.2642,1.7890,-0.3406,0.0382,-0.5406,1.3883,33.1067,-28.0478,39.0242,213.62,87.00
5.190,108,1,0.9562,0.480788,0.886548,0.000001,1.2991,0.3350,-0.1539,0.7300,0.3350,-0.1539,0.7300,-0.534594,-0.519548,0.635387,0.201400,0.0400,,0.4339,-0.0178,0.7490,0.1693,2.160186,-1.3435,-0.9130,0.7092,-2.0245,-1.6289,2.9425,0.5922,0.1255,-0.0853,0.6035,3.9027,-33.5840,27.2736,-38.2889,228.67,87.00
5.222,109,1,0.9302,0.498943,0.885002,0.000001,1.3043,0.3350,-0.1124,0.7319,0.3350,-0.1124,0.7319,-0.111679,-0.614591,0.746272,0.229964,0.0400,,0.4031,-0.0686,0.7722,0.0905,1.801897,-1.3524,-0.9068,0.7280,-2.0232,-0.6310,2.2692,1.8006,-0.2038,0.0065,-0.5860,0.9040,33.5854,-27.2486,39.1547,216.09,87.00
5.281,110,1,0.9412,0.506022,0.876836,0.000001,1.3317,0.3350,-0.0921,0.7441,0.3350,-0.0921,0.7441,-0.028124,-0.625124,0.743557,0.235693,0.0400,,0.4441,0.0177,0.7653,0.1563,3.050719,-1.3435,-0.9168,0.7362,-1.9628,-1.5767,2.9577,0.6135,0.1144,-0.0882,0.5486,3.8234,-33.3615,27.2206,-38.2715,228.87,87.00
5.323,111,1,0.9170,0.520246,0.886009,0.000001,1.3130,0.3350,-0.0628,0.7330,0.3350,-0.0628,0.7330,-0.007059,-0.620581,0.748783,0.232710,0.0400,,0.4166,-0.0256,0.7987,0.1112,2.003057,-1.3527,-0.9127,0.7544,-1.9381,-0.5862,2.2917,1.8215,-0.1998,0.0025,-0.6120,1.0363,33.5490,-27.2643,39.0912,215.16,87.00
5.354,112,1,0.9320,0.541247,0.886696,0.000001,1.3102,0.3350,-0.0197,0.7300,0.3350,-0.0197,0.7300,0.540104,-0.519026,0.636792,0.182747,0.0400,,0.4531,0.0778,0.7808,0.1614,2.100765,-1.3439,-0.9210,0.7622,-1.8714,-1.5320,3.0920,0.6302,0.1125,-0.0854,0.6667,4.1153,-32.9267,28.4462,-38.3765,229.50,87.00
5.396,113,1,0.9290,0.545419,0.880090,0.000001,1.2999,0.3350,-0.0044,0.7390,0.3350,-0.0044,0.7390,0.106200,-0.615354,0.746955,0.228295,0.0400,,0.4387,0.0494,0.8291,0.1475,2.363238,-1.3525,-0.9224,0.7870,-1.8516,-0.5617,2.5148,1.8198,-0.1534,-0.0214,-0.3232,0.8675,33.4728,-26.9082,38.6361,216.27,87.00
5.434,114,1,0.9182,0.572672,0.888322,0.000001,1.2937,0.3350,0.0475,0.7288,0.3350,0.0475,0.7288,0.023624,-0.623080,0.752458,0.212178,0.0400,,0.4565,0.1361,0.7971,0.1652,2.889739,-1.3428,-0.9305,0.7959,-1.7825,-1.4788,3.1301,0.6046,0.1264,-0.1153,0.6612,3.7679,-32.6587,25.3431,-38.5757,226.90,87.00
5.479,115,1,0.9085,0.593550,0.891601,0.000001,1.2893,0.3350,0.0945,0.7222,0.3350,0.0945,0.7222,-0.538478,-0.524816,0.637490,0.167977,0.0400,,0.4332,0.0808,0.8458,0.1586,1.733423,-1.3530,-0.9361,0.8125,-1.7590,-0.5127,2.3435,1.7837,-0.1673,-0.0276,-0.6736,0.9635,33.4546,-27.8268,38.8781,216.05,87.00
5.509,116,1,0.9076,0.598263,0.884000,0.000001,1.2734,0.3350,0.1115,0.7320,0.3350,0.1115,0.7320,-0.112770,-0.623579,0.748520,0.195321,0.0400,,0.4548,0.1860,0.8130,0.1627,3.065225,-1.3439,-0.9420,0.8254,-1.6930,-1.4698,3.1238,0.5832,0.1017,-0.0964,0.6447,4.1251,-32.8861,28.4818,-38.4147,229.61,87.00
5.548,117,1,0.9223,0.601395,0.891425,0.000001,1.3103,0.3350,0.1202,0.7230,0.3350,0.1202,0.7230,-0.025533,-0.624267,0.757310,0.190052,0.0400,,0.4411,0.1611,0.8612,0.1790,2.372410,-1.3534,-0.9597,0.8436,-1.6917,-0.4966,2.5691,1.7699,-0.0911,-0.0766,-0.3856,0.6244,33.5348,-26.5787,38.5800,219.24,87.00
5.579,118,1,0.9319,0.613834,0.900631,0.000001,1.2456,0.3350,0.1442,0.7081,0.3350,0.1442,0.7081,0.535738,-0.513954,0.652466,0.152065,0.0400,,0.4449,0.2592,0.8058,0.1867,1.740626,-1.3433,-0.9651,0.8555,-1.6217,-1.3843,3.3003,0.5551,0.1219,-0.1214,0.8349,3.9845,-31.8471,26.7048,-38.6906,227.83,87.00
5.609,119,1,0.9233,0.614564,0.893359,0.000001,1.2492,0.3350,0.1499,0.7159,0.3350,0.1499,0.7159,-0.460171,-0.544773,0.682496,0.160198,0.0400,,0.4521,0.1491,0.8248,0.1599,1.971647,-1.3520,-1.0040,0.8683,-1.7865,-0.3158,2.5500,1.7182,-0.1386,-0.0459,-0.7198,0.1670,34.0489,-28.0389,38.5917,230.18,87.00
5.651,120,1,0.9229,0.613746,0.899192,0.000001,1.2242,0.3350,0.1494,0.7089,0.3350,0.1494,0.7089,-0.099563,-0.607530,0.767292,0.179604,0.0400,,0.4535,0.2571,0.7778,0.1743,2.829111,-1.3464,-1.0064,0.8779,-1.7372,-1.1343,3.3694,0.5071,0.0841,-0.1209,0.4740,3.6683,-30.9416,29.0763,-38.6849,230.18,87.00
5.682,121,1,0.9387,0.616740,0.896600,0.000001,1.2556,0.3350,0.1547,0.7114,0.3350,0.1547,0.7114,-0.033456,-0.609468,0.769857,0.186413,0.0400,,0.4541,0.1493,0.8027,0.1502,2.112561,-1.3511,-1.0473,0.8873,-1.8192,-0.1247,2.4548,1.6770,-0.1513,-0.0610,-1.2926,0.1302,33.4771,-29.0660,38.7384,230.18,87.00
5.722,122,1,0.9239,0.617590,0.897944,0.000001,1.2411,0.3350,0.1572,0.7099,0.3350,0.1572,0.7099,-0.017684,-0.608908,0.771489,0.183639,0.0400,,0.4657,0.2526,0.7635,0.1705,2.818260,-1.3463,-1.0488,0.9065,-1.7792,-1.0856,3.2228,0.4812,0.0454,-0.1069,0.2638,3.4715,-32.4225,28.9893,-38.4183,230.18,87.00
5.753,123,1,0.9445,0.613703,0.895741,0.000001,1.2409,0.3350,0.1506,0.7128,0.3350,0.1506,0.7128,-0.019209,-0.609058,0.770697,0.186292,0.0400,,0.4650,0.1700,0.7818,0.1485,2.273672,-1.3505,-1.0768,0.9184,-1.8687,-0.1870,2.6109,1.6704,-0.1116,-0.0565,-0.7689,0.1619,32.5947,-27.5085,38.6205,230.18,87.00
5.783,124,1,0.9258,0.610880,0.892501,0.000001,1.2427,0.3350,0.1444,0.7180,0.3350,0.1444,0.7180,-0.023914,-0.612345,0.769088,0.181562,0.0400,,0.4636,0.2781,0.7210,0.1856,2.605832,-1.3458,-1.0808,0.9304,-1.8159,-1.1278,3.4331,0.4638,0.0814,-0.1289,0.6130,3.8500,-31.4358,28.6336,-38.7182,229.57,87.00
5.810,125,1,0.9205,0.610259,0.893774,0.000001,1.2402,0.3350,0.1421,0.7171,0.3350,0.1421,0.7171,-0.022526,-0.610462,0.770912,0.180343,0.0400,,0.4685,0.1510,0.7429,0.1362,2.078001,-1.3432,-1.1118,0.9505,-1.9078,-0.1857,2.3751,1.6330,-0.1686,-0.0372,-1.3454,0.1238,33.0547,-29.7304,38.8871,230.18,87.00
5.857,126,1,0.9273,0.609886,0.886527,0.000001,1.2460,0.3350,0.1410,0.7274,0.3350,0.1410,0.7274,-0.029780,-0.610471,0.769201,0.186462,0.0400,,0.4866,0.2409,0.7051,0.1829,2.884520,-1.3389,-1.1177,0.9727,-1.8674,-1.2107,3.0620,0.4486,0.0255,-0.1135,0.2478,3.5498,-33.4698,28.6219,-38.1846,230.18,87.00
5.887,127,1,0.9243,0.604308,0.887307,0.000001,1.2513,0.3350,0.1308,0.7281,0.3350,0.1308,0.7281,-0.017642,-0.612464,0.767628,0.187945,0.0400,,0.4825,0.1483,0.7089,0.1498,2.172557,-1.3413,-1.1250,0.9888,-1.9929,-0.2136,2.5293,1.6553,-0.1419,-0.0253,-0.8318,0.1389,33.5758,-26.8190,38.8491,230.18,87.00
5.926,128,1,0.9192,0.602999,0.889198,0.000001,1.2491,0.3350,0.1266,0.7255,0.3350,0.1266,0.7255,-0.009560,-0.610036,0.771542,0.180243,0.0400,,0.4816,0.2676,0.6529,0.2160,2.589427,-1.3383,-1.1320,1.0035,-1.9419,-1.1030,3.4307,0.4693,0.0579,-0.1355,0.5732,3.8468,-31.1882,29.4573,-38.5992,230.18,87.00
5.956,129,1,0.9304,0.599394,0.883327,0.000001,1.2472,0.3350,0.1193,0.7335,0.3350,0.1193,0.7335,-0.022463,-0.608884,0.768360,0.195904,0.0400,,0.4861,0.1451,0.6730,0.1648,2.022053,-1.3253,-1.1374,1.0356,-2.0155,-0.1159,2.3736,1.6455,-0.1847,-0.0258,-1.4649,0.1012,33.4118,-29.8156,38.9110,230.18,87.00
5.993,130,1,0.9310,0.593787,0.884769,0.000001,1.2458,0.3350,0.1079,0.7329,0.3350,0.1079,0.7329,-0.010188,-0.610168,0.770612,0.183706,0.0400,,0.4883,0.2135,0.6744,0.1952,2.944474,-1.3220,-1.1456,0.9861,-1.9829,-1.1029,3.0452,0.4611,0.0012,-0.0921,0.0125,3.1402,-33.0632,28.3050,-38.1732,216.93,87.00
6.020,131,1,0.9207,0.592936,0.883030,0.000001,1.2459,0.3350,0.1043,0.7353,0.3350,0.1043,0.7353,-0.011125,-0.608849,0.772034,0.182053,0.0400,,0.4774,0.1187,0.6758,0.1550,2.061638,-1.3237,-1.1468,0.9961,-2.0999,-0.1228,2.5322,1.6709,-0.1594,-0.0210,-0.9606,0.1178,33.2353,-26.5715,38.8442,230.18,87.00
6.060,132,1,0.9213,0.593602,0.881306,0.000001,1.2485,0.3350,0.1049,0.7382,0.3350,0.1049,0.7382,-0.010568,-0.605856,0.772082,0.191615,0.0400,,0.4769,0.2390,0.6346,0.2211,2.655855,-1.3212,-1.1549,0.9939,-2.0532,-1.0275,3.4541,0.4819,0.0536,-0.1495,0.4084,3.6877,-31.0588,29.5159,-38.6656,225.44,87.00
6.090,133,1,0.9182,0.590378,0.879264,0.000001,1.2557,0.3350,0.0991,0.7417,0.3350,0.0991,0.7417,-0.004588,-0.608535,0.770229,0.190817,0.0400,,0.4744,0.1122,0.6510,0.1668,1.940876,-1.3070,-1.1575,1.0199,-2.1171,-0.0570,2.3804,1.6535,-0.2156,-0.0171,-1.5870,0.0759,33.2032,-29.9578,38.8597,230.18,87.00
6.133,134,1,0.9168,0.587090,0.880234,0.000001,1.2464,0.3350,0.0922,0.7409,0.3350,0.0922,0.7409,-0.008411,-0.607548,0.771783,0.187527,0.0400,,0.4776,0.1760,0.6622,0.1832,3.022496,-1.3037,-1.1667,0.9562,-2.0873,-1.0600,3.0440,0.4650,-0.0086,-0.0577,-0.0766,3.0423,-33.1124,28.2532,-38.1915,215.10,87.00
6.175,135,1,0.9290,0.582457,0.879924,0.000001,1.2745,0.3350,0.0826,0.7412,0.3350,0.0826,0.7412,-0.017504,-0.608461,0.769341,0.193862,0.0400,,0.4577,0.0757,0.6588,0.1480,1.953327,-1.3071,-1.1660,0.9623,-2.1989,-0.0947,2.4869,1.6744,-0.1955,-0.0125,-1.0908,0.0957,33.1329,-27.0203,38.8922,230.18,87.00
6.217,136,1,0.9315,0.578553,0.883574,0.000001,1.2693,0.3350,0.0738,0.7360,0.3350,0.0738,0.7360,-0.011256,-0.608718,0.768977,0.194963,0.0400,,0.4713,0.1836,0.6308,0.2043,2.850874,-1.3036,-1.1755,0.9554,-2.1584,-1.0307,3.3251,0.4901,0.0373,-0.1430,0.2570,3.4312,-31.6491,28.9906,-38.4920,224.25,87.00
6.260,137,1,0.9280,0.570279,0.881760,0.000001,1.2972,0.3350,0.0573,0.7377,0.3350,0.0573,0.7377,-0.016208,-0.612976,0.766055,0.192761,0.0400,,0.4540,0.0602,0.6354,0.1570,1.906797,-1.3005,-1.1751,0.9758,-2.2514,-0.1129,2.4581,1.6746,-0.2157,-0.0110,-1.2508,0.1097,32.6470,-29.2333,38.7941,230.18,87.00
6.303,138,1,0.9331,0.555483,0.879762,0.000001,1.3094,0.3350,0.0276,0.7409,0.3350,0.0276,0.7409,-0.008526,-0.611035,0.765200,0.202568,0.0400,,0.4683,0.1416,0.6214,0.2122,2.970249,-1.2972,-1.1857,0.9427,-2.2136,-1.1151,3.1776,0.4814,0.0299,-0.1370,0.1706,3.3815,-32.5904,28.6275,-38.3466,219.46,87.00
6.344,139,1,0.9442,0.541686,0.876805,0.000001,1.3276,0.3350,-0.0026,0.7457,0.3350,-0.0026,0.7457,-0.003494,-0.611702,0.763966,0.205339,0.0400,,0.4446,0.0354,0.6211,0.1703,2.003620,-1.2991,-1.1826,0.9577,-2.3520,-0.1493,2.6201,1.6730,-0.1965,-0.0017,-0.7905,0.1433,33.0029,-27.4526,38.6364,230.18,87.00
6.382,140,1,0.9345,0.543378,0.879136,0.000001,1.3079,0.3350,-0.0050,0.7432,0.3350,-0.0050,0.7432,0.544967,-0.519254,0.639752,0.155253,0.0400,,0.4568,0.1506,0.5842,0.2536,2.046773,-1.2965,-1.1939,0.9532,-2.3052,-1.0352,3.4857,0.4683,0.0684,-0.1525,0.4604,3.6651,-30.8341,29.3035,-38.7673,226.12,87.00
6.424,141,1,0.9367,0.520518,0.874799,0.000001,1.3212,0.3350,-0.0467,0.7490,0.3350,-0.0467,0.7490,0.104283,-0.603222,0.761688,0.212319,0.0400,,0.4238,0.0044,0.5856,0.1929,1.857560,-1.2834,-1.1909,0.9715,-2.3850,-0.0491,2.3152,1.6336,-0.4631,-0.0218,-1.8054,0.0714,33.2061,-30.5573,38.9509,230.18,87.00
6.463,142,1,0.9446,0.508737,0.872669,0.000001,1.3468,0.3350,-0.0754,0.7532,0.3350,-0.0754,0.7532,-0.524060,-0.514195,0.650366,0.194907,0.0400,,0.4341,0.0479,0.6216,0.2058,2.162940,-1.2809,-1.2040,0.8716,-2.3612,-1.0709,2.9338,0.4495,-0.0009,-0.1223,-0.8085,2.7202,-33.8064,28.3242,-38.1063,213.11,87.00
6.503,143,1,0.9392,0.508255,0.874950,0.000001,1.3099,0.3350,-0.0815,0.7506,0.3350,-0.0815,0.7506,0.450969,-0.553019,0.674777,0.188342,0.0400,,0.3798,-0.0550,0.5912,0.1677,2.273051,-1.2908,-1.1970,0.8647,-2.4870,-0.0910,2.3399,1.6748,-0.6277,-0.0105,-1.3819,0.0685,33.2456,-27.2952,39.1824,230.18,87.00
6.543,144,1,0.9529,0.491953,0.868148,0.000001,1.3277,0.3350,-0.1120,0.7600,0.3350,-0.1120,0.7600,-0.467321,-0.538566,0.669770,0.207280,0.0400,,0.4190,0.0297,0.6013,0.2287,2.344795,-1.2885,-1.2099,0.8281,-2.4545,-1.0575,3.1585,0.5076,0.0357,-0.1379,0.0961,3.1551,-32.4233,28.9298,-38.2284,216.65,87.00
6.581,145,1,0.9534,0.473229,0.871765,0.000001,1.3348,0.3350,-0.1512,0.7564,0.3350,-0.1512,0.7564,0.463015,-0.547413,0.667142,0.202182,0.0400,,0.3702,-0.0722,0.5865,0.1907,2.386019,-1.2946,-1.2031,0.8323,-2.5941,-0.1086,2.6261,1.7080,-0.4461,-0.0014,-0.8109,0.1457,32.7969,-27.5231,38.6411,230.18,87.00
6.626,146,1,0.9458,0.475984,0.873146,0.000001,1.2985,0.3350,-0.1533,0.7538,0.3350,-0.1533,0.7538,0.086987,-0.618801,0.750419,0.215384,0.0400,,0.4104,0.0408,0.5617,0.2833,2.969469,-1.2932,-1.2161,0.8436,-2.5526,-0.9962,3.4681,0.5005,0.0800,-0.1495,0.4529,3.4700,-30.8808,29.1076,-38.8031,229.43,87.00
6.668,147,1,0.9556,0.453167,0.875110,0.000001,1.3408,0.3350,-0.1949,0.7505,0.3350,-0.1949,0.7505,0.031522,-0.618347,0.753857,0.219893,0.0400,,0.3349,-0.1070,0.5338,0.2338,1.490069,-1.2917,-1.2092,0.8482,-2.6519,-0.0242,2.2962,1.6615,-0.9785,-0.0201,-1.9347,0.0579,32.9479,-30.8004,38.9360,230.18,87.00
6.711,148,1,0.9477,0.439365,0.872926,0.000001,1.3834,0.3350,-0.2272,0.7530,0.3350,-0.2272,0.7530,0.008391,-0.630904,0.745283,0.215507,0.0400,,0.3638,-0.0704,0.5622,0.2487,2.658293,-1.2892,-1.2256,0.7843,-2.6338,-1.0498,2.8706,0.4732,0.0155,-0.2236,-0.0865,2.4428,-33.9026,27.6318,-38.1100,214.05,87.00
6.754,149,1,0.9265,0.421350,0.870708,0.000001,1.3605,0.3350,-0.2459,0.7567,0.3350,-0.2459,0.7567,0.007583,-0.631717,0.737740,0.237941,0.0400,,0.2831,-0.1483,0.5112,0.2692,1.378627,-1.3019,-1.2139,0.7734,-2.7525,-0.1322,2.2431,1.7031,-0.9526,-0.0044,-1.4940,0.0577,32.6387,-27.6698,39.3227,229.30,87.00
6.794,150,1,0.9416,0.405977,0.872592,0.000001,1.2981,0.3350,-0.2493,0.7546,0.3350,-0.2493,0.7546,0.014200,-0.631052,0.736341,0.243669,0.0400,,0.3462,-0.0857,0.5296,0.2784,2.712152,-1.2979,-1.2335,0.7549,-2.7229,-1.1385,3.0175,0.5365,0.0619,-0.3032,0.1224,3.0514,-33.2523,28.6130,-38.1230,219.04,87.00
6.823,151,1,0.9369,0.393953,0.869801,0.000001,1.2935,0.3350,-0.2499,0.7583,0.3350,-0.2499,0.7583,0.009392,-0.628744,0.735742,0.251549,0.0400,,0.3162,-0.1221,0.5674,0.2304,1.688433,-1.3061,-1.2288,0.7503,-2.6753,-0.2720,2.4565,1.7516,-0.4591,-0.0531,-0.7942,0.7728,32.7257,-27.0579,38.8409,204.87,87.00
6.896,152,1,0.9295,0.393806,0.870705,0.000001,1.3142,0.3350,-0.2500,0.7577,0.3350,-0.2500,0.7577,0.023875,-0.634309,0.733775,0.242191,0.0400,,0.3795,-0.0139,0.5485,0.3185,3.079648,-1.3001,-1.2421,0.7677,-2.6224,-1.2117,3.3461,0.5551,0.1048,-0.1199,0.6307,3.8755,-31.7186,29.3656,-38.6064,226.38,87.00
6.937,153,1,0.9623,0.381404,0.877040,0.000001,1.2543,0.3350,-0.2500,0.7484,0.3350,-0.2500,0.7484,0.014819,-0.626247,0.733800,0.262932,0.0400,,0.3352,-0.1001,0.5854,0.2215,1.769973,-1.3071,-1.2325,0.7789,-2.6034,-0.3039,2.4057,1.7267,-0.4872,-0.0008,-1.0084,0.7275,32.8429,-29.6036,38.7297,217.62,87.00
6.980,154,1,0.9536,0.383806,0.875221,0.000001,1.2587,0.3350,-0.2500,0.7494,0.3350,-0.2500,0.7494,0.011983,-0.629784,0.731884,0.259952,0.0400,,0.3896,-0.0220,0.5653,0.2981,2.981869,-1.3016,-1.2432,0.7993,-2.5589,-1.2746,3.0965,0.5240,0.0795,-0.1044,0.3856,3.5654,-32.9246,28.4596,-38.3496,223.41,87.00
7.020,155,1,0.9630,0.377939,0.879763,0.000001,1.2578,0.3350,-0.2500,0.7430,0.3350,-0.2500,0.7430,0.011710,-0.627827,0.731787,0.264923,0.0400,,0.3229,-0.1221,0.5378,0.2421,1.741905,-1.3099,-1.2325,0.8044,-2.7347,-0.2541,2.5475,1.7145,-0.5803,0.0083,-0.6674,0.1621,33.5798,-27.4985,38.7254,229.15,87.00
7.060,156,1,0.9642,0.372644,0.881883,0.000001,1.2432,0.3350,-0.2500,0.7388,0.3350,-0.2500,0.7388,0.009988,-0.628617,0.729465,0.269484,0.0400,,0.3782,-0.0231,0.5151,0.3215,3.045485,-1.3086,-1.2502,0.8210,-2.6892,-1.1368,3.3565,0.5167,0.0983,-0.1620,0.5564,3.6542,-31.4057,28.9605,-38.5952,230.18,87.00
7.101,157,1,0.9647,0.367091,0.878985,0.000001,1.2481,0.3350,-0.2500,0.7422,0.3350,-0.2500,0.7422,0.004496,-0.632985,0.724680,0.272302,0.0400,,0.3312,-0.1104,0.5508,0.2369,1.697470,-1.3155,-1.2395,0.8267,-2.6604,-0.2423,2.3918,1.6926,-0.5541,-0.0071,-1.1236,0.6890,32.7541,-29.6773,38.7874,217.21,87.00
7.145,158,1,0.9559,0.368638,0.878879,0.000001,1.2365,0.3350,-0.2500,0.7430,0.3350,-0.2500,0.7430,0.009230,-0.636228,0.723162,0.268637,0.0400,,0.3811,-0.0412,0.5427,0.2930,2.898924,-1.3109,-1.2537,0.8199,-2.6211,-1.2194,3.0697,0.4959,0.0726,-0.1420,0.2395,3.3467,-32.9661,28.3379,-38.2818,220.91,87.00
7.187,159,1,0.9512,0.367305,0.873884,0.000001,1.2527,0.3350,-0.2500,0.7503,0.3350,-0.2500,0.7503,0.009747,-0.639174,0.723097,0.261711,0.0400,,0.3264,-0.1181,0.5414,0.2472,1.729810,-1.3179,-1.2421,0.8186,-2.7116,-0.2669,2.5028,1.6966,-0.3185,-0.0068,-0.7949,0.2246,33.0765,-27.1435,38.8053,223.93,87.00
7.230,160,1,0.9428,0.371279,0.869292,0.000001,1.2542,0.3350,-0.2500,0.7583,0.3350,-0.2500,0.7583,0.012221,-0.644678,0.720708,0.254598,0.0400,,0.3824,-0.0169,0.5201,0.3366,3.057253,-1.3126,-1.2584,0.8242,-2.6632,-1.1757,3.3485,0.5039,0.1005,-0.1510,0.5336,3.7634,-31.4972,29.1992,-38.5439,226.53,87.00
7.290,161,1,0.9502,0.368195,0.869649,0.000001,1.2437,0.3350,-0.2500,0.7592,0.3350,-0.2500,0.7592,0.010804,-0.640302,0.723474,0.257842,0.0400,,0.3406,-0.0987,0.5646,0.2465,1.739412,-1.3193,-1.2479,0.8312,-2.6251,-0.2745,2.3984,1.6837,-0.4950,-0.0023,-1.0644,0.8038,32.8509,-29.6261,38.8012,216.52,87.00
7.322,162,1,0.9493,0.372148,0.870330,0.000001,1.2717,0.3350,-0.2500,0.7584,0.3350,-0.2500,0.7584,0.025636,-0.638290,0.727465,0.250445,0.0400,,0.3888,-0.0268,0.5546,0.3070,2.980890,-1.3139,-1.2600,0.8193,-2.5821,-1.2442,3.0913,0.4892,0.0766,-0.1202,0.2531,3.4738,-32.8563,28.4632,-38.2811,217.44,87.00
7.353,163,1,0.9556,0.371887,0.871510,0.000001,1.2617,0.3350,-0.2500,0.7565,0.3350,-0.2500,0.7565,0.016274,-0.632070,0.727124,0.267421,0.0400,,0.3194,-0.1248,0.5312,0.2582,1.736844,-1.3221,-1.2489,0.8202,-2.7490,-0.2316,2.5394,1.6870,-0.5333,0.0007,-0.7690,0.1772,33.4389,-27.4347,38.7809,227.86,87.00
7.394,164,1,0.9326,0.376796,0.872740,0.000001,1.3030,0.3350,-0.2500,0.7544,0.3350,-0.2500,0.7544,0.037548,-0.635707,0.731492,0.243694,0.0400,,0.3775,-0.0264,0.5137,0.3312,3.038657,-1.3201,-1.2670,0.8353,-2.7084,-1.0556,3.3583,0.4928,0.0876,-0.1734,0.4139,3.4037,-30.8023,29.0117,-38.5793,229.54,87.00
7.423,165,1,0.9334,0.386409,0.869185,0.000001,1.3277,0.3350,-0.2500,0.7591,0.3350,-0.2500,0.7591,0.038588,-0.637108,0.735274,0.227983,0.0400,,0.3199,-0.1209,0.5361,0.2582,1.607152,-1.3271,-1.2567,0.8343,-2.7043,-0.1305,2.3954,1.6729,-0.5780,-0.0231,-1.3804,0.2876,32.8423,-29.4643,38.8188,219.84,87.00
7.460,166,1,0.9257,0.398947,0.866802,0.000001,1.3286,0.3350,-0.2500,0.7634,0.3350,-0.2500,0.7634,0.032214,-0.635720,0.735242,0.232898,0.0400,,0.3674,-0.0578,0.5391,0.2972,2.844007,-1.3229,-1.2758,0.8075,-2.6739,-1.1085,3.0678,0.4810,0.0595,-0.2731,0.1315,3.0238,-32.8673,28.2406,-38.2507,219.08,87.00
7.500,167,1,0.9309,0.401669,0.866514,0.000001,1.3291,0.3350,-0.2500,0.7646,0.3350,-0.2500,0.7646,0.026213,-0.635805,0.733677,0.238291,0.0400,,0.3101,-0.1297,0.5365,0.2591,1.679327,-1.3303,-1.2639,0.8034,-2.7462,-0.2289,2.4934,1.6876,-0.3747,-0.0053,-0.8359,0.2031,32.4710,-27.2142,38.8365,224.27,87.00
7.530,168,1,0.9390,0.404021,0.876810,0.000001,1.3262,0.3350,-0.2500,0.7500,0.3350,-0.2500,0.7500,0.036064,-0.634587,0.734609,0.237379,0.0400,,0.3720,-0.0314,0.5128,0.3247,3.071181,-1.3250,-1.2837,0.8184,-2.6987,-1.1851,3.3281,0.4971,0.1084,-0.1844,0.5780,3.7950,-31.8008,29.1583,-38.5022,229.25,87.00
7.573,169,1,0.9415,0.420541,0.878825,0.000001,1.3176,0.3350,-0.2500,0.7444,0.3350,-0.2500,0.7444,0.029188,-0.628923,0.739342,0.238701,0.0400,,0.3358,-0.1016,0.5648,0.2330,1.792725,-1.3324,-1.2724,0.8262,-2.6474,-0.3064,2.4458,1.6792,-0.4743,0.0088,-0.8658,1.0124,32.7497,-29.3886,38.7373,215.18,87.00
7.603,170,1,0.9327,0.421685,0.877479,0.000001,1.3183,0.3350,-0.2500,0.7454,0.3350,-0.2500,0.7454,0.029615,-0.632162,0.739268,0.230166,0.0400,,0.3923,-0.0172,0.5371,0.3176,3.089920,-1.3268,-1.2825,0.8451,-2.5963,-1.2647,3.1819,0.4827,0.0867,-0.0934,0.4598,3.7119,-32.4873,28.8247,-38.3615,221.09,87.00
7.642,171,1,0.9333,0.434654,0.884750,0.000001,1.3200,0.3350,-0.2457,0.7351,0.3350,-0.2457,0.7351,0.031342,-0.627820,0.741226,0.235464,0.0400,,0.3637,-0.0758,0.5722,0.2371,1.959947,-1.3335,-1.2713,0.8547,-2.6240,-0.3568,2.6122,1.6750,-0.2038,0.0125,-0.4604,0.4623,32.7674,-27.1707,38.5993,219.90,87.00
7.689,172,1,0.9361,0.442051,0.888353,0.000001,1.3201,0.3350,-0.2315,0.7280,0.3350,-0.2315,0.7280,0.025724,-0.625478,0.745594,0.228487,0.0400,,0.4055,0.0247,0.5274,0.3330,2.972404,-1.3271,-1.2800,0.8680,-2.5649,-1.2604,3.4051,0.4688,0.1120,-0.0783,0.8396,3.9554,-31.3151,28.2590,-38.6569,219.23,87.00
7.730,173,1,0.9140,0.445579,0.888319,0.000001,1.3550,0.3350,-0.2226,0.7268,0.3350,-0.2226,0.7268,0.026830,-0.629498,0.745761,0.216455,0.0400,,0.3466,-0.0936,0.5506,0.2187,1.737983,-1.3338,-1.2700,0.8840,-2.6266,-0.2877,2.3607,1.6395,-0.4019,-0.0216,-1.1817,0.3375,33.2377,-29.8863,38.9022,222.92,87.00
7.771,174,1,0.9430,0.460047,0.891973,0.000001,1.3042,0.3350,-0.1949,0.7213,0.3350,-0.1949,0.7213,0.014611,-0.620198,0.751027,0.226051,0.0400,,0.3983,-0.0257,0.5318,0.2618,3.007217,-1.3285,-1.2842,0.8968,-2.5886,-1.2419,3.0169,0.4554,0.0614,-0.1415,0.2558,3.3550,-33.0888,28.3661,-38.1612,223.09,87.00
7.812,175,1,0.9293,0.465897,0.884198,0.000001,1.2936,0.3350,-0.1794,0.7315,0.3350,-0.1794,0.7315,-0.533871,-0.525414,0.634385,0.190991,0.0400,,0.3562,-0.0867,0.5494,0.2055,1.221717,-1.3357,-1.2752,0.8980,-2.6335,-0.2860,2.4523,1.6692,-0.2440,-0.0323,-0.8313,0.2828,33.2200,-26.7595,38.9413,217.31,87.00
7.856,176,1,0.9329,0.496893,0.896146,0.000001,1.3023,0.3350,-0.1207,0.7161,0.3350,-0.1207,0.7161,-0.112467,-0.605724,0.749489,0.242315,0.0400,,0.4123,0.0218,0.5124,0.2603,3.072207,-1.3298,-1.2939,0.9195,-2.5823,-1.1970,3.3394,0.4887,0.0857,-0.1585,0.6243,3.9257,-31.5724,29.4688,-38.4519,230.18,87.00
7.897,177,1,0.9457,0.508091,0.892130,0.000001,1.2861,0.3350,-0.0899,0.7191,0.3350,-0.0899,0.7191,-0.025581,-0.608623,0.759323,0.228807,0.0400,,0.3899,-0.0439,0.5719,0.1637,1.858684,-1.3358,-1.2841,0.9366,-2.5297,-0.2788,2.4510,1.6745,-0.3506,0.0020,-0.9132,0.9786,33.0496,-29.3548,38.7519,215.63,87.00
7.928,178,1,0.9408,0.515780,0.892746,0.000001,1.2795,0.3350,-0.0705,0.7188,0.3350,-0.0705,0.7188,-0.013295,-0.605255,0.763840,0.223693,0.0400,,0.4360,0.0492,0.5327,0.2432,3.050423,-1.3303,-1.3014,0.9580,-2.4789,-1.2182,3.2055,0.4804,0.0606,-0.1589,0.4405,3.7378,-32.2912,28.9558,-38.3698,230.18,87.00
8.003,179,1,0.9402,0.516671,0.891333,0.000001,1.2883,0.3350,-0.0654,0.7208,0.3350,-0.0654,0.7208,-0.020262,-0.607094,0.763714,0.218556,0.0400,,0.4192,-0.0048,0.5769,0.1774,2.029710,-1.3360,-1.2926,0.9752,-2.4905,-0.2976,2.6063,1.6721,-0.1782,0.0011,-0.5711,0.4654,32.8919,-27.2461,38.5930,219.90,87.00
8.044,180,1,0.9397,0.522036,0.896901,0.000001,1.2675,0.3350,-0.0548,0.7131,0.3350,-0.0548,0.7131,-0.022478,-0.606722,0.763614,0.219719,0.0400,,0.4452,0.1115,0.5183,0.2788,2.779167,-1.3313,-1.3083,0.9885,-2.4301,-1.1857,3.5018,0.4648,0.0849,-0.1490,0.8804,4.1262,-30.8623,29.5396,-38.7615,230.18,87.00
8.077,181,1,0.9338,0.520319,0.896548,0.000001,1.2696,0.3350,-0.0560,0.7122,0.3350,-0.0560,0.7122,-0.025992,-0.606629,0.765441,0.213131,0.0400,,0.3922,-0.0354,0.5380,0.1845,1.708313,-1.3219,-1.3015,1.0147,-2.5295,-0.1448,2.2864,1.6269,-0.4606,-0.0310,-1.7606,0.1107,33.6841,-30.6747,39.0123,230.18,87.00
8.120,182,1,0.9350,0.529399,0.900703,0.000001,1.2637,0.3350,-0.0398,0.7061,0.3350,-0.0398,0.7061,-0.021162,-0.605780,0.767847,0.207351,0.0400,,0.4237,0.0151,0.5487,0.1888,2.918731,-1.3177,-1.3200,0.9716,-2.5052,-1.0974,2.8719,0.4470,0.0167,-0.2496,0.0054,2.6584,-33.4704,27.7889,-38.0678,217.91,87.00
8.150,183,1,0.9386,0.530200,0.902345,0.000001,1.2613,0.3350,-0.0355,0.7026,0.3350,-0.0355,0.7026,-0.017906,-0.611468,0.765137,0.200878,0.0400,,0.3560,-0.0752,0.5273,0.1810,1.553965,-1.3275,-1.3097,0.9635,-2.6204,-0.0788,2.2775,1.6778,-0.5678,-0.0169,-1.5894,0.0451,33.4779,-27.2232,39.3108,230.18,87.00
8.189,184,1,0.9475,0.529844,0.899547,0.000001,1.2914,0.3350,-0.0353,0.7060,0.3350,-0.0353,0.7060,-0.033874,-0.603098,0.769268,0.208213,0.0400,,0.4105,0.0042,0.5320,0.1937,2.921600,-1.3229,-1.3289,0.9373,-2.5913,-1.0163,3.0917,0.5172,0.0277,-0.2730,0.0838,2.9610,-32.4606,28.8651,-38.1467,218.40,87.00
8.221,185,1,0.9415,0.538637,0.904888,0.000001,1.2657,0.3350,-0.0194,0.6989,0.3350,-0.0194,0.6989,-0.027742,-0.606284,0.769188,0.199999,0.0400,,0.3533,-0.0833,0.5316,0.1800,1.674448,-1.3291,-1.3186,0.9353,-2.7032,-0.0578,2.5641,1.7256,-0.3458,-0.0104,-1.0237,0.1257,32.9558,-27.3094,38.7322,229.68,87.00
8.261,186,1,0.9454,0.540339,0.904783,0.000001,1.2693,0.3350,-0.0135,0.6978,0.3350,-0.0135,0.6978,-0.028927,-0.606555,0.768513,0.201599,0.0400,,0.4069,0.0263,0.4978,0.2162,3.112014,-1.3254,-1.3386,0.9615,-2.6654,-0.9439,3.4238,0.5252,0.0648,-0.3072,0.3970,3.3516,-30.9855,29.2249,-38.7352,230.18,87.00
8.290,187,1,0.9504,0.538561,0.908417,0.000001,1.2733,0.3350,-0.0156,0.6923,0.3350,-0.0156,0.6923,-0.032588,-0.602827,0.770230,0.205631,0.0400,,0.3571,-0.0746,0.5265,0.1774,1.606396,-1.3275,-1.3290,0.9659,-2.6527,-0.0640,2.3779,1.6920,-0.4596,-0.0236,-1.5918,0.1719,32.5499,-29.6641,38.7606,220.80,87.00
8.333,188,1,0.9483,0.537863,0.909592,0.000001,1.2778,0.3350,-0.0173,0.6897,0.3350,-0.0173,0.6897,-0.029437,-0.601803,0.771233,0.205342,0.0400,,0.4060,-0.0055,0.5096,0.1939,2.936690,-1.3240,-1.3536,0.9742,-2.6249,-1.0604,3.0447,0.4941,0.0328,-0.5867,0.1565,2.8851,-33.0183,28.2457,-38.2701,225.28,87.00
8.375,189,1,0.9528,0.536362,0.910821,0.000001,1.2758,0.3350,-0.0203,0.6874,0.3350,-0.0203,0.6874,-0.036146,-0.599797,0.771279,0.209920,0.0400,,0.3607,-0.0703,0.5268,0.1702,1.748017,-1.3309,-1.3498,0.9726,-2.6743,-0.1882,2.4836,1.6992,-0.2450,-0.0679,-0.9406,0.1868,32.4751,-26.9292,38.8220,214.90,87.00
8.407,190,1,0.9462,0.539168,0.911474,0.000001,1.2914,0.3350,-0.0158,0.6861,0.3350,-0.0158,0.6861,-0.036549,-0.600416,0.771660,0.206652,0.0400,,0.4135,0.0369,0.4791,0.2276,3.052011,-1.3251,-1.3757,0.9980,-2.6254,-1.1413,3.3631,0.5068,0.0799,-0.4599,0.5895,3.8749,-31.6219,29.4276,-38.5573,230.18,87.00
8.437,191,1,0.9464,0.539901,0.914865,0.000001,1.2683,0.3350,-0.0136,0.6809,0.3350,-0.0136,0.6809,-0.031255,-0.601692,0.770608,0.207734,0.0400,,0.3892,-0.0313,0.5412,0.1509,1.835415,-1.3305,-1.3656,1.0140,-2.5687,-0.2290,2.4041,1.6837,-0.3426,-0.0120,-1.1478,0.8806,33.0454,-29.6754,38.7724,215.69,87.00
8.480,192,1,0.9521,0.536451,0.914409,0.000001,1.2682,0.3350,-0.0195,0.6807,0.3350,-0.0195,0.6807,-0.032610,-0.600361,0.770336,0.212333,0.0400,,0.4374,0.0548,0.4960,0.2239,3.095757,-1.3242,-1.3936,1.0471,-2.5251,-1.1762,3.1293,0.4897,0.0466,-0.5646,0.2963,3.5144,-32.5792,28.8163,-38.3052,230.18,87.00
8.522,193,1,0.9442,0.535371,0.915736,0.000001,1.2879,0.3350,-0.0225,0.6787,0.3350,-0.0225,0.6787,-0.037483,-0.602061,0.772506,0.198375,0.0400,,0.4071,-0.0130,0.5276,0.1677,1.942590,-1.3302,-1.3833,1.0590,-2.5927,-0.2018,2.5902,1.6851,-0.1721,-0.0092,-0.7406,0.2240,33.2286,-26.8474,38.6527,224.68,87.00
8.565,194,1,0.9403,0.539311,0.912975,0.000001,1.2670,0.3350,-0.0159,0.6823,0.3350,-0.0159,0.6823,-0.043724,-0.598133,0.771730,0.211560,0.0400,,0.4406,0.1022,0.4698,0.2651,2.882204,-1.3254,-1.4040,1.0798,-2.5441,-1.0164,3.4871,0.4805,0.0639,-0.2740,0.5823,3.7327,-30.3063,29.4236,-38.7702,230.18,87.00
8.597,195,1,0.9475,0.542542,0.916908,0.000001,1.2743,0.3350,-0.0089,0.6773,0.3350,-0.0089,0.6773,-0.037255,-0.601123,0.771352,0.205619,0.0400,,0.3832,-0.0350,0.5001,0.1855,1.658004,-1.3209,-1.3951,1.0928,-2.6070,-0.0084,2.2957,1.6458,-0.4717,-0.0347,-2.0536,0.0465,33.2365,-30.7008,38.9714,230.18,87.00
8.645,196,1,0.9458,0.544269,0.914733,0.000001,1.2625,0.3350,-0.0045,0.6795,0.3350,-0.0045,0.6795,-0.034226,-0.598460,0.771211,0.214263,0.0400,,0.4148,0.0148,0.5152,0.1837,2.873726,-1.3158,-1.4200,1.0328,-2.5874,-0.9872,2.8915,0.4621,0.0107,-0.6443,-0.0962,2.3738,-33.3833,27.8887,-38.0920,214.52,87.00
8.687,197,1,0.9422,0.545339,0.914431,0.000001,1.2903,0.3350,-0.0018,0.6804,0.3350,-0.0018,0.6804,-0.032019,-0.600701,0.770973,0.209128,0.0400,,0.3511,-0.0636,0.5101,0.1818,1.610007,-1.3247,-1.4163,1.0233,-2.6745,-0.0104,2.3114,1.6892,-0.4177,-0.0741,-1.6408,0.0258,33.1744,-27.0891,39.2117,222.07,87.00
8.731,198,1,0.9426,0.546430,0.916435,0.000001,1.2562,0.3350,0.0007,0.6776,0.3350,0.0007,0.6776,-0.034229,-0.598170,0.772324,0.211038,0.0400,,0.4072,0.0215,0.5050,0.1883,2.977868,-1.3181,-1.4417,0.9991,-2.6464,-0.9530,3.1490,0.5221,0.0289,-0.6064,0.0771,2.8794,-32.1280,29.0768,-38.2334,218.09,87.00
8.771,199,1,0.9462,0.551895,0.910783,0.000001,1.2714,0.3350,0.0110,0.6853,0.3350,0.0110,0.6853,-0.034244,-0.599046,0.770975,0.213468,0.0400,,0.3552,-0.0595,0.5236,0.1776,1.821083,-1.3246,-1.4332,0.9977,-2.7419,-0.0223,2.6378,1.7229,-0.2551,-0.0222,-0.9383,0.1267,32.7007,-27.2263,38.5901,227.80,87.00
8.811,200,1,0.9485,0.552277,0.913089,0.000001,1.2908,0.3350,0.0135,0.6833,0.3350,0.0135,0.6833,-0.022923,-0.602537,0.770528,0.206667,0.0400,,0.4038,0.0539,0.4748,0.2233,3.044156,-1.3189,-1.4582,1.0223,-2.7016,-0.8912,3.5185,0.5103,0.0689,-0.5332,0.4329,3.4522,-30.5343,29.3504,-38.9048,230.18,87.00
8.851,201,1,0.9327,0.551718,0.913228,0.000001,1.2651,0.3350,0.0130,0.6828,0.3350,0.0130,0.6828,-0.030338,-0.605139,0.768302,0.206394,0.0400,,0.3247,-0.0811,0.4940,0.2112,1.513789,-1.3201,-1.4483,1.0199,-2.7378,0.0460,2.2452,1.6656,-0.7352,-0.0359,-2.3627,0.0090,32.6797,-31.0744,38.9751,228.43,87.00
8.881,202,1,0.9343,0.553316,0.909194,0.000001,1.2928,0.3350,0.0157,0.6885,0.3350,0.0157,0.6885,-0.032377,-0.605774,0.767796,0.206104,0.0400,,0.3607,-0.0412,0.5132,0.1861,2.651833,-1.3112,-1.4783,0.9762,-2.7251,-0.9644,2.7926,0.4748,0.0207,-1.0494,-0.0876,1.9908,-33.8844,27.5248,-38.1151,216.27,87.00
8.914,203,1,0.9426,0.548345,0.916040,0.000001,1.2547,0.3350,0.0073,0.6797,0.3350,0.0073,0.6797,-0.026808,-0.598445,0.773439,0.207213,0.0400,,0.3036,-0.0816,0.5158,0.1890,1.520974,-1.3232,-1.4956,0.9606,-2.7311,-0.0298,2.1650,1.7105,-0.5501,-0.2323,-1.9134,0.0432,32.8452,-26.9716,39.4535,204.26,87.00
8.944,204,1,0.9412,0.552652,0.907721,0.000001,1.3015,0.3350,0.0135,0.6901,0.3350,0.0135,0.6901,-0.037640,-0.599579,0.772741,0.204840,0.0400,,0.3708,-0.0087,0.5248,0.1705,2.798309,-1.3106,-1.5244,0.9397,-2.7058,-1.0012,2.9901,0.5482,0.0376,-0.8035,0.0296,2.6807,-32.9505,28.8373,-38.0958,217.96,87.00
8.981,205,1,0.9416,0.549302,0.913459,0.000001,1.2677,0.3350,0.0086,0.6837,0.3350,0.0086,0.6837,-0.027040,-0.600635,0.773296,0.201296,0.0400,,0.3150,-0.0716,0.5370,0.1684,1.736563,-1.3202,-1.5264,0.9328,-2.7766,-0.0510,2.4795,1.7644,-0.3370,-0.1156,-1.2105,0.1152,33.0014,-26.8558,38.8477,214.85,87.00
9.011,206,1,0.9396,0.557009,0.905113,0.000001,1.2858,0.3350,0.0216,0.6946,0.3350,0.0216,0.6946,-0.041370,-0.598769,0.771574,0.210804,0.0400,,0.3819,0.0306,0.4939,0.2063,3.063299,-1.3119,-1.5558,0.9671,-2.7395,-0.9515,3.3640,0.5691,0.0635,-0.7418,0.2973,3.3346,-31.2716,29.3657,-38.6636,230.18,87.00
9.049,207,1,0.9437,0.554085,0.907092,0.000001,1.2691,0.3350,0.0187,0.6937,0.3350,0.0187,0.6937,-0.032474,-0.599549,0.771812,0.209267,0.0400,,0.3318,-0.0485,0.5425,0.1654,1.776074,-1.3204,-1.5502,0.9659,-2.7159,-0.0585,2.4096,1.7382,-0.3954,-0.0583,-1.5208,0.1816,32.7625,-29.3903,38.6842,215.73,87.00
9.091,208,1,0.9447,0.552896,0.903210,0.000001,1.2993,0.3350,0.0160,0.6991,0.3350,0.0160,0.6991,-0.032800,-0.607103,0.767407,0.203560,0.0400,,0.3885,0.0239,0.5062,0.2004,2.963808,-1.3118,-1.5824,0.9959,-2.6861,-1.0166,3.1024,0.5327,0.0517,-0.9322,0.1852,2.9591,-32.5573,28.4362,-38.3823,227.82,87.00
9.136,209,1,0.9375,0.551176,0.903750,0.000001,1.2894,0.3350,0.0124,0.6993,0.3350,0.0124,0.6993,-0.031728,-0.605306,0.769251,0.202116,0.0400,,0.3304,-0.0522,0.5302,0.1811,1.861805,-1.3212,-1.5803,0.9929,-2.7825,-0.0596,2.5692,1.7224,-0.2577,-0.0755,-1.0133,0.1246,33.0727,-27.1426,38.6328,221.27,87.00
9.176,210,1,0.9452,0.548275,0.904655,0.000001,1.3024,0.3350,0.0066,0.6980,0.3350,0.0066,0.6980,-0.028834,-0.605808,0.768962,0.202146,0.0400,,0.3890,0.0514,0.4774,0.2315,3.106420,-1.3128,-1.6114,1.0234,-2.7454,-0.8784,3.4465,0.5139,0.0634,-0.8126,0.2983,3.2731,-30.3275,29.4069,-38.7856,230.18,87.00
9.207,211,1,0.9428,0.548426,0.900805,0.000001,1.2852,0.3350,0.0058,0.7034,0.3350,0.0058,0.7034,-0.038782,-0.601692,0.770540,0.206713,0.0400,,0.3059,-0.0725,0.5084,0.2121,1.653518,-1.3207,-1.6021,1.0169,-2.8018,0.0440,2.3318,1.6791,-0.5938,-0.0370,-2.0859,0.0264,32.5064,-30.5560,38.8731,230.18,87.00
9.237,212,1,0.9438,0.548783,0.901378,0.000001,1.3011,0.3350,0.0063,0.7035,0.3350,0.0063,0.7035,-0.036126,-0.607857,0.766668,0.203532,0.0400,,0.3494,-0.0232,0.5082,0.1981,2.729545,-1.3110,-1.6381,0.9887,-2.7841,-0.9519,2.9157,0.4861,0.0543,-1.3190,-0.0023,2.2252,-33.2884,27.8460,-38.1717,218.54,87.00
9.280,213,1,0.9470,0.545669,0.898423,0.000001,1.3110,0.3350,0.0007,0.7078,0.3350,0.0007,0.7078,-0.029820,-0.605907,0.769579,0.199337,0.0400,,0.2902,-0.0711,0.5236,0.2027,1.708808,-1.3234,-1.6577,0.9768,-2.8207,-0.0216,2.3442,1.7060,-0.3992,-0.2229,-1.5513,0.0728,32.9250,-26.7574,39.0898,208.45,87.00
9.310,214,1,0.9479,0.548556,0.900016,0.000001,1.3188,0.3350,0.0050,0.7063,0.3350,0.0050,0.7063,-0.036574,-0.606031,0.768488,0.202027,0.0400,,0.3608,0.0135,0.4991,0.2089,2.952741,-1.3124,-1.6943,0.9755,-2.7891,-0.9583,3.2048,0.5299,0.0666,-1.1234,0.1686,3.0480,-31.8571,29.2376,-38.3335,223.32,87.00
9.349,215,1,0.9452,0.546184,0.903221,0.000001,1.3003,0.3350,0.0014,0.7014,0.3350,0.0014,0.7014,-0.036608,-0.606112,0.767733,0.204631,0.0400,,0.2940,-0.0627,0.5325,0.1852,1.890763,-1.3232,-1.6950,0.9694,-2.8786,-0.0084,2.6088,1.7217,-0.3021,-0.0987,-1.0555,0.1277,32.9175,-27.8231,38.5741,219.19,87.00
9.394,216,1,0.9491,0.548544,0.900503,0.000001,1.3106,0.3350,0.0051,0.7044,0.3350,0.0051,0.7044,-0.038576,-0.604588,0.768214,0.206963,0.0400,,0.3579,0.0285,0.4821,0.2247,3.070821,-1.3128,-1.7313,0.9988,-2.8462,-0.8237,3.4300,0.5088,0.0758,-1.0881,0.2635,3.0319,-30.2590,29.1592,-38.7852,230.18,87.00
9.456,217,1,0.9470,0.549516,0.901711,0.000001,1.3089,0.3350,0.0075,0.7032,0.3350,0.0075,0.7032,-0.024958,-0.605096,0.769647,0.202187,0.0400,,0.2640,-0.0841,0.5133,0.2225,1.661504,-1.3259,-1.7294,0.9821,-2.8969,0.1414,2.3390,1.6727,-0.7358,-0.0938,-2.3093,-0.0206,32.9293,-30.3178,38.8519,222.17,87.00
9.503,218,1,0.9471,0.548988,0.902115,0.000001,1.3067,0.3350,0.0069,0.7024,0.3350,0.0069,0.7024,-0.022675,-0.604938,0.770025,0.201489,0.0400,,0.3132,-0.0351,0.5145,0.1938,2.648987,-1.3116,-1.7662,0.9644,-2.8857,-0.8139,2.9374,0.4816,0.0908,-1.1573,0.0152,1.9353,-32.8943,27.9281,-38.1833,220.54,87.00
9.544,219,1,0.9486,0.549771,0.898829,0.000001,1.3124,0.3350,0.0083,0.7070,0.3350,0.0083,0.7070,-0.031075,-0.602915,0.769019,0.210091,0.0400,,0.2475,-0.0881,0.5200,0.2278,1.697513,-1.3261,-1.7637,0.9481,-2.9334,0.1198,2.3790,1.6992,-0.5311,0.0062,-1.7589,0.0022,32.9393,-26.7464,39.0274,211.83,87.00
9.585,220,1,0.9459,0.549304,0.901036,0.000001,1.2996,0.3350,0.0077,0.7046,0.3350,0.0077,0.7046,-0.031823,-0.602976,0.769377,0.208488,0.0400,,0.3266,-0.0111,0.5003,0.2054,2.846367,-1.3121,-1.7646,0.9542,-2.9072,-0.8023,3.2384,0.5212,0.0718,-0.0216,0.1616,2.7243,-31.6167,29.2825,-38.4153,225.05,87.00
9.616,221,1,0.9490,0.547487,0.898988,0.000001,1.3049,0.3350,0.0043,0.7072,0.3350,0.0043,0.7072,-0.029305,-0.603304,0.768891,0.209695,0.0400,,0.2526,-0.0850,0.5263,0.2178,1.833195,-1.3248,-1.7634,0.9431,-2.9667,0.0806,2.5619,1.7106,-0.4255,-0.0867,-1.3221,0.0830,32.5329,-28.2452,38.6006,215.15,87.00
9.648,222,1,0.9433,0.549126,0.894900,0.000001,1.2968,0.3350,0.0066,0.7135,0.3350,0.0066,0.7135,-0.037588,-0.602793,0.767607,0.214493,0.0400,,0.3274,-0.0097,0.4805,0.2337,2.935495,-1.3130,-1.7648,0.9748,-2.9358,-0.8260,3.3546,0.5028,0.0805,-0.0166,0.2575,2.9996,-31.2370,29.0984,-38.6856,230.18,87.00
9.678,223,1,0.9432,0.546325,0.898491,0.000001,1.2918,0.3350,0.0020,0.7095,0.3350,0.0020,0.7095,-0.033363,-0.602087,0.768872,0.212636,0.0400,,0.2386,-0.0964,0.5160,0.2375,1.822357,-1.3277,-1.7630,0.9424,-2.9613,-0.2507,2.3914,1.6886,-0.3653,-0.1028,-0.9210,0.0958,27.1100,-30.3071,38.9613,214.66,87.00
9.718,224,1,0.9475,0.549726,0.894902,0.000001,1.3047,0.3350,0.0073,0.7139,0.3350,0.0073,0.7139,-0.037589,-0.604321,0.767565,0.210306,0.0400,,0.2947,-0.0614,0.4682,0.2584,2.989579,-1.3142,-1.7646,0.9716,-2.9050,-1.5558,2.9946,0.4862,0.1587,-0.0042,0.7892,4.2893,-34.7123,28.5940,-38.2190,222.21,87.00
9.758,225,1,0.9395,0.548864,0.895005,0.000001,1.3009,0.3350,0.0067,0.7146,0.3350,0.0067,0.7146,-0.035887,-0.607000,0.766674,0.206092,0.0400,,0.3273,0.0050,0.5646,0.1502,2.321028,-1.3178,-1.7645,0.9707,-2.6958,-0.7542,2.4383,1.6937,-0.1600,0.0119,-0.2287,3.6287,32.2099,-27.9747,38.8512,215.03,87.00
9.794,226,1,0.9421,0.548193,0.898221,0.000001,1.3147,0.3350,0.0054,0.7101,0.3350,0.0054,0.7101,-0.028594,-0.607794,0.768124,0.199385,0.0400,,0.3964,0.0900,0.5340,0.2048,2.961886,-1.3233,-1.7559,0.9909,-2.4927,-1.7540,2.9526,0.5006,-0.0697,0.1379,1.0963,4.1602,-33.3551,24.4939,-38.2823,192.72,87.00
9.835,227,1,0.9445,0.550187,0.904188,0.000001,1.2962,0.3350,0.0087,0.7006,0.3350,0.0087,0.7006,-0.022125,-0.605032,0.769924,0.201653,0.0400,,0.3631,0.1095,0.6081,0.1397,2.379629,-1.3168,-1.7448,1.0073,-2.4067,-0.7223,2.0923,1.7146,-0.0125,0.0419,-0.6598,2.4796,33.7352,-28.6006,39.5149,191.46,87.00
9.864,228,1,0.9452,0.549993,0.901392,0.000001,1.2912,0.3350,0.0090,0.7030,0.3350,0.0090,0.7030,-0.031237,-0.598474,0.772116,0.211399,0.0400,,0.4232,0.1530,0.5789,0.2096,3.093468,-1.3330,-1.7330,1.0471,-2.3437,-1.6090,2.5523,0.5410,-0.1812,0.0997,0.2552,2.3435,-33.6124,24.2055,-38.2376,195.95,87.00
9.905,229,1,0.9459,0.550673,0.903933,0.000001,1.2984,0.3350,0.0103,0.6997,0.3350,0.0103,0.6997,-0.026931,-0.599193,0.771720,0.211402,0.0400,,0.2942,0.0516,0.5790,0.1340,1.947327,-1.3236,-1.7205,1.0351,-2.4661,-0.5126,1.5620,1.8170,-0.0052,0.0399,-2.3035,-0.0794,32.8927,-29.1629,40.7484,213.38,87.00
9.936,230,1,0.9497,0.545639,0.906586,0.000001,1.3069,0.3350,0.0014,0.6953,0.3350,0.0014,0.6953,-0.019834,-0.600561,0.771826,0.207888,0.0400,,0.3601,0.0907,0.6162,0.1220,2.608028,-1.3228,-1.7058,1.0090,-2.4502,-1.3126,2.2017,0.6380,-0.0384,0.1206,-0.1797,1.6104,-32.9776,27.9803,-38.4567,187.37,87.00
9.967,231,1,0.9515,0.544549,0.906178,0.000001,1.3055,0.3350,-0.0022,0.6951,0.3350,-0.0022,0.6951,-0.030946,-0.600409,0.770954,0.210196,0.0400,,0.2668,0.0232,0.5604,0.1531,1.664544,-1.3274,-1.6959,0.9785,-2.4985,-0.2715,1.4468,1.9423,-0.2024,0.0639,-2.9021,-0.3074,32.1446,-28.4507,40.9863,210.84,87.00
10.010,232,1,0.9501,0.538052,0.910594,0.000001,1.3080,0.3350,-0.0145,0.6887,0.3350,-0.0145,0.6887,-0.037854,-0.600766,0.769821,0.212189,0.0400,,0.3258,0.0574,0.6355,0.0899,2.345025,-1.3229,-1.6848,0.9143,-2.4921,-1.1103,2.2090,0.9311,-0.0392,0.0647,-1.3150,1.1282,-33.3609,29.1120,-35.8916,179.23,87.00
10.038,233,1,0.9530,0.542968,0.915330,0.000001,1.3108,0.3350,-0.0079,0.6807,0.3350,-0.0079,0.6807,-0.036981,-0.600975,0.771228,0.206567,0.0400,,0.2479,0.0019,0.5740,0.1381,1.730497,-1.3346,-1.6742,0.8729,-2.5268,-0.1794,1.4950,2.3827,-0.4897,0.0797,-2.9354,-0.3080,31.2855,-28.7839,41.2444,218.06,87.00
10.101,234,1,0.9486,0.540703,0.913241,0.000001,1.3071,0.3350,-0.0108,0.6823,0.3350,-0.0108,0.6823,-0.033347,-0.596562,0.771108,0.219988,0.0400,,0.2988,0.0342,0.6538,0.0644,2.268797,-1.3250,-1.6676,0.8248,-2.5241,-1.0722,2.2496,0.9169,0.0104,0.0292,-0.9894,1.1288,-33.6947,28.8240,-40.1911,183.49,87.00
10.145,235,1,0.9442,0.541446,0.916212,0.000001,1.2991,0.3350,-0.0099,0.6783,0.3350,-0.0099,0.6783,-0.027415,-0.598224,0.770907,0.216974,0.0400,,0.2316,-0.0187,0.5810,0.1422,1.457598,-1.3362,-1.6588,0.7832,-2.5649,-0.0857,1.5563,2.0229,-0.5450,0.0656,-3.1244,-0.3952,31.8272,-28.4065,39.6276,215.83,87.00
10.182,236,1,0.9527,0.532211,0.920764,0.000001,1.3048,0.3350,-0.0265,0.6710,0.3350,-0.0265,0.6710,-0.023083,-0.600298,0.769601,0.216391,0.0400,,0.2725,0.0097,0.6635,0.0726,2.204647,-1.3259,-1.6571,0.7415,-2.5657,-0.9996,2.3010,0.7532,0.0088,-0.0172,-0.8055,1.0859,-34.1088,28.5147,-38.7622,184.07,87.00
10.221,237,1,0.9492,0.532921,0.918166,0.000001,1.3028,0.3350,-0.0281,0.6734,0.3350,-0.0281,0.6734,-0.032568,-0.598902,0.770017,0.217553,0.0400,,0.2113,-0.0401,0.5863,0.1518,1.377533,-1.3421,-1.6468,0.6995,-2.6082,-0.0377,1.6085,2.0097,-0.8404,0.0845,-3.2198,-0.3750,31.7717,-28.3966,40.4229,222.29,87.00
10.249,238,1,0.9402,0.532965,0.916338,0.000001,1.2892,0.3350,-0.0284,0.6765,0.3350,-0.0284,0.6765,-0.026584,-0.602367,0.768795,0.213079,0.0400,,0.2485,-0.0141,0.6657,0.0883,2.094641,-1.3245,-1.6491,0.6700,-2.6123,-0.8967,2.3486,0.8051,0.0324,-0.0566,-0.4405,0.9132,-33.0176,28.2746,-38.4839,191.28,87.00
10.288,239,1,0.9440,0.527327,0.910171,0.000001,1.3034,0.3350,-0.0386,0.6860,0.3350,-0.0386,0.6860,-0.028758,-0.602285,0.767383,0.218056,0.0400,,0.2013,-0.0570,0.5850,0.1685,1.330208,-1.3465,-1.6394,0.6261,-2.6488,0.0985,1.6726,2.0703,-1.2477,0.0973,-3.4097,-0.4373,31.7945,-28.4343,40.3082,225.29,87.00
10.328,240,1,0.9463,0.531024,0.898301,0.000001,1.2772,0.3350,-0.0338,0.7048,0.3350,-0.0338,0.7048,-0.031572,-0.601236,0.765286,0.227720,0.0400,,0.2260,-0.0325,0.6677,0.1151,2.015598,-1.3214,-1.6481,0.5926,-2.6588,-0.7840,2.4218,0.8645,0.0212,-0.1201,-0.5626,0.8137,-33.0710,28.2632,-38.4909,196.73,87.00
10.368,241,1,0.9532,0.527220,0.902341,0.000001,1.2660,0.3350,-0.0397,0.7024,0.3350,-0.0397,0.7024,-0.024955,-0.603385,0.766339,0.219153,0.0400,,0.1884,-0.0726,0.5927,0.1860,1.364916,-1.3463,-1.6393,0.5476,-2.6942,0.1882,1.7881,2.1136,-1.4666,0.1072,-3.3891,-0.4161,31.7788,-28.1566,39.9733,226.06,87.00
10.409,242,1,0.9487,0.526173,0.895002,0.000001,1.2793,0.3350,-0.0427,0.7125,0.3350,-0.0427,0.7125,-0.018738,-0.604280,0.767754,0.212248,0.0400,,0.2080,-0.0446,0.6683,0.1345,2.011146,-1.3159,-1.6541,0.5276,-2.7041,-0.7352,2.5056,0.8995,0.0278,-0.1677,-0.2262,0.8538,-33.2644,27.6534,-38.5122,208.52,87.00
10.448,243,1,0.9308,0.533890,0.886296,0.000001,1.2749,0.3350,-0.0293,0.7269,0.3350,-0.0293,0.7269,-0.022357,-0.605165,0.768242,0.207558,0.0400,,0.1711,-0.0863,0.5927,0.2194,1.371647,-1.3394,-1.6458,0.4844,-2.7444,0.2244,1.8608,2.1315,-1.4529,0.1191,-3.3961,-0.4055,31.8306,-28.2539,39.7371,224.17,87.00
10.488,244,1,0.9498,0.533729,0.888501,0.000001,1.2946,0.3350,-0.0272,0.7263,0.3350,-0.0272,0.7263,-0.014325,-0.610191,0.765215,0.204715,0.0400,,0.2083,-0.0435,0.6596,0.1441,2.087623,-1.2797,-1.6647,0.5080,-2.7529,-0.7466,2.6224,0.9126,0.0359,-0.2035,-0.1426,1.1182,-33.6127,27.9520,-38.5459,220.02,87.00
10.528,245,1,0.9181,0.552113,0.886713,0.000001,1.2845,0.3350,0.0063,0.7288,0.3350,0.0063,0.7288,0.538698,-0.515994,0.643124,0.173047,0.0400,,0.1898,-0.0624,0.6496,0.1791,2.251092,-1.2887,-1.6625,0.4917,-2.7652,0.1329,2.3735,2.1186,-0.3035,0.0039,-1.4473,-0.0312,32.4695,-21.9380,38.8554,197.79,87.00
10.569,246,1,0.9545,0.595382,0.886767,0.000001,1.3070,0.3350,0.0904,0.7292,0.3350,0.0904,0.7292,-0.459583,-0.540652,0.678127,0.191371,0.0400,,0.2640,0.0872,0.6589,0.0999,2.358420,-1.2549,-1.6763,0.5213,-2.7278,-0.7951,3.5528,0.8836,0.0888,-0.1506,0.3057,3.3422,-30.8128,30.1119,-39.5746,230.18,87.00
10.615,247,1,0.9512,0.622612,0.899520,0.000001,1.3029,0.3350,0.1547,0.7108,0.3350,0.1547,0.7108,0.471807,-0.532360,0.679483,0.179704,0.0400,,0.1942,-0.0421,0.6548,0.2484,2.201499,-1.2717,-1.6765,0.5057,-2.7055,0.0378,2.2108,2.0036,-1.1077,0.0501,-2.7163,0.0339,31.7848,-31.6762,38.6478,216.41,87.00
10.658,248,1,0.9484,0.647043,0.903966,0.000001,1.3430,0.3350,0.2103,0.7011,0.3350,0.2103,0.7011,0.095043,-0.587637,0.776494,0.206657,0.0400,,0.2413,0.0124,0.6631,0.2223,2.640764,-1.2135,-1.6948,0.5744,-2.6952,-1.0314,2.6866,0.7526,0.0883,-0.3769,0.0382,1.9243,-34.8562,26.7059,-38.5447,230.18,87.00
10.700,249,1,0.9408,0.666370,0.909668,0.000001,1.3182,0.3350,0.2429,0.6911,0.3350,0.2429,0.6911,0.045656,-0.589584,0.783513,0.190822,0.0400,,0.1949,0.0177,0.6719,0.2659,1.743194,-1.2070,-1.7085,0.5546,-2.5659,-0.1800,1.9482,1.9636,-0.1258,-0.1179,-2.1955,2.0027,31.7307,-29.0396,39.5858,178.24,87.00
10.744,250,1,0.9113,0.669595,0.897804,0.000001,1.2932,0.3350,0.2487,0.7065,0.3350,0.2487,0.7065,0.010106,-0.592812,0.784077,0.183561,0.0400,,0.2634,0.1315,0.6906,0.1382,2.802265,-1.1181,-1.7301,0.6311,-2.5270,-1.1611,2.7501,0.7631,0.1023,-0.1506,0.0819,2.7981,-33.8921,28.6587,-38.3617,230.18,87.00
10.786,251,1,0.9235,0.675627,0.895945,0.000001,1.2678,0.3350,0.2498,0.7119,0.3350,0.2498,0.7119,-0.535835,-0.482994,0.680070,0.130775,0.0400,,0.2331,0.1278,0.7123,0.1589,1.722687,-1.1121,-1.7275,0.6241,-2.4563,-0.2206,2.2553,1.9740,-0.0491,-0.0241,-1.3290,0.7251,33.1619,-26.3288,39.0603,190.15,87.00
10.826,252,1,0.9252,0.678037,0.890546,0.000001,1.2977,0.3350,0.2500,0.7207,0.3350,0.2500,0.7207,0.450145,-0.515697,0.715234,0.140949,0.0400,,0.2857,0.2463,0.6726,0.0689,2.195676,-1.1003,-1.7429,0.6540,-2.4071,-1.1584,3.2001,0.7652,0.0127,-0.1374,0.3026,3.8524,-32.3490,29.4645,-38.7162,221.16,87.00
10.857,253,1,0.9269,0.675776,0.889004,0.000001,1.2909,0.3350,0.2500,0.7245,0.3350,0.2500,0.7245,-0.473305,-0.503801,0.707626,0.146399,0.0400,,0.2583,0.1662,0.7080,0.1147,2.072767,-1.1039,-1.7412,0.6663,-2.5059,-0.1563,2.6516,1.9179,-0.1018,-0.0174,-0.7670,0.1756,33.2951,-27.5505,38.2328,215.85,87.00
10.897,254,1,0.9485,0.649479,0.890731,0.000001,1.3976,0.3350,0.2319,0.7227,0.3350,0.2319,0.7227,0.504271,-0.491926,0.690960,0.162155,0.0400,,0.2848,0.2757,0.6373,0.1083,1.852564,-1.0942,-1.7538,0.6765,-2.4538,-1.0078,3.5397,0.6613,0.0405,-0.1415,0.5938,3.9165,-30.6062,29.3760,-39.2964,221.51,87.00
10.928,255,1,0.9671,0.622891,0.888079,0.000001,1.4364,0.3350,0.1807,0.7262,0.3350,0.1807,0.7262,0.146438,-0.569655,0.774772,0.231901,0.0400,,0.2540,0.1220,0.6828,0.1090,2.236878,-1.1273,-1.7586,0.6854,-2.5044,-0.0161,2.2606,1.8063,-1.1704,-0.0071,-2.3280,0.0447,33.1622,-30.9036,38.9086,230.10,87.00
10.958,256,1,0.9572,0.632042,0.886590,0.000001,1.3525,0.3350,0.1879,0.7289,0.3350,0.1879,0.7289,0.086400,-0.576803,0.781152,0.222787,0.0400,,0.2985,0.1924,0.6604,0.0777,3.127527,-1.0986,-1.7651,0.7473,-2.4850,-1.0258,2.8341,0.6019,0.0947,-0.0010,0.0485,2.4983,-34.2028,27.7908,-38.2617,229.37,87.00
11.002,257,1,0.9699,0.588957,0.872291,0.000001,1.3823,0.3350,0.1115,0.7501,0.3350,0.1115,0.7501,-0.524807,-0.538247,0.633585,0.182858,0.0400,,0.2648,0.1014,0.6559,0.1179,1.671106,-1.1101,-1.7565,0.7389,-2.5675,-0.1170,2.2771,1.8177,-0.2389,0.0026,-1.5603,0.0408,32.7061,-26.9550,39.1462,222.41,87.00
11.042,258,1,0.9794,0.588303,0.883506,0.000001,1.3297,0.3350,0.0966,0.7377,0.3350,0.0966,0.7377,0.483805,-0.526573,0.667626,0.207192,0.0400,,0.3220,0.2012,0.6151,0.1617,2.167845,-1.1018,-1.7648,0.7806,-2.5272,-1.1012,3.1352,0.6317,0.0032,-0.0457,0.2521,3.5562,-32.8205,29.1717,-38.4023,211.42,87.00
11.071,259,1,0.9750,0.523881,0.879359,0.000001,1.4949,0.3350,-0.0223,0.7415,0.3350,-0.0223,0.7415,0.164675,-0.628109,0.729422,0.215185,0.0400,,0.2924,0.1135,0.6437,0.1727,2.481974,-1.1215,-1.7569,0.7867,-2.6462,-0.1272,2.6790,1.8133,-0.4662,-0.0065,-0.6701,0.1652,33.1227,-26.7362,38.4271,230.18,87.00
11.102,260,1,0.9635,0.477042,0.898091,0.000001,1.3863,0.3350,-0.1282,0.7151,0.3350,-0.1282,0.7151,0.051058,-0.612606,0.743772,0.262507,0.0400,,0.3036,0.0943,0.6205,0.2439,2.792557,-1.1365,-1.7534,0.8255,-2.6242,-1.0449,2.5849,0.5786,-0.1004,-0.0457,0.1655,1.3346,-34.2100,14.6931,-38.6713,185.26,87.00
11.142,261,1,0.9738,0.433198,0.900240,0.000001,1.4282,0.3350,-0.2264,0.7073,0.3350,-0.2264,0.7073,0.064910,-0.587602,0.735436,0.331125,0.0400,,0.1392,0.0042,0.5161,0.3578,1.374059,-1.1898,-1.7398,0.7495,-2.6986,-0.1152,1.0300,1.8455,-2.0398,0.0781,-5.0126,-1.5799,31.3024,-31.7954,41.3828,230.18,87.00
11.182,262,1,0.9713,0.423302,0.892802,0.000001,1.3508,0.3350,-0.2457,0.7166,0.3350,-0.2457,0.7166,0.056207,-0.585940,0.737769,0.330472,0.0400,,0.2282,-0.0180,0.6433,0.2620,2.178722,-1.2092,-1.6392,0.6534,-2.6597,-0.6109,2.2345,1.9080,-0.1551,1.0089,-1.2256,0.2539,-25.2230,31.2779,-21.6160,179.50,87.00
11.222,263,1,0.9654,0.389257,0.888285,0.000001,1.4508,0.3350,-0.2492,0.7248,0.3350,-0.2492,0.7248,0.101966,-0.602875,0.738863,0.283243,0.0400,,0.2378,-0.0248,0.5530,0.2988,1.725861,-1.2676,-1.6245,0.5518,-2.6904,0.8234,1.5411,3.1076,-2.9907,0.1793,-4.3931,-2.6955,33.9444,-30.8729,1.7011,224.51,87.00
11.262,264,1,0.9515,0.360630,0.885853,0.000001,1.3067,0.3350,-0.2499,0.7298,0.3350,-0.2499,0.7298,0.043763,-0.617903,0.742943,0.253607,0.0400,,0.1557,-0.0969,0.6475,0.2497,1.911521,-1.4135,-1.6134,0.4234,-2.7037,-0.1463,2.2034,2.3512,-2.6525,0.0605,-2.9084,0.0395,-34.9829,27.7807,-8.2274,196.18,87.00
11.302,265,1,0.9602,0.358701,0.887132,0.000001,1.3226,0.3350,-0.2500,0.7288,0.3350,-0.2500,0.7288,0.041881,-0.623800,0.740760,0.245752,0.0400,,0.1726,-0.0603,0.5022,0.3372,1.715372,-1.4513,-1.5995,0.4409,-2.7585,0.6838,1.1112,2.9911,-0.1113,0.3817,0.1348,-4.1991,30.6325,-31.6024,-1.2433,183.13,87.00
11.342,266,1,0.9592,0.338435,0.875680,0.000001,1.2775,0.3350,-0.2500,0.7452,0.3350,-0.2500,0.7452,0.009825,-0.615028,0.740773,0.269999,0.0400,,0.1273,-0.1179,0.5549,0.3111,2.007200,-1.4753,-1.5975,0.4174,-2.7611,0.1131,1.7073,2.9026,-1.1742,0.1164,-0.7975,-0.1774,-25.9969,28.4207,-0.1020,188.89,87.00
11.372,267,1,0.9616,0.330887,0.866641,0.000001,1.2360,0.3350,-0.2500,0.7612,0.3350,-0.2500,0.7612,-0.551791,-0.511436,0.614082,0.238460,0.0400,,0.2406,-0.0793,0.5500,0.2875,2.514623,-1.4693,-1.5761,0.4783,-2.7932,1.4038,1.5049,2.8809,0.0972,0.6656,0.6562,-2.1818,33.2310,-20.6839,-0.0434,170.91,87.00
11.414,268,1,0.9561,0.334971,0.866880,0.000001,1.2428,0.3350,-0.2500,0.7637,0.3350,-0.2500,0.7637,-0.108214,-0.622365,0.733119,0.251967,0.0400,,0.1293,-0.1499,0.6380,0.2610,2.718365,-1.4969,-1.5366,0.4592,-2.8599,0.9100,2.8126,2.8757,-1.6337,1.1834,-1.3357,-2.6084,-27.7550,32.5204,-0.0458,170.34,87.00
11.457,269,1,0.9539,0.337816,0.867544,0.000001,1.2637,0.3350,-0.2500,0.7632,0.3350,-0.2500,0.7632,-0.022793,-0.627063,0.737839,0.248729,0.0400,,0.1947,-0.1516,0.5106,0.3052,1.968852,-1.3840,-1.5026,0.6281,-2.8922,0.4948,2.0482,2.9042,0.8364,0.2011,1.6141,-0.0815,6.5618,-31.0730,-0.0757,182.53,87.00
11.505,270,1,0.9540,0.342894,0.873480,0.000001,1.2627,0.3350,-0.2500,0.7545,0.3350,-0.2500,0.7545,0.539037,-0.528154,0.620271,0.213907,0.0400,,0.1976,-0.1442,0.5794,0.2465,2.113386,-1.3839,-1.5188,0.6142,-2.8911,0.6445,2.6367,2.8952,-0.0739,-0.0805,-0.2010,0.0974,-0.0039,28.4755,-0.0509,174.28,87.00
11.547,271,1,0.9586,0.342510,0.872114,0.000001,1.2586,0.3350,-0.2500,0.7549,0.3350,-0.2500,0.7549,-0.449265,-0.559686,0.658365,0.226867,0.0400,,0.1847,-0.1355,0.4600,0.3503,1.882667,-1.3851,-1.5073,0.6415,-2.9029,0.5071,1.6929,2.7698,-0.0697,0.5104,0.6891,-0.3365,-2.0719,-31.4810,-1.9073,174.97,87.00
11.586,272,1,0.9566,0.353515,0.880300,0.000001,1.2465,0.3350,-0.2500,0.7432,0.3350,-0.2500,0.7432,0.474672,-0.545702,0.654635,0.219883,0.0400,,0.2091,-0.1452,0.5272,0.2711,1.782204,-1.3857,-1.5294,0.6265,-2.9039,1.0222,2.2802,2.7408,-0.0112,-0.1069,-0.0893,0.2264,8.8631,28.4444,-0.0317,176.33,87.00
11.626,273,1,0.9432,0.365851,0.882381,0.000001,1.2620,0.3350,-0.2500,0.7381,0.3350,-0.2500,0.7381,0.099061,-0.618245,0.738655,0.249698,0.0400,,0.2368,-0.0766,0.4344,0.3632,1.071962,-1.3757,-1.5122,0.6530,-2.8961,1.0872,1.3244,2.3729,0.0636,0.6606,1.1443,-0.0728,-1.6066,-31.3951,-5.6962,162.12,87.00
11.667,274,1,0.9461,0.366865,0.875944,0.000001,1.2422,0.3350,-0.2500,0.7465,0.3350,-0.2500,0.7465,-0.521748,-0.528116,0.629011,0.230690,0.0400,,0.2515,-0.1141,0.5053,0.2892,2.319438,-1.3918,-1.5265,0.6440,-2.8795,1.4156,1.9384,2.2911,-0.1915,-0.0670,-0.0707,0.2285,5.8317,28.9048,0.0126,184.96,87.00
11.711,275,1,0.9560,0.388104,0.887475,0.000001,1.3142,0.3350,-0.2500,0.7313,0.3350,-0.2500,0.7313,0.463505,-0.556402,0.650352,0.229395,0.0400,,0.2883,-0.0274,0.4753,0.3424,0.676025,-1.3782,-1.5152,0.6590,-2.8559,1.5923,1.1738,2.2864,0.1137,0.1825,0.5629,0.1489,0.0243,-29.3956,-0.0443,169.14,85.62
11.743,276,1,0.9548,0.391108,0.883564,0.000001,1.3120,0.3350,-0.2500,0.7342,0.3350,-0.2500,0.7342,0.092749,-0.622786,0.732001,0.260210,0.0400,,0.2802,-0.0926,0.5636,0.2386,1.773458,-1.3902,-1.5103,0.6480,-2.8384,2.1317,1.9601,2.2839,-0.1926,0.0975,-0.1411,0.4191,8.7931,30.0144,-0.0300,163.36,87.00
11.771,277,1,0.9674,0.412765,0.899344,0.000001,1.3216,0.3350,-0.2500,0.7120,0.3350,-0.2500,0.7120,0.041158,-0.624546,0.728383,0.278759,0.0400,,0.3151,-0.0030,0.5373,0.3032,1.315191,-1.3794,-1.5089,0.6695,-2.8260,2.0666,1.1786,2.2781,0.1121,0.0513,0.7384,0.3014,-3.6596,-30.0733,-0.0575,175.48,87.00
11.800,278,1,0.9803,0.450408,0.905133,0.000001,1.3034,0.3350,-0.2172,0.6996,0.3350,-0.2172,0.6996,0.012738,-0.610405,0.727400,0.313262,0.0400,,0.2824,-0.0845,0.5910,0.1794,2.160221,-1.3895,-1.4967,0.6589,-2.8427,2.5849,1.8942,2.2761,-0.1952,0.1564,-0.2249,-0.0094,9.8319,29.6797,-0.0274,197.08,87.00
11.842,279,1,0.9644,0.450023,0.907599,0.000001,1.3404,0.3350,-0.2120,0.6938,0.3350,-0.2120,0.6938,0.022118,-0.600415,0.737007,0.309569,0.0400,,0.3154,0.0049,0.5562,0.2576,1.467690,-1.3794,-1.5098,0.6802,-2.8368,2.2674,1.1415,2.2718,0.1034,-0.1071,0.4174,0.5464,-8.0044,-29.6895,-0.0476,189.28,87.00
11.871,280,1,0.9573,0.496531,0.915762,0.000001,1.3225,0.3350,-0.1272,0.6810,0.3350,-0.1272,0.6810,-0.540032,-0.514029,0.621576,0.240380,0.0400,,0.2797,-0.0843,0.5957,0.1103,2.952014,-1.3892,-1.4991,0.6675,-2.8502,2.7090,1.8846,2.2699,-0.2030,0.1481,-0.2551,0.0014,10.7731,29.8591,-0.0275,197.61,87.00
11.910,281,1,0.9773,0.535710,0.923198,0.000001,1.2738,0.3350,-0.0412,0.6680,0.3350,-0.0412,0.6680,0.450484,-0.533786,0.654231,0.290033,0.0400,,0.3129,0.0045,0.5700,0.1103,0.723474,-1.3791,-1.5163,0.6899,-2.8470,2.4165,1.1553,2.2660,0.0978,-0.1508,0.3044,0.4977,-8.2328,-29.4771,-0.0450,197.03,87.00
11.942,282,1,0.9743,0.572262,0.922325,0.000001,1.3196,0.3350,0.0402,0.6669,0.3350,0.0402,0.6669,-0.475614,-0.536325,0.664998,0.209583,0.0400,,0.2766,-0.0851,0.6012,0.1530,3.024132,-1.3892,-1.5063,0.6758,-2.8448,2.8000,1.9251,2.2641,-0.2373,0.1481,-0.2986,0.0885,10.1297,30.0213,-0.0268,184.42,87.00
11.982,283,1,0.9667,0.577557,0.920029,0.000001,1.3478,0.3350,0.0644,0.6700,0.3350,0.0644,0.6700,0.477943,-0.547263,0.659393,0.193067,0.0400,,0.3151,0.0013,0.5719,0.1183,0.688250,-1.3789,-1.5234,0.6986,-2.8424,2.4317,1.2076,2.2592,0.0923,-0.1518,0.2600,0.4868,-8.8138,-29.4085,-0.0536,197.24,87.00
12.022,284,1,0.9381,0.596924,0.929969,0.000001,1.3588,0.3350,0.1037,0.6562,0.3350,0.1037,0.6562,-0.469443,-0.543277,0.668140,0.195099,0.0400,,0.2769,-0.0846,0.6030,0.2041,3.013222,-1.3894,-1.5171,0.6846,-2.8314,2.8120,1.9873,2.2572,-0.2716,0.1160,-0.3470,0.1361,10.2844,30.0333,-0.0276,173.47,87.00
12.052,285,1,0.9452,0.610609,0.937093,0.000001,1.3575,0.3350,0.1354,0.6435,0.3350,0.1354,0.6435,0.462465,-0.538947,0.684793,0.163465,0.0400,,0.3212,-0.0007,0.5617,0.1594,0.648044,-1.3789,-1.5349,0.7063,-2.8275,2.3170,1.2656,2.2513,0.0886,-0.1529,0.2538,0.6002,-10.3511,-29.4860,-0.0830,197.75,87.00
12.091,286,1,0.9396,0.608582,0.928916,0.000001,1.2932,0.3350,0.1375,0.6530,0.3350,0.1375,0.6530,-0.479334,-0.524537,0.684488,0.163018,0.0400,,0.2791,-0.0749,0.6159,0.2227,2.944859,-1.3901,-1.5348,0.6925,-2.7991,2.8992,2.0383,2.2489,-0.3479,0.0354,-0.6865,0.3436,14.4749,29.8454,-0.0343,163.45,87.00
12.133,287,1,0.9406,0.616635,0.923647,0.000001,1.2789,0.3350,0.1524,0.6623,0.3350,0.1524,0.6623,-0.113822,-0.587097,0.779099,0.188058,0.0400,,0.3198,-0.0014,0.5075,0.2187,1.241536,-1.3788,-1.5634,0.7115,-2.7589,1.6552,1.2726,2.1823,0.1231,-0.1365,0.6139,2.9764,-20.6312,-29.9906,-1.8751,202.37,87.00
12.164,288,1,0.9266,0.617018,0.921533,0.000001,1.2963,0.3350,0.1558,0.6670,0.3350,0.1558,0.6670,-0.061372,-0.588560,0.784507,0.185418,0.0400,,0.3201,0.0476,0.7076,0.1165,2.460024,-1.3983,-1.5750,0.6925,-2.5238,3.0708,1.9784,2.1557,-0.9409,-0.0541,-3.5989,5.7476,9.1229,30.8615,-0.0097,190.33,87.00
12.206,289,1,0.9455,0.616335,0.927338,0.000001,1.2787,0.3350,0.1551,0.6595,0.3350,0.1551,0.6595,-0.037570,-0.587145,0.787243,0.184656,0.0400,,0.3369,0.1489,0.5668,0.0930,0.587003,-1.3725,-1.5960,0.6751,-2.3422,1.3377,0.9472,2.1548,0.1494,-0.0936,2.0105,4.7252,-24.2931,-31.9079,-0.0367,203.40,87.00
12.249,290,1,0.9448,0.616742,0.926995,0.000001,1.3325,0.3350,0.1558,0.6586,0.3350,0.1558,0.6586,-0.029030,-0.584063,0.791182,0.179046,0.0400,,0.3894,0.2773,0.6945,0.1379,1.755933,-1.4032,-1.5929,0.7355,-2.1563,2.5056,1.5342,1.7460,-1.1709,0.1385,-0.1239,4.1937,29.7964,29.4064,-6.8806,207.91,87.00
12.289,291,1,0.9445,0.616525,0.929264,0.000001,1.3018,0.3350,0.1555,0.6552,0.3350,0.1555,0.6552,-0.028376,-0.587863,0.788047,0.180540,0.0400,,0.3035,0.2110,0.5024,0.1656,0.304165,-1.4211,-1.6181,0.7739,-2.2934,1.3225,0.2748,2.3131,-0.0398,-0.5662,4.1118,-0.1512,-33.4490,-31.9103,8.3909,198.47,87.00
12.334,292,1,0.9505,0.579908,0.924732,0.000001,1.4149,0.3350,0.0894,0.6611,0.3350,0.0894,0.6611,0.541022,-0.500555,0.658980,0.149951,0.0400,,0.4539,0.1436,0.5544,0.1687,2.450858,-1.5270,-1.6113,0.8828,-2.2711,1.8971,1.4291,-0.2014,-1.7602,0.1151,0.6075,1.7105,30.0566,29.2210,-44.1567,228.57,87.00
12.364,293,1,0.9408,0.567919,0.916511,0.000001,1.3323,0.3350,0.0558,0.6741,0.3350,0.0558,0.6741,-0.483518,-0.515787,0.687290,0.166753,0.0400,,0.3504,0.1030,0.4420,0.2373,1.729349,-1.5845,-1.5994,0.9289,-2.3598,1.1600,0.4682,0.7697,-0.1656,0.1199,3.7900,-0.2239,-28.9194,-28.6870,37.8854,211.22,87.00
12.419,294,1,0.9377,0.571191,0.917216,0.000001,1.2977,0.3350,0.0557,0.6754,0.3350,0.0557,0.6754,-0.126533,-0.589726,0.777216,0.179297,0.0400,,0.4717,0.0805,0.4718,0.2464,2.589698,-1.5900,-1.5876,1.0284,-2.3436,1.8577,1.3629,-0.5217,-0.1272,0.1476,0.8471,1.2338,29.5468,30.3716,-39.8770,213.64,87.00
12.463,295,1,0.9487,0.567525,0.921753,0.000001,1.3243,0.3350,0.0491,0.6691,0.3350,0.0491,0.6691,-0.045761,-0.597855,0.779274,0.182228,0.0400,,0.3486,0.0865,0.3863,0.2855,1.171866,-1.6032,-1.5761,1.0821,-2.4011,1.1269,0.4073,0.6955,-0.0778,0.1240,4.0283,-0.2348,-28.5254,-29.4135,38.8399,204.31,87.00
12.502,296,1,0.9452,0.559918,0.914153,0.000001,1.3151,0.3350,0.0342,0.6789,0.3350,0.0342,0.6789,-0.031633,-0.597536,0.777100,0.195105,0.0400,,0.4815,0.0497,0.4000,0.3154,2.441515,-1.6127,-1.5636,1.1804,-2.3833,1.8690,1.3873,-0.5143,-0.1794,0.1502,0.9176,1.3465,29.9501,31.1611,-39.5207,216.75,87.00
12.543,297,1,0.9298,0.554674,0.914998,0.000001,1.3006,0.3350,0.0220,0.6794,0.3350,0.0220,0.6794,-0.023841,-0.599817,0.777684,0.186706,0.0400,,0.3493,0.0512,0.3351,0.3459,0.991505,-1.6228,-1.5518,1.2211,-2.4404,1.0713,0.5382,0.7341,-0.0604,0.1418,3.4754,-0.2147,-28.8243,-28.6386,38.9980,195.49,87.00
12.586,298,1,0.9512,0.551055,0.915615,0.000001,1.3166,0.3350,0.0133,0.6786,0.3350,0.0133,0.6786,-0.021723,-0.595323,0.777670,0.200869,0.0400,,0.4699,0.0190,0.3372,0.3672,2.278789,-1.6272,-1.5392,1.3024,-2.4259,1.7912,1.4088,-0.4871,-0.1195,0.1405,0.8087,1.1340,30.0896,30.0422,-39.6411,211.74,87.00
12.632,299,1,0.9487,0.535790,0.915876,0.000001,1.3474,0.3350,-0.0158,0.6781,0.3350,-0.0158,0.6781,0.543146,-0.500391,0.655668,0.157164,0.0400,,0.3374,0.0466,0.3056,0.3777,1.202952,-1.6424,-1.5258,1.3085,-2.4666,1.0639,0.4761,0.7553,-0.1000,0.1345,2.3571,-0.2505,-28.5653,-29.6376,38.9667,191.84,87.00
12.675,300,1,0.9397,0.540644,0.914730,0.000001,1.3241,0.3350,-0.0123,0.6797,0.3350,-0.0123,0.6797,0.107816,-0.595862,0.772343,0.191861,0.0400,,0.4574,0.0084,0.3084,0.3915,2.140658,-1.6519,-1.5136,1.3500,-2.4519,1.7820,1.3285,-0.4589,-0.1534,0.1224,0.8516,1.0024,29.6266,30.4485,-39.5262,213.34,87.00
12.705,301,1,0.9508,0.509687,0.908287,0.000001,1.4044,0.3350,-0.0675,0.6893,0.3350,-0.0675,0.6893,0.066557,-0.598614,0.776199,0.186403,0.0400,,0.3423,-0.0021,0.2991,0.3957,0.783338,-1.6702,-1.5036,1.3219,-2.4835,0.9896,0.7497,0.7917,-0.1346,0.1055,1.2041,-0.1905,-28.6646,-25.5449,39.0916,185.78,87.00
12.743,302,1,0.9558,0.485395,0.902867,0.000001,1.3390,0.3350,-0.1213,0.6988,0.3350,-0.1213,0.6988,0.043549,-0.587951,0.769012,0.247057,0.0400,,0.4614,-0.0557,0.3433,0.3830,2.155414,-1.6784,-1.4928,1.3395,-2.4674,1.7325,1.7360,-0.4730,-0.1549,0.1301,0.4315,1.6901,32.1602,28.8737,-40.3080,206.24,87.00
12.784,303,1,0.9406,0.413508,0.873110,0.000001,1.4127,0.3350,-0.2268,0.7435,0.3350,-0.2268,0.7435,0.029098,-0.604814,0.746434,0.276024,0.0400,,0.4029,-0.1390,0.4409,0.3223,1.614843,-1.6978,-1.4801,1.2794,-2.5481,0.5880,2.3275,0.8426,-0.2821,0.1508,0.0628,-0.1656,-36.8170,-7.3364,41.3362,188.50,87.00
12.823,304,1,0.9680,0.391002,0.865861,0.000001,1.3683,0.3350,-0.2458,0.7620,0.3350,-0.2458,0.7620,0.049523,-0.605927,0.741690,0.283366,0.0400,,0.4714,-0.0470,0.3871,0.4457,2.598514,-1.7037,-1.4791,1.2590,-2.5315,-0.9817,3.4696,1.9704,-0.0307,0.0068,-0.0999,0.2433,0.4259,21.8747,-6.4035,142.50,87.00
12.861,305,1,0.9654,0.361890,0.853270,0.000001,1.2496,0.3350,-0.2492,0.7764,0.3350,-0.2492,0.7764,0.010143,-0.608021,0.748477,0.264558,0.0400,,0.3798,-0.1510,0.4597,0.3346,1.750322,-1.7141,-1.4717,1.2329,-2.5427,0.1177,2.1796,2.2174,-0.6432,0.0327,-1.6090,-0.1080,16.0256,-31.9219,4.9155,191.63,87.00
12.920,306,1,0.9614,0.361585,0.851000,0.000001,1.2109,0.3350,-0.2499,0.7790,0.3350,-0.2499,0.7790,-0.535567,-0.509885,0.633481,0.227787,0.0400,,0.4062,-0.1247,0.5220,0.2946,1.448102,-1.7115,-1.5023,1.0802,-2.5356,-0.9329,2.7404,1.1491,0.0129,-0.9103,-3.2825,1.0608,-23.5979,29.2722,-16.1058,204.84,87.00
12.956,307,1,0.9730,0.345721,0.845353,0.000001,1.2159,0.3350,-0.2500,0.7795,0.3350,-0.2500,0.7795,-0.114530,-0.596204,0.742044,0.284244,0.0400,,0.3321,-0.1568,0.5131,0.2823,2.075550,-1.7318,-1.4945,0.9983,-2.5551,0.6748,1.9950,3.0077,-1.4893,0.0391,-3.8207,-0.7492,35.8156,-29.9695,21.7655,225.29,87.00
13.001,308,1,0.9771,0.339318,0.852383,0.000001,1.2191,0.3350,-0.2500,0.7796,0.3350,-0.2500,0.7796,-0.040030,-0.607030,0.738706,0.290215,0.0400,,0.3159,-0.1426,0.6420,0.1756,2.057252,-1.7741,-1.5091,0.8075,-2.5671,-0.1812,2.7532,0.2100,-0.5338,-0.2667,-4.0698,0.2879,-34.0413,29.8660,-45.1754,213.50,87.00
13.032,309,1,0.9692,0.337555,0.849660,0.000001,1.2140,0.3350,-0.2500,0.7796,0.3350,-0.2500,0.7796,-0.028441,-0.611169,0.738649,0.282951,0.0400,,0.2396,-0.1703,0.6272,0.1966,1.442717,-1.8026,-1.5043,0.6714,-2.5750,0.7177,2.1220,1.0449,-1.7758,0.0892,-3.4322,-0.5989,32.3145,-27.8646,38.0808,230.18,87.00
13.069,310,1,0.9757,0.338897,0.854467,0.000001,1.2476,0.3350,-0.2500,0.7796,0.3350,-0.2500,0.7796,-0.018003,-0.618290,0.731783,0.286158,0.0400,,0.2577,-0.1255,0.7082,0.1630,2.362742,-1.8197,-1.5187,0.5868,-2.5949,-0.3977,3.0373,-0.1775,-0.1150,-0.1344,-2.3040,1.1613,-33.9218,30.4693,-38.2592,197.57,87.00
13.113,311,1,0.9692,0.342401,0.861544,0.000001,1.2502,0.3350,-0.2500,0.7747,0.3350,-0.2500,0.7747,-0.009886,-0.616566,0.732110,0.289419,0.0400,,0.1862,-0.1601,0.6949,0.1913,1.823278,-1.8371,-1.5169,0.5517,-2.6183,0.3850,2.5250,1.0574,-0.9171,0.0285,-1.9955,-0.0558,31.7749,-26.4453,39.1400,230.18,87.00
13.156,312,1,0.9659,0.349650,0.869040,0.000001,1.2294,0.3350,-0.2500,0.7630,0.3350,-0.2500,0.7630,-0.007571,-0.620180,0.734268,0.275990,0.0400,,0.3029,-0.0777,0.6953,0.1879,2.858225,-1.8261,-1.5254,0.5882,-2.5987,-0.5906,3.5325,-0.0116,0.0544,-0.1113,0.2090,2.8312,-30.5737,30.6343,-37.6635,226.57,87.00
13.186,313,1,0.9632,0.347360,0.863967,0.000001,1.2055,0.3350,-0.2500,0.7682,0.3350,-0.2500,0.7682,-0.020398,-0.611863,0.737523,0.285073,0.0400,,0.1796,-0.1718,0.6585,0.2057,1.564066,-1.8480,-1.5336,0.5724,-2.6195,0.2321,2.2386,1.2578,-1.5439,0.0481,-2.9705,-0.1090,31.9084,-31.1669,39.6339,230.18,87.00
13.226,314,1,0.9561,0.359622,0.878522,0.000001,1.2465,0.3350,-0.2500,0.7482,0.3350,-0.2500,0.7482,0.543324,-0.522123,0.623287,0.209047,0.0400,,0.2640,-0.1488,0.6590,0.1524,2.960500,-1.8135,-1.5461,0.6463,-2.6171,-0.9014,2.8655,0.1247,0.0448,-0.1577,0.0276,2.2183,-34.7626,28.2034,-37.8626,230.18,87.00
13.266,315,1,0.9552,0.361477,0.873076,0.000001,1.2201,0.3350,-0.2500,0.7524,0.3350,-0.2500,0.7524,-0.452780,-0.541717,0.661063,0.254022,0.0400,,0.1709,-0.1906,0.6193,0.2195,1.026234,-1.8330,-1.5389,0.6345,-2.7180,-0.0162,2.3104,1.3783,-0.9902,0.0019,-1.7420,0.0286,32.8294,-26.8745,39.4398,230.18,87.00
13.306,316,1,0.9571,0.379014,0.884080,0.000001,1.2891,0.3350,-0.2500,0.7373,0.3350,-0.2500,0.7373,0.472297,-0.550194,0.648228,0.232426,0.0400,,0.2843,-0.1516,0.6127,0.1667,2.924778,-1.8162,-1.5545,0.6775,-2.6866,-1.0180,3.1547,0.3103,0.0684,-0.1590,0.2349,3.1783,-32.7182,29.2484,-37.4234,230.18,87.00
13.351,317,1,0.9704,0.405630,0.894291,0.000001,1.3202,0.3350,-0.2500,0.7198,0.3350,-0.2500,0.7198,0.118519,-0.616370,0.723427,0.287568,0.0400,,0.1850,-0.1976,0.6061,0.1954,2.051751,-1.8296,-1.5465,0.6749,-2.8191,-0.0882,2.6678,1.5728,-0.5890,0.0002,-0.8136,0.1534,32.7870,-27.0990,38.9575,230.18,87.00
13.383,318,1,0.9749,0.502921,0.909938,0.000001,1.3639,0.3350,-0.1225,0.6941,0.3350,-0.1225,0.6941,0.025839,-0.621339,0.719673,0.308774,0.0400,,0.2928,-0.1349,0.5803,0.1220,2.755641,-1.8204,-1.5618,0.6894,-2.7801,-0.8939,3.5309,0.3964,0.0993,-0.1609,0.4366,3.3408,-29.9932,29.3592,-38.6428,230.18,87.00
13.422,319,1,0.9780,0.544389,0.922563,0.000001,1.2954,0.3350,-0.0247,0.6713,0.3350,-0.0247,0.6713,-0.543686,-0.513447,0.621747,0.232827,0.0400,,0.1735,-0.1921,0.6015,0.2428,1.008497,-1.8368,-1.5548,0.6781,-2.7231,-0.0229,2.2179,1.5816,-1.1361,-0.0144,-2.4174,0.3832,32.2867,-31.0493,39.1689,215.87,87.00
13.466,320,1,0.9770,0.584995,0.921952,0.000001,1.3427,0.3350,0.0661,0.6680,0.3350,0.0661,0.6680,-0.126765,-0.604010,0.741845,0.262239,0.0400,,0.2536,-0.1752,0.6015,0.2632,2.052540,-1.8119,-1.5774,0.7409,-2.7068,-1.0617,2.7866,0.4121,0.0584,-0.5652,0.0955,2.2874,-34.3467,27.6601,-37.9994,230.18,87.00
13.519,321,1,0.9675,0.583518,0.918125,0.000001,1.3085,0.3350,0.0798,0.6730,0.3350,0.0798,0.6730,-0.036782,-0.606652,0.759875,0.230673,0.0400,,0.2329,-0.1410,0.6394,0.2455,1.659746,-1.8070,-1.6172,0.7286,-2.5733,-0.1811,2.1250,1.6585,-0.1656,-0.3130,-1.7249,2.3123,32.3880,-28.4302,39.5808,182.83,87.00
13.560,322,1,0.9497,0.614465,0.924010,0.000001,1.3393,0.3350,0.1381,0.6654,0.3350,0.1381,0.6654,-0.017209,-0.609165,0.757473,0.234214,0.0400,,0.3552,-0.0904,0.6267,0.2326,2.640589,-1.7734,-1.6386,0.7829,-2.5188,-1.1895,2.9576,0.5093,0.0680,-0.1572,0.2112,3.3599,-33.6281,28.9783,-37.9917,230.18,87.00
13.597,323,1,0.9464,0.632332,0.929877,0.000001,1.3413,0.3350,0.1808,0.6555,0.3350,0.1808,0.6555,-0.014380,-0.601551,0.769122,0.215362,0.0400,,0.3543,-0.0383,0.6826,0.2216,2.141166,-1.7231,-1.6477,0.7896,-2.3949,-0.3394,2.4274,1.7382,0.0374,-0.0845,-0.7569,2.2958,32.4670,-27.3171,38.9693,186.17,87.00
13.639,324,1,0.9374,0.630936,0.926280,0.000001,1.2673,0.3350,0.1860,0.6589,0.3350,0.1860,0.6589,-0.022403,-0.591020,0.778791,0.208992,0.0400,,0.4474,0.0545,0.6093,0.1800,3.030142,-1.6954,-1.6648,0.8040,-2.3005,-1.2915,3.3707,0.5520,0.0885,-0.1271,0.8223,4.5439,-31.6452,29.7997,-38.5581,230.18,87.00
13.680,325,1,0.9361,0.633391,0.932605,0.000001,1.2954,0.3350,0.1913,0.6504,0.3350,0.1913,0.6504,-0.004666,-0.585206,0.787022,0.195216,0.0400,,0.4268,0.1017,0.6879,0.1337,2.389890,-1.6026,-1.6623,0.8527,-2.1945,-0.3472,2.4588,1.7260,0.0688,0.0473,-0.8063,2.4127,33.2626,-29.6695,38.6448,205.40,87.00
13.722,326,1,0.9299,0.636103,0.929375,0.000001,1.2371,0.3350,0.1972,0.6536,0.3350,0.1972,0.6536,-0.040643,-0.581669,0.793602,0.173796,0.0400,,0.4804,0.2045,0.6067,0.1529,2.810486,-1.5646,-1.6767,0.8610,-2.1012,-1.2521,3.3099,0.5202,0.0644,-0.1253,0.6134,4.4448,-31.6084,29.7069,-38.5521,230.18,87.00
13.764,327,1,0.9180,0.637709,0.928347,0.000001,1.2701,0.3350,0.2012,0.6556,0.3350,0.2012,0.6556,-0.049967,-0.584589,0.793256,0.162800,0.0400,,0.4501,0.1859,0.6682,0.1168,2.407915,-1.5180,-1.6798,0.9063,-2.1361,-0.2058,2.5604,1.6939,0.1671,-0.0672,-0.8315,0.2332,34.0801,-27.6741,38.5597,213.45,87.00
13.796,328,1,0.9352,0.632456,0.925525,0.000001,1.2825,0.3350,0.1924,0.6601,0.3350,0.1924,0.6601,-0.044460,-0.582114,0.794898,0.165237,0.0400,,0.4845,0.2674,0.5775,0.1866,2.693147,-1.5026,-1.6909,0.9203,-2.0819,-1.0575,3.3808,0.4874,0.0593,-0.1453,0.4294,3.9787,-31.1818,28.5992,-38.6591,229.28,87.00
13.838,329,1,0.9435,0.629409,0.924978,0.000001,1.3038,0.3350,0.1853,0.6616,0.3350,0.1853,0.6616,-0.034545,-0.576173,0.795741,0.183378,0.0400,,0.4552,0.1958,0.6480,0.1214,2.345614,-1.4966,-1.6990,0.9486,-2.1185,-0.0379,2.4432,1.6580,-0.0227,-0.0451,-1.4317,0.1163,33.6635,-28.8661,38.7483,214.57,87.00
13.880,330,1,0.9282,0.625914,0.927120,0.000001,1.2759,0.3350,0.1777,0.6588,0.3350,0.1777,0.6588,-0.044956,-0.576444,0.796371,0.177438,0.0400,,0.4922,0.2774,0.5713,0.2057,2.785616,-1.4829,-1.7091,0.9669,-2.0790,-0.9545,3.2407,0.4669,0.0551,-0.1279,0.1779,3.4821,-31.8902,29.2566,-38.4040,227.86,87.00
