Ovmem/robot-control-retargeting-framework/results/hand_retargeting/runs/20260620_221456/raw/hand_retargeting_run.csv
timestamp,frame_id,detected_hand,detection_confidence,wrist_x,wrist_y,wrist_z,pinch_ratio,target_pos_x,target_pos_y,target_pos_z,filtered_target_pos_x,filtered_target_pos_y,filtered_target_pos_z,target_quat_w,target_quat_x,target_quat_y,target_quat_z,gripper_width,workspace_clipped,actual_ee_pos_x,actual_ee_pos_y,actual_ee_pos_z,ee_position_error,ee_orientation_error,joint_q_1,joint_q_2,joint_q_3,joint_q_4,joint_q_5,joint_q_6,joint_q_7,joint_dq_1,joint_dq_2,joint_dq_3,joint_dq_4,joint_dq_5,joint_dq_6,joint_dq_7,torque_norm,max_abs_torque
0.467,0,1,0.9623,0.622594,0.926052,-0.000001,0.4047,0.3350,0.0000,0.6396,0.3350,0.0000,0.6396,0.516802,-0.563820,0.626901,0.148386,0.0026,,0.3284,0.0851,0.6876,0.0979,0.704474,-0.0135,-0.6947,-0.0177,-2.2078,1.1180,1.5273,2.7575,-0.0876,0.0560,-0.0995,-0.0800,15.9057,-1.2495,27.6666,101.71,55.00
1.051,1,1,0.9600,0.642156,0.934157,-0.000000,0.4322,0.3350,0.0353,0.6279,0.3350,0.0353,0.6279,0.481507,-0.573345,0.658168,0.079006,0.0039,,0.3606,0.0211,0.6919,0.0703,1.013647,0.0024,-0.7085,0.0009,-2.1946,0.2780,1.9917,1.5888,0.0972,-0.0634,0.1165,0.0309,-21.3865,6.2601,-25.0556,136.89,55.00
1.081,2,1,0.9663,0.658343,0.975223,-0.000000,0.5908,0.3350,0.0708,0.5665,0.3350,0.0708,0.5665,0.401131,-0.591152,0.695768,0.074433,0.0113,,0.2439,0.0767,0.6152,0.1034,1.178393,-0.0164,-0.6907,-0.0241,-2.2450,0.7373,0.8034,2.3492,-0.1220,0.2465,-0.1194,-2.2281,17.9080,-19.8522,23.9415,144.29,55.00
1.121,3,1,0.9762,0.698642,1.011578,-0.000000,0.4853,0.3350,0.1499,0.5281,0.3350,0.1499,0.5281,0.284805,-0.623055,0.722440,0.093643,0.0064,,0.2887,0.0974,0.6555,0.1455,1.212262,-0.0217,-0.7107,-0.0236,-2.2570,1.0417,1.2453,1.4419,-0.0387,-0.0755,0.0368,0.0265,-3.5585,17.2914,-24.2946,122.48,55.00
1.161,4,0,,0.000000,0.000000,0.000000,1.0000,0.3350,0.1499,0.5281,0.3350,0.1499,0.5281,0.284805,-0.623055,0.722440,0.093643,0.0064,,0.2089,-0.0660,0.5782,0.2550,1.520564,-0.0207,-0.6912,-0.0111,-2.2998,-0.4841,0.5976,2.2360,0.0094,0.2299,0.0855,-1.9906,-18.6514,-19.5492,22.6883,123.67,55.00
1.191,5,0,,0.000000,0.000000,0.000000,1.0000,0.3350,0.1499,0.5281,0.3350,0.1499,0.5281,0.284805,-0.623055,0.722440,0.093643,0.0064,,0.2609,-0.0226,0.5584,0.1902,1.256738,-0.0129,-0.7073,-0.0611,-2.3126,0.0496,1.0788,1.3905,0.1457,-0.0076,-0.1151,-0.1203,17.8433,17.1485,-23.8288,145.52,55.00
1.228,6,0,,0.000000,0.000000,0.000000,1.0000,0.3350,0.1499,0.5281,0.3350,0.1499,0.5281,0.284805,-0.623055,0.722440,0.093643,0.0064,,0.1860,-0.0780,0.5666,0.2751,1.638463,-0.0209,-0.6901,-0.0582,-2.3481,-0.4961,0.4606,2.1740,-0.1158,0.1717,-0.0674,-1.6409,-18.0002,-18.6824,22.6274,135.62,55.00
1.258,7,0,,0.000000,0.000000,0.000000,1.0000,0.3350,0.1499,0.5281,0.3350,0.1499,0.5281,0.284805,-0.623055,0.722440,0.093643,0.0064,,0.2649,-0.0383,0.5426,0.2014,1.299588,-0.0129,-0.7077,-0.0988,-2.3525,0.0253,1.1411,1.2730,0.1536,0.0026,-0.1102,-0.1328,17.7328,18.3066,-24.2332,145.52,55.00
1.295,8,0,,0.000000,0.000000,0.000000,1.0000,0.3350,0.1499,0.5281,0.3350,0.1499,0.5281,0.284805,-0.623055,0.722440,0.093643,0.0064,,0.1919,-0.0959,0.5486,0.2851,1.595470,-0.0207,-0.6906,-0.0973,-2.3875,-0.5364,0.5534,2.0564,-0.1119,0.1769,-0.0744,-1.6733,-17.9639,-18.7783,22.7113,136.09,55.00
1.338,9,1,0.9575,0.819869,1.196919,0.000001,0.9026,0.3350,0.2320,0.5211,0.3350,0.2320,0.5211,0.679940,0.491519,-0.523803,-0.147381,0.0260,,0.2501,-0.0521,0.5243,0.2965,1.735917,-0.0130,-0.7062,-0.1328,-2.3920,-0.0139,1.0678,1.1592,0.1431,-0.0167,-0.1146,-0.1218,17.5506,17.3206,-24.1899,143.23,55.00
1.391,10,1,0.9146,0.829639,1.234177,0.000001,0.8699,0.3350,0.2468,0.5199,0.3350,0.2468,0.5199,-0.291516,-0.614710,0.708501,0.187554,0.0245,,0.1748,-0.0993,0.5415,0.3819,0.653229,-0.0211,-0.6889,-0.1125,-2.4305,-0.5677,0.4473,1.9360,-0.1221,0.1659,0.0711,-1.7410,-18.0343,-18.6428,22.6125,140.21,55.00
1.421,11,1,0.9090,0.826536,1.241332,0.000001,0.8286,0.3350,0.2494,0.5197,0.3350,0.2494,0.5197,-0.207596,-0.623509,0.732703,0.176878,0.0225,,0.2084,-0.0540,0.5129,0.3289,1.368377,-0.0127,-0.7049,-0.1475,-2.4323,-0.0407,0.7950,1.0896,0.1216,-0.0586,-0.1684,-0.0892,17.1775,15.9964,-23.5562,145.52,55.00
1.463,12,1,0.9353,0.811121,1.246171,0.000001,0.8390,0.3350,0.2499,0.5196,0.3350,0.2499,0.5196,-0.160942,-0.632693,0.737965,0.170894,0.0230,,0.1414,-0.0911,0.5537,0.3936,1.159916,-0.0220,-0.6871,-0.1227,-2.4755,-0.5977,0.1520,1.8629,-0.1416,0.1409,0.0787,-1.6729,-18.6113,-18.1093,22.4455,145.52,55.00
1.491,13,1,0.9372,0.795628,1.250330,0.000001,0.8143,0.3350,0.2500,0.5196,0.3350,0.2500,0.5196,-0.162153,-0.633526,0.737832,0.167197,0.0219,,0.1768,-0.0505,0.5114,0.3397,1.639945,-0.0192,-0.7032,-0.1475,-2.4713,-0.0403,0.5785,0.8750,0.0561,-0.0850,-0.1830,-0.0698,17.3802,16.2822,-24.1052,137.80,55.00
1.521,14,1,0.9382,0.781338,1.254307,0.000001,0.8653,0.3350,0.2500,0.5196,0.3350,0.2500,0.5196,-0.164977,-0.649485,0.728195,0.143819,0.0243,,0.1268,-0.0818,0.5598,0.3937,1.411876,-0.0294,-0.6854,-0.1252,-2.5131,-0.5840,-0.0111,1.6223,-0.1448,0.1285,0.0701,-1.4290,-18.8880,-17.3719,22.4494,145.52,55.00
1.551,15,1,0.9210,0.757342,1.275123,0.000001,0.9536,0.3350,0.2500,0.5196,0.3350,0.2500,0.5196,-0.114572,-0.650682,0.735940,0.147913,0.0284,,0.2228,-0.0607,0.4792,0.3327,1.768385,-0.0380,-0.7007,-0.1489,-2.5074,-0.0533,0.9879,0.5777,-0.0148,-0.0230,-0.1443,-0.1474,17.4443,20.0578,-24.6230,135.48,55.00
1.594,16,1,0.9243,0.732868,1.288561,0.000001,0.9140,0.3350,0.2439,0.5196,0.3350,0.2439,0.5196,-0.139376,-0.641644,0.738464,0.153423,0.0265,,0.1775,-0.1065,0.4944,0.3851,1.209790,-0.0465,-0.6833,-0.1229,-2.5401,-0.5636,0.5918,1.3198,-0.1079,0.1694,0.1424,-1.4229,-17.4707,-17.2309,22.5537,145.52,55.00
1.636,17,1,0.8680,0.709074,1.337777,0.000001,0.8847,0.3350,0.1999,0.5196,0.3350,0.1999,0.5196,-0.096664,-0.641697,0.742122,0.167736,0.0252,,0.2435,-0.0619,0.4629,0.2831,1.892434,-0.0391,-0.6973,-0.1526,-2.5415,-0.0428,1.1689,0.4312,0.1407,-0.0213,-0.1249,-0.1292,17.4776,17.7155,-23.9338,144.08,55.00
1.678,18,1,0.8928,0.704633,1.394187,0.000001,0.9001,0.3350,0.1840,0.5196,0.3350,0.1840,0.5196,-0.108630,-0.646696,0.735242,0.171475,0.0259,,0.1708,-0.1079,0.4828,0.3369,1.323542,-0.0476,-0.6807,-0.1345,-2.5760,-0.5673,0.5786,1.1737,-0.1123,0.1656,0.0841,-1.5887,-17.5344,-18.1490,22.4104,139.80,55.00
1.711,19,1,0.6048,0.726800,1.453471,0.000001,0.8881,0.3350,0.2211,0.5196,0.3350,0.2211,0.5196,-0.032274,-0.620604,0.755049,0.209069,0.0253,,0.2289,-0.0590,0.4483,0.3079,2.038559,-0.0447,-0.6948,-0.1631,-2.5797,-0.0182,1.1085,0.2849,0.1001,-0.0304,-0.1262,-0.1289,17.5937,17.7550,-23.8301,138.73,55.00
1.751,20,1,0.7130,0.723224,1.440872,0.000001,0.9018,0.3350,0.2213,0.5196,0.3350,0.2213,0.5196,-0.053260,-0.611769,0.748999,0.248804,0.0260,,0.1594,-0.1003,0.4717,0.3695,1.409261,-0.0538,-0.6783,-0.1395,-2.6128,-0.5139,0.5313,1.0662,-0.1118,0.1592,0.1371,-1.4892,-17.4039,-17.9229,22.7172,145.52,55.00
1.792,21,0,,0.000000,0.000000,0.000000,1.0000,0.3350,0.2213,0.5196,0.3350,0.2213,0.5196,-0.053260,-0.611769,0.748999,0.248804,0.0260,,0.2209,-0.0529,0.4355,0.3087,2.106982,-0.0567,-0.6922,-0.1648,-2.6151,0.0290,1.0918,0.2076,0.0504,-0.0344,-0.1183,-0.1289,17.4797,18.0533,-23.6362,134.98,55.00
1.823,22,0,,0.000000,0.000000,0.000000,1.0000,0.3350,0.2213,0.5196,0.3350,0.2213,0.5196,-0.053260,-0.611769,0.748999,0.248804,0.0260,,0.1562,-0.0968,0.4566,0.3703,1.462508,-0.0663,-0.6759,-0.1422,-2.6460,-0.4729,0.5620,1.0034,-0.1069,0.1591,0.1460,-1.3883,-17.3926,-17.5823,22.8032,145.52,55.00
1.885,23,0,,0.000000,0.000000,0.000000,1.0000,0.3350,0.2213,0.5196,0.3350,0.2213,0.5196,-0.053260,-0.611769,0.748999,0.248804,0.0260,,0.2165,-0.0506,0.4232,0.3119,2.157151,-0.0719,-0.6896,-0.1661,-2.6480,0.0567,1.1043,0.1508,0.0290,-0.0378,-0.1128,-0.1253,17.4123,17.8133,-23.5872,134.75,55.00
1.944,24,0,,0.000000,0.000000,0.000000,1.0000,0.3350,0.2213,0.5196,0.3350,0.2213,0.5196,-0.053260,-0.611769,0.748999,0.248804,0.0260,,0.1468,-0.0940,0.4478,0.3742,1.518244,-0.0819,-0.6735,-0.1441,-2.6789,-0.4506,0.5355,0.9512,-0.1087,0.1552,0.1443,-1.4061,-17.4448,-17.7809,22.8360,145.52,55.00
2.003,25,1,0.9644,0.301376,0.304216,-0.000000,0.3530,0.3350,-0.1652,0.7328,0.3350,-0.1652,0.7328,-0.291393,0.002705,0.290870,0.911305,0.0001,,0.2106,-0.0503,0.4109,0.3637,2.713889,-0.0878,-0.6871,-0.1671,-2.6813,0.0681,1.1131,0.1051,0.0261,-0.0382,-0.1096,-0.1283,17.3624,18.2257,-23.5380,134.83,55.00
2.058,26,1,0.9820,0.298875,0.293824,-0.000000,0.2714,0.3350,-0.2347,0.7712,0.3350,-0.2347,0.7712,-0.277890,0.046349,0.145432,0.948408,0.0000,,0.1425,-0.0934,0.4358,0.4118,1.740737,-0.0899,-0.6712,-0.1455,-2.7116,-0.4452,0.5568,0.9115,-0.0391,0.1547,0.1460,-1.3948,-17.4178,-17.8002,22.8830,136.85,55.00
2.090,27,1,0.9781,0.295251,0.302195,-0.000000,0.2936,0.3350,-0.2473,0.7781,0.3350,-0.2473,0.7781,-0.185043,0.141111,0.115380,0.965678,0.0000,,0.2059,-0.0495,0.3980,0.4475,2.795148,-0.0971,-0.6835,-0.1679,-2.7146,0.0726,1.1322,0.0679,0.0145,-0.0298,-0.1074,-0.1316,17.4004,18.2170,-23.5235,133.06,55.00
2.132,28,1,0.9808,0.293026,0.296143,-0.000000,0.2988,0.3350,-0.2495,0.7793,0.3350,-0.2495,0.7793,-0.192284,0.145966,0.129309,0.961769,0.0000,,0.1376,-0.0923,0.4242,0.4357,1.921993,-0.0967,-0.6677,-0.1468,-2.7441,-0.4407,0.5733,0.8775,-0.0155,0.1540,0.1468,-1.3695,-17.3781,-17.8182,22.9129,135.39,55.00
2.164,29,1,0.9915,0.289688,0.302406,-0.000000,0.1959,0.3350,-0.2499,0.7796,0.3350,-0.2499,0.7796,-0.160496,0.138515,-0.013528,0.977175,0.0000,,0.2002,-0.0480,0.3851,0.4632,2.706564,-0.1039,-0.6793,-0.1688,-2.7486,0.0759,1.1474,0.0362,0.0141,-0.0263,-0.1062,-0.1410,17.4263,18.2239,-23.5090,130.94,55.00
2.208,30,1,0.9936,0.293300,0.290535,-0.000000,0.3463,0.3350,-0.2500,0.7796,0.3350,-0.2500,0.7796,-0.178255,0.045545,0.170759,0.967984,0.0000,,0.1320,-0.0910,0.4126,0.4485,1.705154,-0.1031,-0.6637,-0.1481,-2.7776,-0.4371,0.5878,0.8485,-0.0107,0.1532,0.1470,-1.3511,-17.3459,-17.8140,22.9386,135.18,55.00
2.250,31,1,0.9947,0.292420,0.305461,-0.000000,0.1846,0.3350,-0.2500,0.7796,0.3350,-0.2500,0.7796,-0.173314,0.125507,-0.008132,0.976803,0.0000,,0.1912,-0.0474,0.3742,0.4755,2.667410,-0.1119,-0.6757,-0.1696,-2.7799,0.0683,1.1366,0.0068,-0.0069,-0.0389,-0.1130,-0.1220,17.0352,17.2627,-23.5673,133.21,55.00
2.282,32,1,0.9934,0.293200,0.309415,-0.000000,0.1424,0.3350,-0.2500,0.7796,0.3350,-0.2500,0.7796,-0.164559,0.100103,-0.083739,0.977695,0.0000,,0.1379,-0.0818,0.4004,0.4593,1.916378,-0.1048,-0.6562,-0.1395,-2.7844,-0.3487,0.6783,0.8149,0.0900,0.1565,0.7194,0.0412,-8.9005,-7.5284,23.0360,136.01,55.00
2.325,33,1,0.9953,0.291678,0.309039,-0.000000,0.2070,0.3350,-0.2500,0.7796,0.3350,-0.2500,0.7796,-0.156563,0.135119,-0.082073,0.974933,0.0000,,0.1259,0.0180,0.4813,0.4523,2.287433,-0.1055,-0.6486,-0.1583,-2.8005,0.6795,0.1407,0.0264,0.0312,0.0187,-0.1304,-0.1601,20.2717,4.8780,-13.6876,100.98,55.00
2.364,34,1,0.9952,0.292481,0.316742,-0.000000,0.3682,0.3350,-0.2500,0.7796,0.3350,-0.2500,0.7796,-0.150833,0.195093,0.088435,0.965074,0.0009,,0.1026,-0.0167,0.4846,0.4421,1.359700,-0.0907,-0.6341,-0.1398,-2.8191,0.1761,-0.0723,1.1331,0.1476,0.1296,0.1888,-0.2400,-19.2408,0.7748,23.2781,145.52,55.00
2.403,35,1,0.9913,0.297686,0.309920,0.000000,0.3453,0.3350,-0.2500,0.7796,0.3350,-0.2500,0.7796,-0.155754,0.111082,0.063788,0.979455,0.0000,,0.1185,0.0109,0.4892,0.4464,1.978439,-0.1052,-0.6242,-0.1581,-2.8338,0.6933,-0.0229,0.3446,-0.1010,0.0705,-0.1326,-0.1405,18.1686,0.5089,-19.6346,123.84,55.00
2.431,36,1,0.9934,0.297037,0.311145,-0.000000,0.2341,0.3350,-0.2500,0.7796,0.3350,-0.2500,0.7796,-0.183724,0.089111,-0.072192,0.976265,0.0000,,0.0999,-0.0248,0.4703,0.4490,1.164357,-0.0905,-0.6152,-0.1400,-2.8362,0.0458,-0.0267,1.8700,0.1454,0.0921,0.1846,-0.1177,-19.6753,0.1325,26.2102,127.61,55.00
2.471,37,1,0.9955,0.296507,0.311530,-0.000000,0.3107,0.3350,-0.2500,0.7796,0.3350,-0.2500,0.7796,-0.148914,0.136730,0.012411,0.979273,0.0000,,0.0977,-0.0500,0.4701,0.4383,1.271458,-0.1054,-0.6077,-0.1625,-2.8233,-0.1435,-0.0224,1.8194,-0.1336,0.0585,-0.1719,-0.0675,3.2795,0.0099,-9.8572,120.53,55.00
2.499,38,1,0.9914,0.298301,0.305647,-0.000000,0.2558,0.3350,-0.2500,0.7796,0.3350,-0.2500,0.7796,-0.208764,0.034479,-0.058199,0.975624,0.0000,,0.1362,-0.1347,0.5305,0.3389,2.482542,-0.0949,-0.5969,-0.1462,-2.8347,-1.6735,-0.0187,2.1888,0.0383,0.0969,0.0563,-0.1191,-23.6309,0.0430,0.0147,118.02,55.00
2.530,39,1,0.9956,0.303072,0.306993,-0.000000,0.3142,0.3350,-0.2500,0.7796,0.3350,-0.2500,0.7796,-0.169238,0.078723,0.070014,0.979928,0.0000,,0.1194,-0.1331,0.5133,0.3620,1.121406,-0.1085,-0.5986,-0.1630,-2.8276,-1.3129,-0.0215,0.6239,-0.1488,-0.0049,-0.2040,-0.0083,18.3908,-0.0099,-25.3206,119.94,55.00
2.561,40,1,0.9933,0.305644,0.313473,-0.000000,0.2227,0.3350,-0.2500,0.7796,0.3350,-0.2500,0.7796,-0.163105,0.039508,-0.042351,0.984907,0.0000,,0.1479,-0.1360,0.5395,0.3250,2.105800,-0.0954,-0.5839,-0.1486,-2.8399,-1.8493,-0.0206,1.5367,0.0807,0.1292,0.0822,-0.0869,-18.0782,0.0346,23.7504,122.38,55.00
2.602,41,1,0.9921,0.305445,0.309066,-0.000000,0.2792,0.3350,-0.2500,0.7796,0.3350,-0.2500,0.7796,-0.175476,0.085986,-0.041342,0.979850,0.0000,,0.1154,-0.1283,0.5010,0.3751,1.204994,-0.1087,-0.5832,-0.1649,-2.8377,-1.1871,-0.0205,0.7489,-0.1516,0.0153,-0.2084,-0.0578,19.5780,0.0047,-23.0210,114.48,55.00
2.629,42,1,0.9942,0.307033,0.316755,-0.000000,0.2420,0.3350,-0.2500,0.7796,0.3350,-0.2500,0.7796,-0.172731,0.128839,0.018175,0.976337,0.0000,,0.1402,-0.1353,0.5227,0.3422,1.928643,-0.0951,-0.5684,-0.1496,-2.8496,-1.6718,-0.0203,1.5546,0.0849,0.1308,0.0895,-0.0947,-17.9486,0.0023,22.9867,124.70,55.00
2.668,43,1,0.9921,0.306041,0.308282,-0.000000,0.2159,0.3350,-0.2500,0.7796,0.3350,-0.2500,0.7796,-0.184919,0.049282,-0.106814,0.975688,0.0000,,0.1089,-0.1184,0.4853,0.3938,1.106716,-0.1089,-0.5660,-0.1669,-2.8501,-0.9986,-0.0202,0.7382,-0.1485,0.0310,-0.2037,-0.0918,19.5948,0.0073,-23.0768,113.99,55.00
2.712,44,1,0.9964,0.304623,0.315841,-0.000000,0.2086,0.3350,-0.2500,0.7796,0.3350,-0.2500,0.7796,-0.167822,0.077480,-0.114206,0.976109,0.0000,,0.1320,-0.1318,0.5056,0.3609,1.877289,-0.0948,-0.5515,-0.1506,-2.8621,-1.4940,-0.0199,1.5392,0.0891,0.1304,0.0969,-0.1108,-18.0959,0.0031,22.9601,123.47,55.00
2.752,45,1,0.9958,0.302894,0.314941,-0.000000,0.1880,0.3350,-0.2500,0.7796,0.3350,-0.2500,0.7796,-0.163930,0.072836,-0.131417,0.974962,0.0000,,0.1040,-0.1077,0.4722,0.4101,1.093214,-0.1090,-0.5481,-0.1686,-2.8644,-0.8356,-0.0205,0.7210,-0.1442,0.0400,-0.1969,-0.1118,19.4609,0.0050,-23.0876,115.27,55.00
2.792,46,1,0.9951,0.303201,0.313814,-0.000000,0.2312,0.3350,-0.2500,0.7796,0.3350,-0.2500,0.7796,-0.177471,0.060104,-0.116369,0.975371,0.0000,,0.1235,-0.1251,0.4891,0.3805,1.680732,-0.0946,-0.5347,-0.1515,-2.8748,-1.3074,-0.0200,1.5230,0.0955,0.1224,0.1072,-0.1124,-17.8964,0.0045,22.9619,122.13,55.00
2.832,47,1,0.9954,0.302240,0.319190,-0.000000,0.1638,0.3350,-0.2500,0.7796,0.3350,-0.2500,0.7796,-0.166417,0.079672,-0.140929,0.972675,0.0000,,0.0991,-0.0929,0.4597,0.4274,1.043238,-0.1092,-0.5305,-0.1701,-2.8786,-0.6389,-0.0207,0.7044,-0.1383,0.0461,-0.1877,-0.1287,19.4377,0.0042,-23.0978,116.09,55.00
2.863,48,1,0.9957,0.305275,0.319989,-0.000000,0.2423,0.3350,-0.2500,0.7796,0.3350,-0.2500,0.7796,-0.156566,0.124421,-0.053779,0.978322,0.0000,,0.1164,-0.1171,0.4751,0.3977,1.568767,-0.0944,-0.5172,-0.1523,-2.8885,-1.1480,-0.0207,1.5365,0.0998,0.1231,0.1145,-0.1228,-18.2854,0.0017,23.1479,124.25,55.00
2.904,49,1,0.9943,0.306374,0.317762,-0.000000,0.2165,0.3350,-0.2500,0.7796,0.3350,-0.2500,0.7796,-0.174330,0.093156,-0.112255,0.973822,0.0000,,0.0967,-0.0826,0.4515,0.4387,1.004716,-0.1092,-0.5131,-0.1712,-2.8924,-0.5155,-0.0209,0.7316,-0.1338,0.0445,-0.1804,-0.1284,19.1881,0.0052,-23.0340,116.56,55.00
2.946,50,1,0.9940,0.307339,0.314123,-0.000000,0.1970,0.3350,-0.2500,0.7796,0.3350,-0.2500,0.7796,-0.175690,0.076876,-0.167180,0.967096,0.0000,,0.1123,-0.1113,0.4657,0.4091,1.533354,-0.0943,-0.5010,-0.1532,-2.9013,-1.0530,-0.0204,1.5359,0.1025,0.1135,0.1193,-0.1238,-18.4890,0.0047,22.9692,121.73,55.00
2.985,51,1,0.9939,0.308586,0.314446,-0.000000,0.2805,0.3350,-0.2500,0.7796,0.3350,-0.2500,0.7796,-0.157909,0.090808,-0.030528,0.982795,0.0000,,0.0954,-0.0760,0.4461,0.4460,0.918446,-0.1092,-0.4980,-0.1722,-2.9038,-0.4404,-0.0209,0.7184,-0.1309,0.0342,-0.1757,-0.1141,19.0442,0.0039,-23.0914,116.10,55.00
3.029,52,1,0.9947,0.306536,0.318102,-0.000000,0.2203,0.3350,-0.2500,0.7796,0.3350,-0.2500,0.7796,-0.165572,0.071202,-0.094036,0.979119,0.0000,,0.1098,-0.1073,0.4592,0.4168,1.397746,-0.0942,-0.4869,-0.1541,-2.9113,-0.9927,-0.0205,1.5280,0.1043,0.1062,0.1225,-0.1180,-18.6023,0.0044,23.0089,120.90,55.00
3.072,53,1,0.9934,0.306530,0.312166,-0.000000,0.2251,0.3350,-0.2500,0.7796,0.3350,-0.2500,0.7796,-0.175301,0.046223,-0.138185,0.973672,0.0000,,0.0944,-0.0716,0.4414,0.4518,0.908417,-0.1091,-0.4828,-0.1732,-2.9157,-0.3932,-0.0205,0.7133,-0.1290,0.0431,-0.1726,-0.1290,18.9455,0.0047,-23.0780,115.43,55.00
3.113,54,1,0.9944,0.306466,0.318724,-0.000000,0.1945,0.3350,-0.2500,0.7796,0.3350,-0.2500,0.7796,-0.172628,0.088868,-0.156757,0.968364,0.0000,,0.1079,-0.1045,0.4534,0.4233,1.424000,-0.0942,-0.4718,-0.1550,-2.9234,-0.9551,-0.0205,1.5263,0.1053,0.1049,0.1246,-0.1229,-18.6750,0.0033,23.0291,120.85,55.00
3.152,55,1,0.9948,0.307378,0.316564,-0.000000,0.2923,0.3350,-0.2500,0.7796,0.3350,-0.2500,0.7796,-0.176417,0.095930,0.015010,0.979515,0.0000,,0.0937,-0.0686,0.4378,0.4560,0.889784,-0.1091,-0.4692,-0.1740,-2.9253,-0.3633,-0.0208,0.7131,-0.1277,0.0294,-0.1704,-0.1066,18.8864,0.0042,-23.0711,115.69,55.00
3.192,56,1,0.9932,0.305887,0.312925,-0.000000,0.2002,0.3350,-0.2500,0.7796,0.3350,-0.2500,0.7796,-0.191587,0.043520,-0.148625,0.969181,0.0000,,0.1062,-0.0993,0.4489,0.4294,1.233663,-0.0942,-0.4596,-0.1554,-2.9248,-0.8715,-0.0219,1.4450,0.1140,0.0852,0.1378,-0.0824,-15.4684,-0.0048,18.5618,118.63,55.00
3.233,57,1,0.9942,0.305625,0.315208,-0.000000,0.2273,0.3350,-0.2500,0.7796,0.3350,-0.2500,0.7796,-0.168144,0.092593,-0.054579,0.979885,0.0000,,0.0959,-0.0437,0.4336,0.4685,1.194306,-0.1090,-0.4551,-0.1744,-2.9296,-0.0688,-0.0208,0.3863,-0.1156,0.0431,-0.1534,-0.1331,19.7769,0.0088,-24.0250,116.02,55.00
3.277,58,1,0.9949,0.307435,0.319343,-0.000000,0.2372,0.3350,-0.2500,0.7796,0.3350,-0.2500,0.7796,-0.147104,0.122739,-0.021590,0.981239,0.0000,,0.1003,-0.0638,0.4386,0.4539,1.034854,-0.0945,-0.4447,-0.1546,-2.9130,-0.3844,-0.0337,1.5489,0.1130,0.1182,0.2258,1.9617,-0.5529,-0.1880,9.4860,121.08,55.00
3.319,59,1,0.9918,0.308763,0.313341,-0.000000,0.2967,0.3350,-0.2500,0.7796,0.3350,-0.2500,0.7796,-0.166936,0.042039,-0.017031,0.984924,0.0000,,0.1082,-0.0505,0.4410,0.4538,0.865038,-0.1089,-0.4365,-0.1763,-2.8763,-0.1152,-0.0225,0.8297,-0.1251,0.0780,-0.1633,-0.1074,12.1434,0.0447,-18.7446,121.60,55.00
3.351,60,1,0.9922,0.307359,0.316691,-0.000000,0.1804,0.3350,-0.2500,0.7796,0.3350,-0.2500,0.7796,-0.169257,0.059764,-0.132587,0.974783,0.0000,,0.1265,-0.1168,0.4616,0.4029,1.759720,-0.0943,-0.4271,-0.1584,-2.8836,-1.1032,-0.0207,1.8781,0.0934,0.0935,0.1096,-0.1292,-20.5847,0.0036,23.9568,119.42,55.00
3.392,61,1,0.9925,0.306336,0.318198,-0.000000,0.2095,0.3350,-0.2500,0.7796,0.3350,-0.2500,0.7796,-0.181720,0.103190,-0.086766,0.974064,0.0000,,0.1091,-0.0920,0.4455,0.4332,1.053630,-0.1091,-0.4253,-0.1773,-2.8853,-0.6052,-0.0233,1.2745,-0.1376,0.0262,-0.1822,-0.1042,18.6978,0.0405,-20.5479,116.68,55.00
3.432,62,1,0.9930,0.306971,0.316054,-0.000000,0.2307,0.3350,-0.2500,0.7796,0.3350,-0.2500,0.7796,-0.162235,0.089431,-0.052015,0.981314,0.0000,,0.1306,-0.1215,0.4619,0.3990,2.055431,-0.0944,-0.4142,-0.1594,-2.8931,-1.1906,-0.0203,2.1745,0.1100,0.1013,0.1366,-0.1143,-19.2557,0.0727,11.9094,120.73,55.00
3.472,63,1,0.9920,0.307080,0.314285,-0.000000,0.2451,0.3350,-0.2500,0.7796,0.3350,-0.2500,0.7796,-0.163104,0.077170,-0.064551,0.981466,0.0000,,0.1093,-0.0933,0.4432,0.4343,0.909532,-0.1090,-0.4128,-0.1782,-2.8928,-0.6245,-0.0241,1.0653,-0.1382,0.0226,-0.1835,-0.0886,18.8754,0.0658,-22.4861,116.81,55.00
3.512,64,1,0.9948,0.307148,0.316878,-0.000000,0.1985,0.3350,-0.2500,0.7796,0.3350,-0.2500,0.7796,-0.166021,0.072645,-0.125016,0.975464,0.0000,,0.1305,-0.1212,0.4582,0.4022,1.845228,-0.0945,-0.4014,-0.1606,-2.9013,-1.1858,-0.0204,1.9111,0.0952,0.1070,0.1133,-0.1109,-18.5894,0.0057,23.1785,120.17,55.00
3.628,65,1,0.9946,0.307472,0.316547,-0.000000,0.2275,0.3350,-0.2500,0.7796,0.3350,-0.2500,0.7796,-0.181404,0.064495,-0.105374,0.975617,0.0000,,0.1077,-0.0891,0.4385,0.4403,0.932521,-0.1091,-0.3998,-0.1792,-2.9024,-0.5750,-0.0226,1.1919,-0.1366,0.0240,-0.1808,-0.1033,19.1186,0.0364,-21.3290,115.31,55.00
3.658,66,1,0.9916,0.309176,0.314800,-0.000000,0.2567,0.3350,-0.2500,0.7796,0.3350,-0.2500,0.7796,-0.172178,0.067071,-0.036058,0.982118,0.0000,,0.1185,-0.0978,0.4449,0.4267,1.322131,-0.0942,-0.3899,-0.1596,-2.8892,-0.7951,-0.0236,1.7541,0.1209,0.0890,0.1484,-0.0637,-11.4547,0.0475,16.1568,118.87,55.00
3.695,67,1,0.9953,0.308172,0.314614,-0.000000,0.2265,0.3350,-0.2500,0.7796,0.3350,-0.2500,0.7796,-0.159171,0.085749,-0.081396,0.980146,0.0000,,0.1105,-0.0529,0.4330,0.4576,0.945219,-0.1089,-0.3858,-0.1807,-2.8878,-0.1395,-0.0210,0.7176,-0.1251,0.0383,-0.1635,-0.0772,12.4686,0.0024,-20.9289,116.35,55.00
3.737,68,1,0.9945,0.307027,0.317802,-0.000000,0.2004,0.3350,-0.2500,0.7796,0.3350,-0.2500,0.7796,-0.172739,0.078986,-0.104315,0.976238,0.0000,,0.1296,-0.1168,0.4518,0.4091,1.520471,-0.0944,-0.3767,-0.1628,-2.8946,-1.0917,-0.0206,1.6635,0.0939,0.0915,0.1114,-0.1255,-20.3724,0.0048,23.6128,118.63,55.00
3.779,69,1,0.9944,0.308426,0.316687,-0.000000,0.2335,0.3350,-0.2500,0.7796,0.3350,-0.2500,0.7796,-0.163870,0.092380,-0.057600,0.980457,0.0000,,0.1115,-0.0912,0.4367,0.4390,0.837178,-0.1090,-0.3755,-0.1816,-2.8958,-0.5873,-0.0206,0.9271,-0.1368,0.0201,-0.1813,-0.0994,18.6430,0.0039,-22.6019,115.21,55.00
3.822,70,1,0.9959,0.307590,0.318820,-0.000000,0.2007,0.3350,-0.2500,0.7796,0.3350,-0.2500,0.7796,-0.160814,0.100582,-0.106963,0.976003,0.0000,,0.1330,-0.1209,0.4514,0.4064,1.691462,-0.0945,-0.3645,-0.1638,-2.9039,-1.1657,-0.0204,1.7644,0.0953,0.1045,0.1142,-0.1106,-18.6899,0.0041,23.1363,119.55,55.00
3.864,71,1,0.9934,0.307690,0.317104,-0.000000,0.2239,0.3350,-0.2500,0.7796,0.3350,-0.2500,0.7796,-0.159062,0.090237,-0.100311,0.978005,0.0000,,0.1103,-0.0893,0.4331,0.4431,0.885525,-0.1090,-0.3629,-0.1824,-2.9052,-0.5681,-0.0196,1.0422,-0.1364,0.0237,-0.1802,-0.1045,18.9853,-0.0187,-22.2197,115.18,55.00
3.895,72,1,0.9942,0.307913,0.318075,-0.000000,0.2269,0.3350,-0.2500,0.7796,0.3350,-0.2500,0.7796,-0.170813,0.063535,-0.123953,0.975409,0.0000,,0.1304,-0.1183,0.4463,0.4126,1.745769,-0.0945,-0.3528,-0.1646,-2.9123,-1.1222,-0.0202,1.9068,0.0971,0.0964,0.1174,-0.1034,-18.5883,0.0042,23.2615,118.03,55.00
4.612,73,1,0.9924,0.306002,0.313697,-0.000000,0.2731,0.3350,-0.2500,0.7796,0.3350,-0.2500,0.7796,-0.165747,0.103785,-0.026371,0.980337,0.0000,,0.1092,-0.0848,0.4302,0.4476,0.831874,-0.1090,-0.3525,-0.1832,-2.9117,-0.5175,-0.0238,1.1493,-0.1346,0.0123,-0.1774,-0.0889,19.0431,0.0643,-21.7387,115.80,55.00
4.656,74,1,0.9928,0.307170,0.311560,-0.000000,0.2029,0.3350,-0.2500,0.7796,0.3350,-0.2500,0.7796,-0.169962,0.052397,-0.151135,0.972381,0.0000,,0.1219,-0.0941,0.4374,0.4322,1.271370,-0.0942,-0.3427,-0.1634,-2.8858,-0.7253,-0.0243,1.6510,0.1237,0.0849,0.1531,-0.0597,-9.9322,0.0580,13.9567,118.13,55.00
4.696,75,1,0.9958,0.305599,0.319459,-0.000000,0.1755,0.3350,-0.2500,0.7796,0.3350,-0.2500,0.7796,-0.173332,0.121113,-0.074718,0.974528,0.0000,,0.1192,-0.0361,0.4279,0.4648,1.253095,-0.1089,-0.3380,-0.1834,-2.8876,0.0805,-0.0211,0.4728,-0.1159,0.0435,-0.1514,-0.1038,15.8128,0.0061,-22.8538,116.61,55.00
4.736,76,1,0.9945,0.307891,0.308859,-0.000000,0.2836,0.3350,-0.2500,0.7796,0.3350,-0.2500,0.7796,-0.172883,0.090082,0.005870,0.980797,0.0000,,0.1218,-0.0811,0.4334,0.4403,0.983024,-0.0942,-0.3292,-0.1630,-2.8727,-0.5520,-0.0257,1.5896,0.1362,0.0425,0.1750,1.0506,-10.1617,-0.0160,15.6885,118.12,55.00
4.776,77,1,0.9916,0.307883,0.314278,-0.000000,0.2365,0.3350,-0.2500,0.7796,0.3350,-0.2500,0.7796,-0.154347,0.078049,-0.074045,0.982142,0.0000,,0.1250,-0.0332,0.4286,0.4629,1.140758,-0.1089,-0.3236,-0.1829,-2.8739,0.1281,-0.0216,0.5584,-0.1157,0.0551,-0.1507,-0.1238,15.1182,0.0112,-22.1021,118.43,55.00
4.806,78,1,0.9893,0.305365,0.306131,-0.000000,0.2479,0.3350,-0.2500,0.7796,0.3350,-0.2500,0.7796,-0.160620,0.045044,-0.095658,0.981337,0.0000,,0.1248,-0.0907,0.4334,0.4352,1.104860,-0.0939,-0.3165,-0.1642,-2.8766,-0.6869,-0.0204,1.5869,0.1136,0.0756,0.1395,-0.1124,-19.9685,0.0028,24.0020,116.44,55.00
4.849,79,1,0.9929,0.304046,0.309121,-0.000000,0.2252,0.3350,-0.2500,0.7796,0.3350,-0.2500,0.7796,-0.162733,0.045432,-0.100847,0.980451,0.0000,,0.1181,-0.0582,0.4255,0.4574,0.781252,-0.1091,-0.3146,-0.1837,-2.8810,-0.1688,-0.0204,0.8202,-0.1226,0.0233,-0.1612,-0.1182,18.5538,0.0039,-22.9305,114.57,55.00
4.880,80,1,0.9948,0.301665,0.307168,-0.000000,0.2348,0.3350,-0.2500,0.7796,0.3350,-0.2500,0.7796,-0.157635,0.075575,-0.025972,0.984259,0.0000,,0.1251,-0.0936,0.4317,0.4354,1.130828,-0.0940,-0.3058,-0.1649,-2.8851,-0.7259,-0.0204,1.6351,0.1135,0.0892,0.1398,-0.1060,-18.5774,0.0042,23.0215,117.64,55.00
4.923,81,1,0.9881,0.300882,0.306240,-0.000000,0.2410,0.3350,-0.2500,0.7796,0.3350,-0.2500,0.7796,-0.161162,0.130244,0.017649,0.978137,0.0000,,0.1178,-0.0552,0.4231,0.4606,0.871128,-0.1091,-0.3042,-0.1843,-2.8880,-0.1376,-0.0207,0.8205,-0.1210,0.0203,-0.1590,-0.1089,18.7695,0.0030,-23.0842,115.67,55.00
4.963,82,1,0.9898,0.296637,0.302247,-0.000000,0.2543,0.3350,-0.2500,0.7796,0.3350,-0.2500,0.7796,-0.139611,0.070537,-0.024219,0.987394,0.0000,,0.1244,-0.0892,0.4290,0.4395,1.049118,-0.0941,-0.2957,-0.1650,-2.8857,-0.6599,-0.0218,1.5552,0.1214,0.0661,0.1518,-0.0431,-14.2656,-0.0297,18.0970,117.20,55.00
4.993,83,1,0.9894,0.296182,0.301986,-0.000000,0.2506,0.3350,-0.2500,0.7796,0.3350,-0.2500,0.7796,-0.132014,0.078862,0.005876,0.988088,0.0000,,0.1264,-0.0272,0.4230,0.4694,1.207992,-0.1089,-0.2937,-0.1840,-2.8898,0.2058,-0.0204,0.4596,-0.1036,0.0225,-0.1353,-0.1146,19.9537,0.0082,-24.2134,114.63,55.00
5.032,84,1,0.9930,0.294554,0.299280,-0.000000,0.2426,0.3350,-0.2500,0.7796,0.3350,-0.2500,0.7796,-0.144015,0.074964,0.037223,0.986030,0.0000,,0.1214,-0.0495,0.4216,0.4625,0.721795,-0.0940,-0.2860,-0.1650,-2.8888,-0.1941,-0.0260,1.6040,0.1342,0.0777,0.1684,-0.0864,-17.8678,0.1388,24.4207,117.10,55.00
5.072,85,1,0.9950,0.293645,0.302618,-0.000000,0.2044,0.3350,-0.2500,0.7796,0.3350,-0.2500,0.7796,-0.154704,0.108632,-0.011461,0.981903,0.0000,,0.1251,-0.0679,0.4254,0.4502,0.776377,-0.1088,-0.2830,-0.1867,-2.8593,-0.2801,-0.0215,1.2800,-0.1304,0.0251,-0.1682,-0.0424,7.1003,0.0298,-14.6732,115.38,55.00
5.116,86,1,0.9895,0.295171,0.301907,-0.000000,0.2551,0.3350,-0.2500,0.7796,0.3350,-0.2500,0.7796,-0.151380,0.099159,0.054104,0.982000,0.0000,,0.1739,-0.1410,0.4606,0.3736,2.396457,-0.0950,-0.2751,-0.1698,-2.8667,-1.5602,-0.0192,2.2528,0.0694,0.0746,0.0815,-0.1001,-22.7031,0.0658,2.6277,116.53,55.00
5.146,87,1,0.9932,0.292066,0.300105,-0.000000,0.1641,0.3350,-0.2500,0.7796,0.3350,-0.2500,0.7796,-0.208120,0.043085,-0.090864,0.972920,0.0000,,0.1500,-0.1336,0.4470,0.3980,0.952119,-0.1083,-0.2755,-0.1867,-2.8637,-1.1538,-0.0203,0.8887,-0.1499,0.0059,-0.1966,-0.0512,18.4276,-0.0065,-23.7559,114.91,55.00
5.185,88,1,0.9933,0.291557,0.302229,-0.000000,0.1885,0.3350,-0.2500,0.7796,0.3350,-0.2500,0.7796,-0.186257,0.022946,-0.087129,0.978361,0.0000,,0.1858,-0.1443,0.4649,0.3639,1.981443,-0.0956,-0.2654,-0.1713,-2.8718,-1.7180,-0.0189,1.6714,0.0754,0.0916,0.0899,-0.0619,-18.4152,0.0076,22.9766,114.70,55.00
5.230,89,1,0.9906,0.293182,0.305909,-0.000000,0.2591,0.3350,-0.2500,0.7796,0.3350,-0.2500,0.7796,-0.163533,0.056011,0.029902,0.984493,0.0000,,0.1474,-0.1310,0.4436,0.4028,0.849858,-0.1084,-0.2696,-0.1877,-2.8656,-1.1016,-0.0198,0.8540,-0.1518,-0.0262,-0.1994,-0.0267,19.1518,0.0031,-23.0793,116.43,55.00
5.257,90,1,0.9940,0.297231,0.306764,-0.000000,0.2414,0.3350,-0.2500,0.7796,0.3350,-0.2500,0.7796,-0.188546,0.078164,0.032118,0.978422,0.0000,,0.1788,-0.1427,0.4593,0.3722,1.800271,-0.0953,-0.2599,-0.1718,-2.8724,-1.6138,-0.0196,1.6570,0.0793,0.0899,0.0952,-0.0592,-18.1737,0.0042,22.9782,115.98,55.00
5.285,91,1,0.9962,0.298574,0.310043,-0.000000,0.1976,0.3350,-0.2500,0.7796,0.3350,-0.2500,0.7796,-0.193021,0.052281,-0.086067,0.976013,0.0000,,0.1411,-0.1238,0.4371,0.4133,0.823345,-0.1086,-0.2613,-0.1887,-2.8701,-0.9801,-0.0195,0.8392,-0.1499,-0.0020,-0.1970,-0.0668,19.2203,0.0053,-23.0859,113.42,55.00
5.324,92,1,0.9956,0.299448,0.314240,-0.000000,0.2156,0.3350,-0.2500,0.7796,0.3350,-0.2500,0.7796,-0.149154,0.085307,-0.081964,0.981712,0.0000,,0.1702,-0.1394,0.4512,0.3837,1.822684,-0.0951,-0.2508,-0.1722,-2.8783,-1.4921,-0.0195,1.6413,0.0830,0.0977,0.1004,-0.0801,-18.2149,0.0038,22.9705,116.16,55.00
5.353,93,1,0.9947,0.300124,0.309529,-0.000000,0.2367,0.3350,-0.2500,0.7796,0.3350,-0.2500,0.7796,-0.170440,0.101346,-0.060686,0.978262,0.0000,,0.1355,-0.1158,0.4308,0.4236,0.808058,-0.1087,-0.2520,-0.1896,-2.8763,-0.8623,-0.0200,0.8231,-0.1471,-0.0002,-0.1931,-0.0732,19.1739,0.0038,-23.0899,114.51,55.00
5.389,94,1,0.9952,0.301074,0.312913,-0.000000,0.2000,0.3350,-0.2500,0.7796,0.3350,-0.2500,0.7796,-0.170438,0.077561,-0.111253,0.975991,0.0000,,0.1628,-0.1354,0.4441,0.3942,1.685747,-0.0949,-0.2417,-0.1726,-2.8842,-1.3836,-0.0195,1.6246,0.0864,0.0967,0.1053,-0.0876,-18.3051,0.0054,22.9662,115.88,55.00
5.430,95,1,0.9942,0.304691,0.312879,-0.000000,0.2234,0.3350,-0.2500,0.7796,0.3350,-0.2500,0.7796,-0.177607,0.068864,-0.074892,0.978828,0.0000,,0.1311,-0.1084,0.4255,0.4324,0.709717,-0.1088,-0.2427,-0.1904,-2.8831,-0.7628,-0.0197,0.8062,-0.1441,0.0024,-0.1891,-0.0825,19.0982,0.0039,-23.0918,113.81,55.00
5.459,96,1,0.9930,0.303899,0.314225,-0.000000,0.2612,0.3350,-0.2500,0.7796,0.3350,-0.2500,0.7796,-0.160575,0.078533,-0.004854,0.983882,0.0000,,0.1569,-0.1314,0.4384,0.4028,1.529958,-0.0948,-0.2335,-0.1731,-2.8890,-1.2943,-0.0197,1.6075,0.0894,0.0883,0.1095,-0.0798,-18.3926,0.0044,22.9637,115.80,55.00
5.505,97,1,0.9945,0.306210,0.316935,-0.000000,0.2356,0.3350,-0.2500,0.7796,0.3350,-0.2500,0.7796,-0.148733,0.096526,-0.034194,0.983561,0.0000,,0.1282,-0.1022,0.4217,0.4390,0.693269,-0.1089,-0.2346,-0.1911,-2.8876,-0.6824,-0.0200,0.7890,-0.1416,0.0003,-0.1856,-0.0814,19.0281,0.0036,-23.0926,114.67,55.00
5.546,98,1,0.9944,0.305821,0.310353,-0.000000,0.2700,0.3350,-0.2500,0.7796,0.3350,-0.2500,0.7796,-0.155331,0.064597,-0.036326,0.985079,0.0000,,0.1523,-0.1278,0.4338,0.4098,1.469895,-0.0947,-0.2258,-0.1735,-2.8933,-1.2230,-0.0196,1.5901,0.0919,0.0863,0.1129,-0.0838,-18.4671,0.0054,22.9621,115.34,55.00
5.589,99,1,0.9945,0.306976,0.315480,-0.000000,0.2372,0.3350,-0.2500,0.7796,0.3350,-0.2500,0.7796,-0.160096,0.105221,-0.025620,0.981143,0.0000,,0.1260,-0.0970,0.4186,0.4443,0.673858,-0.1089,-0.2267,-0.1918,-2.8923,-0.6188,-0.0201,0.7716,-0.1394,0.0019,-0.1826,-0.0851,18.9669,0.0031,-23.0930,114.70,55.00
5.630,100,1,0.9949,0.305697,0.317861,-0.000000,0.2070,0.3350,-0.2500,0.7796,0.3350,-0.2500,0.7796,-0.170437,0.078627,-0.099983,0.977125,0.0000,,0.1487,-0.1246,0.4297,0.4158,1.425599,-0.0946,-0.2176,-0.1740,-2.8986,-1.1668,-0.0197,1.5727,0.0939,0.0889,0.1158,-0.0937,-18.5270,0.0055,22.9608,115.45,55.00
5.672,101,1,0.9937,0.306284,0.316148,-0.000000,0.2418,0.3350,-0.2500,0.7796,0.3350,-0.2500,0.7796,-0.155298,0.091805,-0.034305,0.982994,0.0000,,0.1242,-0.0927,0.4157,0.4490,0.638950,-0.1089,-0.2184,-0.1923,-2.8980,-0.5690,-0.0200,0.7541,-0.1375,0.0026,-0.1800,-0.0879,18.9149,0.0034,-23.0934,114.36,55.00
5.716,102,1,0.9938,0.307825,0.311057,-0.000000,0.2600,0.3350,-0.2500,0.7796,0.3350,-0.2500,0.7796,-0.177891,0.106136,-0.025309,0.977982,0.0000,,0.1458,-0.1219,0.4261,0.4209,1.314797,-0.0945,-0.2094,-0.1744,-2.9037,-1.1228,-0.0199,1.5551,0.0955,0.0880,0.1181,-0.0933,-18.5743,0.0046,22.9598,116.01,55.00
5.747,103,1,0.9938,0.306351,0.313681,-0.000000,0.1951,0.3350,-0.2500,0.7796,0.3350,-0.2500,0.7796,-0.177257,0.102956,-0.126372,0.970572,0.0000,,0.1225,-0.0892,0.4127,0.4535,0.734243,-0.1089,-0.2085,-0.1928,-2.9056,-0.5312,-0.0200,0.7365,-0.1359,0.0169,-0.1778,-0.1084,18.8655,0.0039,-23.0935,113.87,55.00
5.790,104,1,0.9940,0.305359,0.318084,-0.000000,0.2214,0.3350,-0.2500,0.7796,0.3350,-0.2500,0.7796,-0.171085,0.096174,-0.113411,0.973970,0.0000,,0.1431,-0.1196,0.4224,0.4259,1.334702,-0.0945,-0.1997,-0.1749,-2.9115,-1.0898,-0.0197,1.5375,0.0966,0.0859,0.1199,-0.0975,-18.6120,0.0052,22.9593,115.32,55.00
5.830,105,1,0.9903,0.307983,0.312525,-0.000000,0.2648,0.3350,-0.2500,0.7796,0.3350,-0.2500,0.7796,-0.171650,0.064495,-0.012279,0.982968,0.0000,,0.1218,-0.0887,0.4110,0.4554,0.553683,-0.1089,-0.2010,-0.1933,-2.9104,-0.5284,-0.0197,0.7179,-0.1354,-0.0021,-0.1769,-0.0804,18.6063,0.0043,-23.0963,114.01,55.00
5.872,106,1,0.9930,0.306419,0.315472,-0.000000,0.2025,0.3350,-0.2500,0.7796,0.3350,-0.2500,0.7796,-0.171897,0.014797,-0.098080,0.980109,0.0000,,0.1438,-0.1206,0.4215,0.4261,1.280736,-0.0946,-0.1939,-0.1754,-2.9144,-1.1067,-0.0191,1.5277,0.0956,0.0720,0.1187,-0.0818,-18.7143,0.0056,23.0165,113.44,55.00
5.913,107,1,0.9935,0.306975,0.310690,-0.000000,0.2572,0.3350,-0.2500,0.7796,0.3350,-0.2500,0.7796,-0.169808,0.024785,-0.060708,0.983293,0.0000,,0.1219,-0.0904,0.4101,0.4554,0.510649,-0.1089,-0.1950,-0.1937,-2.9138,-0.5506,-0.0193,0.7124,-0.1360,-0.0004,-0.1776,-0.0844,18.5915,0.0037,-23.0746,113.17,55.00
5.952,108,1,0.9937,0.304948,0.311128,-0.000000,0.2257,0.3350,-0.2500,0.7796,0.3350,-0.2500,0.7796,-0.174462,0.042293,-0.067567,0.981432,0.0000,,0.1447,-0.1218,0.4206,0.4261,1.279156,-0.0946,-0.1877,-0.1759,-2.9181,-1.1290,-0.0193,1.5261,0.0947,0.0743,0.1176,-0.0828,-18.7100,0.0044,23.0386,113.84,55.00
5.993,109,1,0.9947,0.305739,0.315067,-0.000000,0.1817,0.3350,-0.2500,0.7796,0.3350,-0.2500,0.7796,-0.165759,0.093445,-0.040269,0.980903,0.0000,,0.1219,-0.0920,0.4092,0.4556,0.600273,-0.1088,-0.1883,-0.1941,-2.9176,-0.5729,-0.0198,0.7124,-0.1366,0.0030,-0.1781,-0.0853,18.5926,0.0031,-23.0670,113.95,55.00
6.031,110,1,0.9935,0.307088,0.314334,-0.000000,0.2669,0.3350,-0.2500,0.7796,0.3350,-0.2500,0.7796,-0.159457,0.093814,0.013758,0.982641,0.0000,,0.1455,-0.1228,0.4195,0.4263,1.299113,-0.0946,-0.1805,-0.1764,-2.9223,-1.1504,-0.0197,1.5269,0.0938,0.0783,0.1167,-0.0841,-18.7023,0.0047,23.0432,114.91,55.00
6.071,111,1,0.9904,0.309520,0.315571,-0.000000,0.3472,0.3350,-0.2500,0.7796,0.3350,-0.2500,0.7796,-0.153130,0.123881,0.082431,0.976939,0.0000,,0.1224,-0.0936,0.4087,0.4552,0.605526,-0.1088,-0.1828,-0.1945,-2.9191,-0.5937,-0.0200,0.7136,-0.1371,-0.0116,-0.1788,-0.0624,18.5954,0.0036,-23.0653,115.79,55.00
6.100,112,1,0.9937,0.307352,0.310684,-0.000000,0.2470,0.3350,-0.2500,0.7796,0.3350,-0.2500,0.7796,-0.177899,0.073278,-0.038260,0.980571,0.0000,,0.1467,-0.1240,0.4190,0.4259,1.298852,-0.0947,-0.1752,-0.1769,-2.9239,-1.1704,-0.0195,1.5273,0.0929,0.0769,0.1158,-0.0839,-18.6933,0.0057,23.0387,114.27,55.00
6.138,113,1,0.9950,0.308423,0.322327,-0.000000,0.1666,0.3350,-0.2500,0.7796,0.3350,-0.2500,0.7796,-0.166689,0.084566,-0.112492,0.975915,0.0000,,0.1222,-0.0950,0.4073,0.4559,0.635006,-0.1088,-0.1751,-0.1949,-2.9244,-0.6142,-0.0196,0.7136,-0.1375,0.0095,-0.1792,-0.0940,18.5913,0.0038,-23.0669,113.26,55.00
6.176,114,1,0.9940,0.308558,0.319822,-0.000000,0.2252,0.3350,-0.2500,0.7796,0.3350,-0.2500,0.7796,-0.167180,0.075105,-0.044056,0.982074,0.0000,,0.1472,-0.1248,0.4176,0.4266,1.335606,-0.0947,-0.1676,-0.1773,-2.9292,-1.1899,-0.0194,1.5270,0.0922,0.0749,0.1150,-0.0814,-18.6850,0.0051,23.0367,114.03,55.00
6.220,115,1,0.9945,0.312667,0.323895,-0.000000,0.2376,0.3350,-0.2500,0.7796,0.3350,-0.2500,0.7796,-0.166320,0.095908,0.010612,0.981339,0.0000,,0.1225,-0.0964,0.4066,0.4559,0.541785,-0.1087,-0.1694,-0.1953,-2.9269,-0.6333,-0.0197,0.7131,-0.1380,-0.0067,-0.1797,-0.0695,18.5914,0.0036,-23.0676,114.47,55.00
6.258,116,1,0.9937,0.312022,0.321239,-0.000000,0.1819,0.3350,-0.2500,0.7796,0.3350,-0.2500,0.7796,-0.188528,0.059433,-0.119708,0.972931,0.0000,,0.1481,-0.1258,0.4167,0.4267,1.354229,-0.0948,-0.1619,-0.1778,-2.9321,-1.2085,-0.0192,1.5268,0.0914,0.0751,0.1142,-0.0843,-18.6789,0.0058,23.0386,113.45,55.00
6.299,117,1,0.9921,0.313044,0.328892,-0.000000,0.1843,0.3350,-0.2500,0.7796,0.3350,-0.2500,0.7796,-0.162559,0.096045,-0.066179,0.979781,0.0000,,0.1225,-0.0977,0.4055,0.4564,0.587370,-0.1087,-0.1625,-0.1957,-2.9314,-0.6522,-0.0196,0.7129,-0.1383,0.0027,-0.1800,-0.0823,18.5882,0.0030,-23.0670,113.60,55.00
6.339,118,1,0.9874,0.314871,0.323583,-0.000000,0.2364,0.3350,-0.2500,0.7796,0.3350,-0.2500,0.7796,-0.180403,0.065701,-0.022787,0.981131,0.0000,,0.1489,-0.1266,0.4157,0.4270,1.320834,-0.0948,-0.1555,-0.1782,-2.9357,-1.2267,-0.0193,1.5269,0.0907,0.0708,0.1135,-0.0750,-18.6730,0.0056,23.0402,113.64,55.00
6.377,119,1,0.9829,0.315140,0.332126,-0.000000,0.2135,0.3350,-0.2500,0.7796,0.3350,-0.2500,0.7796,-0.162756,0.093559,-0.087038,0.978357,0.0000,,0.1225,-0.0989,0.4045,0.4568,0.595914,-0.1087,-0.1560,-0.1960,-2.9352,-0.6707,-0.0195,0.7131,-0.1387,0.0046,-0.1803,-0.0844,18.5847,0.0035,-23.0665,113.35,55.00
6.415,120,1,0.9839,0.315954,0.327492,-0.000000,0.2241,0.3350,-0.2500,0.7796,0.3350,-0.2500,0.7796,-0.165422,0.073649,-0.094258,0.978942,0.0000,,0.1495,-0.1273,0.4144,0.4276,1.407770,-0.0948,-0.1486,-0.1787,-2.9404,-1.2448,-0.0192,1.5267,0.0901,0.0734,0.1128,-0.0807,-18.6689,0.0056,23.0383,113.44,55.00
6.457,121,1,0.9634,0.311746,0.328098,-0.000000,0.2204,0.3350,-0.2500,0.7796,0.3350,-0.2500,0.7796,-0.175996,0.083199,-0.093861,0.976368,0.0000,,0.1224,-0.1001,0.4034,0.4573,0.575597,-0.1086,-0.1492,-0.1964,-2.9397,-0.6890,-0.0194,0.7128,-0.1389,0.0037,-0.1806,-0.0827,18.5804,0.0037,-23.0672,113.09,55.00
6.499,122,1,0.9626,0.309351,0.313089,-0.000000,0.2759,0.3350,-0.2500,0.7796,0.3350,-0.2500,0.7796,-0.191208,0.094544,-0.060709,0.975098,0.0000,,0.1501,-0.1280,0.4131,0.4283,1.359520,-0.0949,-0.1417,-0.1791,-2.9450,-1.2627,-0.0193,1.5269,0.0894,0.0740,0.1121,-0.0799,-18.6660,0.0049,23.0413,113.72,55.00
6.539,123,1,0.9638,0.303667,0.308468,-0.000000,0.2809,0.3350,-0.2500,0.7796,0.3350,-0.2500,0.7796,-0.204063,0.094643,-0.019762,0.974172,0.0000,,0.1227,-0.1013,0.4027,0.4574,0.515300,-0.1086,-0.1434,-0.1967,-2.9426,-0.7069,-0.0195,0.7131,-0.1393,-0.0059,-0.1809,-0.0676,18.5780,0.0039,-23.0662,113.87,55.00
6.567,124,1,0.9829,0.305621,0.299504,-0.000000,0.2694,0.3350,-0.2500,0.7796,0.3350,-0.2500,0.7796,-0.206117,0.030720,-0.080940,0.974690,0.0000,,0.1511,-0.1289,0.4125,0.4281,1.332299,-0.0949,-0.1370,-0.1795,-2.9468,-1.2803,-0.0188,1.5260,0.0887,0.0648,0.1114,-0.0695,-18.6607,0.0060,23.0336,112.58,55.00
6.614,125,1,0.9856,0.303430,0.302241,-0.000000,0.2481,0.3350,-0.2500,0.7796,0.3350,-0.2500,0.7796,-0.227977,0.039685,-0.048353,0.971655,0.0000,,0.1231,-0.1027,0.4021,0.4573,0.439267,-0.1086,-0.1389,-0.1970,-2.9444,-0.7248,-0.0190,0.7116,-0.1396,-0.0072,-0.1813,-0.0678,18.5747,0.0037,-23.0689,113.08,55.00
6.645,126,1,0.9743,0.306790,0.301430,-0.000000,0.2686,0.3350,-0.2500,0.7796,0.3350,-0.2500,0.7796,-0.228387,0.071824,0.063465,0.968841,0.0000,,0.1523,-0.1297,0.4121,0.4277,1.247303,-0.0950,-0.1326,-0.1799,-2.9479,-1.2976,-0.0193,1.5260,0.0881,0.0642,0.1107,-0.0621,-18.6562,0.0040,23.0440,113.62,55.00
6.689,127,1,0.9808,0.302247,0.309462,-0.000000,0.2131,0.3350,-0.2500,0.7796,0.3350,-0.2500,0.7796,-0.212656,0.121899,-0.053872,0.967996,0.0000,,0.1237,-0.1039,0.4016,0.4570,0.579774,-0.1086,-0.1335,-0.1973,-2.9462,-0.7424,-0.0196,0.7124,-0.1400,0.0003,-0.1816,-0.0739,18.5742,0.0036,-23.0651,113.64,55.00
6.720,128,1,0.9831,0.300276,0.292947,-0.000000,0.2373,0.3350,-0.2500,0.7796,0.3350,-0.2500,0.7796,-0.247478,-0.007757,-0.027988,0.968458,0.0000,,0.1535,-0.1306,0.4115,0.4274,1.238885,-0.0950,-0.1283,-0.1803,-2.9491,-1.3145,-0.0185,1.5256,0.0875,0.0554,0.1100,-0.0551,-18.6493,0.0057,23.0354,112.34,55.00
6.764,129,1,0.9843,0.295459,0.289338,-0.000000,0.3225,0.3350,-0.2500,0.7796,0.3350,-0.2500,0.7796,-0.244294,0.064338,0.073572,0.964763,0.0000,,0.1249,-0.1054,0.4019,0.4558,0.406057,-0.1085,-0.1319,-0.1977,-2.9439,-0.7587,-0.0192,0.7113,-0.1405,-0.0226,-0.1823,-0.0439,18.5764,0.0027,-23.0682,115.27,55.00
6.807,130,1,0.9770,0.293206,0.303255,-0.000000,0.2350,0.3350,-0.2500,0.7796,0.3350,-0.2500,0.7796,-0.178674,0.111082,-0.032108,0.977090,0.0000,,0.1548,-0.1313,0.4114,0.4268,1.428338,-0.0950,-0.1245,-0.1806,-2.9494,-1.3310,-0.0194,1.5262,0.0869,0.0741,0.1093,-0.0762,-18.6489,0.0042,23.0475,113.86,55.00
6.847,131,1,0.9833,0.291834,0.294650,-0.000000,0.3006,0.3350,-0.2500,0.7796,0.3350,-0.2500,0.7796,-0.219993,0.078634,0.047536,0.971164,0.0000,,0.1256,-0.1066,0.4015,0.4554,0.431753,-0.1085,-0.1278,-0.1980,-2.9446,-0.7748,-0.0193,0.7128,-0.1408,-0.0200,-0.1826,-0.0467,18.5770,0.0047,-23.0641,115.05,55.00
6.883,132,1,0.9938,0.290533,0.288552,-0.000000,0.3197,0.3350,-0.2500,0.7796,0.3350,-0.2500,0.7796,-0.241885,0.087358,0.130021,0.957578,0.0000,,0.1564,-0.1322,0.4115,0.4258,1.253396,-0.0950,-0.1217,-0.1810,-2.9478,-1.3462,-0.0195,1.5271,0.0864,0.0627,0.1086,-0.0553,-18.6418,0.0044,23.0426,114.07,55.00
6.929,133,1,0.9905,0.286117,0.286756,-0.000000,0.2913,0.3350,-0.2500,0.7796,0.3350,-0.2500,0.7796,-0.210149,0.019461,-0.045309,0.976425,0.0000,,0.1264,-0.1079,0.4013,0.4548,0.395315,-0.1085,-0.1242,-0.1983,-2.9445,-0.7905,-0.0188,0.7133,-0.1412,-0.0127,-0.1831,-0.0595,18.5746,0.0060,-23.0658,113.25,55.00
6.972,134,0,,0.000000,0.000000,0.000000,1.0000,0.3350,-0.2500,0.7796,0.3350,-0.2500,0.7796,-0.210149,0.019461,-0.045309,0.976425,0.0000,,0.1575,-0.1329,0.4111,0.4254,1.369358,-0.0951,-0.1183,-0.1814,-2.9483,-1.3613,-0.0186,1.5256,0.0858,0.0602,0.1080,-0.0588,-18.6341,0.0044,23.0309,112.41,55.00
7.003,135,1,0.9524,0.539410,0.797957,0.000000,1.1023,0.3350,-0.1951,0.7796,0.3350,-0.1951,0.7796,0.347956,-0.581336,0.732876,-0.062193,0.0354,,0.1225,-0.1048,0.3961,0.4477,3.088065,-0.1084,-0.1008,-0.1985,-2.9646,-0.7689,-0.0219,0.7126,-0.1402,0.1578,-0.1816,-0.2290,18.9026,-0.0057,-23.0591,143.28,55.00
7.060,136,1,0.9280,0.544359,0.814057,0.000000,1.1039,0.3350,-0.1762,0.7796,0.3350,-0.1762,0.7796,0.169101,-0.604854,0.775495,0.064525,0.0355,,0.1392,-0.1262,0.3685,0.4581,2.627335,-0.0945,-0.1108,-0.1785,-2.8484,-0.8018,0.3218,1.0206,0.1361,-0.1285,0.1766,1.9034,-5.3558,0.3136,10.0555,137.92,55.00
7.092,137,1,0.9487,0.545174,0.815326,0.000000,1.0559,0.3350,-0.1714,0.7796,0.3350,-0.1714,0.7796,0.148048,-0.590914,0.782721,0.127480,0.0332,,0.1695,-0.0453,0.3496,0.4777,2.562868,-0.1084,-0.1209,-0.1959,-2.7161,0.0692,0.4926,-0.3109,-0.1398,-0.1093,-0.1780,2.9224,4.9767,2.6033,-17.7942,135.46,55.00
7.135,138,1,0.9866,0.591024,0.815410,0.000000,0.9825,0.3350,-0.0878,0.7796,0.3350,-0.0878,0.7796,0.349493,-0.396343,0.702811,0.476260,0.0298,,0.2005,-0.1625,0.4170,0.3939,1.954016,-0.0940,-0.1043,-0.1776,-2.7134,-1.2266,0.2250,-0.2768,0.0655,0.1706,0.0803,-0.4711,-21.9064,0.8839,0.9502,142.03,55.00
7.167,139,1,0.9908,0.626734,0.814364,-0.000000,0.8456,0.3350,-0.0083,0.7796,0.3350,-0.0083,0.7796,0.421079,-0.209520,0.576967,0.667759,0.0233,,0.1791,-0.1404,0.4149,0.4180,1.546606,-0.1092,-0.1087,-0.1973,-2.7069,-0.8440,0.1221,-1.0813,-0.1650,-0.0245,-0.2161,-0.0538,17.9618,-7.2192,-17.3840,128.87,55.00
7.209,140,1,0.9853,0.636910,0.805932,0.000000,0.7814,0.3350,0.0243,0.7796,0.3350,0.0243,0.7796,0.491873,-0.045767,0.389743,0.777217,0.0203,,0.2173,-0.1568,0.4502,0.3939,1.100160,-0.0945,-0.1086,-0.1787,-2.7012,-1.4428,0.0338,-0.9360,0.0766,0.0128,0.0944,0.0247,-19.1112,0.1598,0.0259,120.53,55.00
7.252,141,1,0.9906,0.641026,0.810915,0.000000,0.6968,0.3350,0.0376,0.7796,0.3350,0.0376,0.7796,0.503737,0.029935,0.339512,0.793779,0.0163,,0.1852,-0.1288,0.4348,0.4111,1.859898,-0.1090,-0.1077,-0.1973,-2.7028,-0.8415,-0.0313,-2.4226,-0.1564,0.0180,-0.2027,-0.1019,19.2493,0.2597,-24.7838,118.87,55.00
7.284,142,1,0.9887,0.640993,0.811197,0.000000,0.6855,0.3350,0.0400,0.7796,0.3350,0.0400,0.7796,0.494331,0.050219,0.338548,0.799062,0.0158,,0.2107,-0.1473,0.4439,0.4040,1.066093,-0.0946,-0.0897,-0.1791,-2.7173,-1.3562,-0.0201,-1.5262,0.0842,0.1529,0.1052,-0.1439,-18.1513,0.0016,23.6812,126.33,55.00
7.323,143,1,0.9925,0.644466,0.821194,0.000000,0.7222,0.3350,0.0466,0.7796,0.3350,0.0466,0.7796,0.510973,0.040459,0.304943,0.802670,0.0175,,0.1788,-0.1207,0.4241,0.4228,1.802152,-0.1091,-0.0909,-0.1978,-2.7203,-0.7318,-0.0202,-2.3056,-0.1518,-0.0049,-0.1962,-0.1101,19.1794,0.0049,-22.8641,116.72,55.00
7.364,144,1,0.9937,0.646318,0.835416,0.000000,0.6580,0.3350,0.0512,0.7796,0.3350,0.0512,0.7796,0.530809,0.072775,0.267847,0.800752,0.0145,,0.2033,-0.1423,0.4346,0.4170,0.953982,-0.0945,-0.0759,-0.1792,-2.7319,-1.2615,-0.0202,-1.4820,0.0880,0.1296,0.1107,-0.1275,-18.2614,0.0085,23.1141,120.96,55.00
7.403,145,1,0.9882,0.645592,0.837244,0.000000,0.6907,0.3350,0.0507,0.7796,0.3350,0.0507,0.7796,0.529863,0.059636,0.260577,0.804853,0.0160,,0.1742,-0.1135,0.4171,0.4292,1.783507,-0.1092,-0.0770,-0.1981,-2.7353,-0.6487,-0.0201,-2.2969,-0.1481,-0.0027,-0.1911,-0.1153,19.0914,0.0048,-23.0196,116.30,55.00
7.444,146,1,0.9927,0.644925,0.839266,0.000000,0.6145,0.3350,0.0494,0.7796,0.3350,0.0494,0.7796,0.527642,0.083718,0.264650,0.802836,0.0124,,0.1971,-0.1378,0.4266,0.4227,0.964961,-0.0944,-0.0626,-0.1792,-2.7464,-1.1883,-0.0203,-1.4844,0.0910,0.1254,0.1152,-0.1295,-18.3439,0.0080,23.0637,120.67,55.00
7.473,147,1,0.9886,0.641392,0.845305,0.000000,0.6527,0.3350,0.0428,0.7796,0.3350,0.0428,0.7796,0.519077,0.083849,0.274485,0.805100,0.0142,,0.1703,-0.1074,0.4109,0.4308,1.856501,-0.1092,-0.0629,-0.1983,-2.7507,-0.5845,-0.0202,-2.2917,-0.1448,0.0033,-0.1866,-0.1229,19.0155,0.0051,-22.9759,116.49,55.00
7.511,148,1,0.9895,0.640329,0.846681,0.000000,0.6765,0.3350,0.0397,0.7794,0.3350,0.0397,0.7794,0.526173,0.093565,0.258615,0.804678,0.0154,,0.1918,-0.1339,0.4197,0.4243,0.962642,-0.0943,-0.0491,-0.1793,-2.7613,-1.1323,-0.0203,-1.4762,0.0934,0.1202,0.1187,-0.1294,-18.4106,0.0085,23.0772,120.04,55.00
7.551,149,1,0.9907,0.637614,0.843813,0.000000,0.7211,0.3350,0.0342,0.7796,0.3350,0.0342,0.7796,0.529655,0.085390,0.252840,0.805137,0.0175,,0.1669,-0.1025,0.4057,0.4321,1.849130,-0.1092,-0.0495,-0.1985,-2.7655,-0.5368,-0.0201,-2.2941,-0.1422,0.0022,-0.1831,-0.1217,18.9496,0.0045,-23.0340,116.21,55.00
7.594,150,1,0.9884,0.635112,0.844047,0.000000,0.6868,0.3350,0.0287,0.7796,0.3350,0.0287,0.7796,0.527825,0.094945,0.253460,0.805074,0.0158,,0.1874,-0.1307,0.4137,0.4255,0.952754,-0.0943,-0.0364,-0.1794,-2.7755,-1.0910,-0.0203,-1.4827,0.0951,0.1151,0.1213,-0.1281,-18.4609,0.0082,23.0581,119.43,55.00
7.625,151,1,0.9896,0.631663,0.841740,0.000000,0.7741,0.3350,0.0215,0.7796,0.3350,0.0215,0.7796,0.523218,0.090704,0.258387,0.807001,0.0200,,0.1642,-0.1008,0.4016,0.4325,1.875798,-0.1091,-0.0366,-0.1985,-2.7798,-0.5284,-0.0201,-2.3111,-0.1409,0.0034,-0.1813,-0.1196,18.6718,0.0039,-23.0874,116.22,55.00
7.668,152,1,0.9908,0.631993,0.841729,0.000000,0.6651,0.3350,0.0208,0.7796,0.3350,0.0208,0.7796,0.517167,0.098160,0.258026,0.810139,0.0148,,0.1858,-0.1307,0.4096,0.4268,0.953450,-0.0943,-0.0237,-0.1795,-2.7898,-1.1044,-0.0203,-1.5030,0.0940,0.1121,0.1201,-0.1280,-18.5783,0.0085,23.0468,119.11,55.00
7.711,153,1,0.9891,0.628279,0.842748,0.000000,0.6784,0.3350,0.0140,0.7796,0.3350,0.0140,0.7796,0.519540,0.100993,0.274399,0.802859,0.0155,,0.1621,-0.1014,0.3981,0.4345,1.878525,-0.1091,-0.0238,-0.1985,-2.7941,-0.5480,-0.0202,-2.3274,-0.1409,0.0048,-0.1812,-0.1196,18.6475,0.0040,-23.0674,116.32,55.00
7.740,154,1,0.9924,0.631805,0.843251,0.000000,0.6318,0.3350,0.0191,0.7796,0.3350,0.0191,0.7796,0.515028,0.095611,0.285130,0.802687,0.0133,,0.1844,-0.1310,0.4055,0.4303,0.963568,-0.0944,-0.0107,-0.1797,-2.8046,-1.1250,-0.0205,-1.5178,0.0929,0.1131,0.1191,-0.1310,-18.5851,0.0083,23.0549,119.85,55.00
7.778,155,1,0.9919,0.626711,0.844231,0.000000,0.6493,0.3350,0.0109,0.7796,0.3350,0.0109,0.7796,0.509471,0.086067,0.304119,0.800340,0.0141,,0.1599,-0.1021,0.3947,0.4377,1.878340,-0.1090,-0.0108,-0.1985,-2.8085,-0.5698,-0.0204,-2.3270,-0.1410,0.0039,-0.1812,-0.1154,18.6323,0.0050,-22.9849,116.66,55.00
7.820,156,1,0.9816,0.616096,0.842485,0.000000,0.9607,0.3350,-0.0098,0.7796,0.3350,-0.0098,0.7796,0.474811,-0.117290,0.457363,0.742709,0.0287,,0.1831,-0.1312,0.4012,0.4254,1.131205,-0.0945,0.0043,-0.1798,-2.8205,-1.1473,-0.0221,-1.5115,0.0917,0.1304,0.1179,-0.1424,-18.5906,0.0039,23.0777,127.99,55.00
7.852,157,1,0.9820,0.583344,0.837857,0.000000,1.0283,0.3350,-0.0726,0.7796,0.3350,-0.0726,0.7796,0.435060,-0.330535,0.670026,0.502529,0.0319,,0.1581,-0.0999,0.3917,0.4272,2.250204,-0.1090,0.0012,-0.1985,-2.8175,-0.5508,-0.0223,-2.3945,-0.1403,-0.0227,-0.1802,-0.0606,19.0086,-0.0043,-23.3058,126.44,55.00
7.896,158,1,0.9755,0.566511,0.828965,0.000000,1.1321,0.3350,-0.1142,0.7796,0.3350,-0.1142,0.7796,0.361334,-0.443636,0.744952,0.343032,0.0368,,0.1782,-0.1276,0.3956,0.4150,2.087763,-0.0944,0.0200,-0.1797,-2.8337,-1.0998,-0.0227,-1.5893,0.0944,0.1620,0.1217,-0.1809,-18.4563,0.0050,22.9627,137.79,55.00
7.928,159,1,0.9709,0.566069,0.829819,0.000000,1.0618,0.3350,-0.1225,0.7796,0.3350,-0.1225,0.7796,0.283336,-0.487262,0.784662,0.258073,0.0335,,0.1561,-0.0983,0.3880,0.4313,2.701776,-0.1089,0.0163,-0.1984,-2.8284,-0.5407,-0.0224,-2.5858,-0.1388,-0.0272,-0.1783,-0.0368,18.6653,-0.0048,-23.8378,127.59,55.00
7.967,160,1,0.9550,0.567894,0.824970,0.000000,1.0601,0.3350,-0.1207,0.7796,0.3350,-0.1207,0.7796,0.243748,-0.521216,0.795728,0.189043,0.0334,,0.1758,-0.1271,0.3912,0.4198,2.473840,-0.0944,0.0350,-0.1796,-2.8483,-1.1053,-0.0187,-1.4225,0.1156,0.1425,0.1477,-0.2006,-18.6578,1.7200,22.7980,140.76,55.00
8.007,161,1,0.9598,0.567254,0.823797,0.000000,0.9965,0.3350,-0.1216,0.7796,0.3350,-0.1216,0.7796,0.213005,-0.532556,0.800963,0.171670,0.0304,,0.1537,-0.0955,0.3848,0.4352,2.816230,-0.1089,0.0306,-0.1983,-2.8409,-0.5198,-0.0272,-2.5243,-0.1381,-0.0349,-0.1773,-0.0205,18.9565,0.1462,-24.4144,129.36,55.00
8.044,162,1,0.9593,0.565735,0.823456,0.000000,1.0178,0.3350,-0.1245,0.7796,0.3350,-0.1245,0.7796,0.207303,-0.538229,0.801900,0.155858,0.0314,,0.1711,-0.1237,0.3864,0.4260,2.577716,-0.0944,0.0493,-0.1796,-2.8608,-1.0627,-0.0214,-1.4478,0.1008,0.1585,0.1301,-0.2135,-18.4992,0.1776,23.7389,140.96,55.00
8.074,163,1,0.9582,0.565333,0.825843,0.000000,1.0092,0.3350,-0.1257,0.7796,0.3350,-0.1257,0.7796,0.200088,-0.543207,0.802276,0.145753,0.0310,,0.1510,-0.0939,0.3812,0.4400,2.793547,-0.1089,0.0437,-0.1982,-2.8523,-0.5091,-0.0233,-2.3367,-0.1366,-0.0452,-0.1753,-0.0085,18.5864,0.0298,-23.2267,131.08,55.00
8.111,164,1,0.9592,0.564470,0.827784,0.000000,0.9937,0.3350,-0.1275,0.7796,0.3350,-0.1275,0.7796,0.189555,-0.546023,0.802210,0.149624,0.0303,,0.1713,-0.1249,0.3838,0.4284,2.613127,-0.0945,0.0624,-0.1795,-2.8693,-1.0915,-0.0227,-1.5388,0.0941,0.1614,0.1220,-0.1914,-18.6438,0.0069,22.9945,138.80,55.00
8.151,165,1,0.9534,0.565203,0.833479,0.000000,0.9907,0.3350,-0.1265,0.7796,0.3350,-0.1265,0.7796,0.178643,-0.558642,0.798405,0.136216,0.0302,,0.1493,-0.0930,0.3783,0.4435,2.854114,-0.1089,0.0571,-0.1980,-2.8609,-0.5049,-0.0221,-2.4755,-0.1362,-0.0427,-0.1749,-0.0131,18.9210,-0.0099,-23.5289,130.69,55.00
8.191,166,1,0.9554,0.563816,0.833210,0.000000,0.9942,0.3350,-0.1288,0.7796,0.3350,-0.1288,0.7796,0.160394,-0.564142,0.798040,0.138385,0.0303,,0.1673,-0.1220,0.3798,0.4336,2.670808,-0.0945,0.0758,-0.1794,-2.8795,-1.0552,-0.0220,-1.5301,0.0962,0.1610,0.1249,-0.2056,-18.4985,-0.0112,23.7192,140.23,55.00
8.231,167,1,0.9603,0.562025,0.836614,0.000000,1.0056,0.3350,-0.1325,0.7796,0.3350,-0.1325,0.7796,0.169356,-0.562667,0.797108,0.139084,0.0309,,0.1465,-0.0886,0.3751,0.4484,2.871343,-0.1089,0.0707,-0.1978,-2.8715,-0.4627,-0.0229,-2.5076,-0.1341,-0.0402,-0.1722,-0.0164,18.9443,0.0152,-23.7959,130.27,55.00
8.271,168,1,0.9580,0.563361,0.838524,0.000000,1.0008,0.3350,-0.1307,0.7796,0.3350,-0.1307,0.7796,0.165029,-0.569500,0.796485,0.118519,0.0306,,0.1624,-0.1182,0.3758,0.4393,2.689987,-0.0944,0.0894,-0.1791,-2.8908,-1.0071,-0.0214,-1.4582,0.1039,0.1581,0.1343,-0.2128,-18.5202,0.2078,23.5320,141.21,55.00
8.311,169,1,0.9417,0.565372,0.840597,0.000000,0.9980,0.3350,-0.1268,0.7796,0.3350,-0.1268,0.7796,0.148694,-0.577874,0.795896,0.102472,0.0305,,0.1437,-0.0840,0.3721,0.4522,2.895306,-0.1088,0.0841,-0.1976,-2.8823,-0.4177,-0.0240,-2.4436,-0.1320,-0.0422,-0.1695,-0.0118,18.9114,0.0553,-23.8091,130.87,55.00
8.340,170,1,0.9473,0.565124,0.840171,0.000000,1.0031,0.3350,-0.1265,0.7796,0.3350,-0.1265,0.7796,0.146631,-0.580864,0.794479,0.099495,0.0307,,0.1583,-0.1149,0.3723,0.4441,2.745753,-0.0944,0.1027,-0.1789,-2.9012,-0.9684,-0.0223,-1.5191,0.1001,0.1605,0.1302,-0.2137,-18.5090,-0.0066,23.7135,141.20,55.00
8.377,171,1,0.9443,0.566083,0.839801,0.000000,1.0064,0.3350,-0.1247,0.7796,0.3350,-0.1247,0.7796,0.129674,-0.586638,0.794080,0.092073,0.0309,,0.1407,-0.0799,0.3689,0.4565,2.925291,-0.1088,0.0984,-0.1974,-2.8939,-0.3794,-0.0221,-2.4443,-0.1298,-0.0345,-0.1667,-0.0212,18.8918,-0.0096,-23.5005,129.38,55.00
8.417,172,1,0.9428,0.566378,0.843132,0.000000,1.0115,0.3350,-0.1239,0.7796,0.3350,-0.1239,0.7796,0.128327,-0.588378,0.793195,0.090474,0.0311,,0.1539,-0.1115,0.3689,0.4490,2.785345,-0.0944,0.1170,-0.1787,-2.9129,-0.9315,-0.0224,-1.5188,0.1017,0.1603,0.1323,-0.2176,-18.5205,-0.0042,23.6833,141.73,55.00
8.457,173,1,0.9225,0.569955,0.843213,0.000000,1.0126,0.3350,-0.1173,0.7796,0.3350,-0.1173,0.7796,0.107909,-0.594790,0.790783,0.096135,0.0312,,0.1379,-0.0761,0.3661,0.4599,2.963909,-0.1088,0.1131,-0.1971,-2.9061,-0.3468,-0.0230,-2.5067,-0.1280,-0.0307,-0.1645,-0.0245,18.8706,0.0153,-23.8459,128.78,55.00
8.497,174,1,0.9218,0.570789,0.843519,0.000000,1.0089,0.3350,-0.1146,0.7796,0.3350,-0.1146,0.7796,0.109197,-0.594939,0.789992,0.100185,0.0310,,0.1478,-0.0985,0.3655,0.4547,2.814532,-0.0943,0.1320,-0.1765,-2.9123,-0.7462,-0.0270,-1.6327,0.1225,0.1484,0.1585,-0.1657,-11.5360,0.0044,15.9525,143.32,55.00
8.537,175,1,0.9340,0.570591,0.841447,0.000000,1.0188,0.3350,-0.1144,0.7796,0.3350,-0.1144,0.7796,0.115330,-0.594581,0.789431,0.099855,0.0315,,0.1391,-0.0565,0.3620,0.4648,3.001719,-0.1086,0.1335,-0.1965,-2.9063,-0.1276,-0.0219,-2.6910,-0.1220,0.0144,-0.1570,-0.0355,13.7764,-0.0022,-21.7160,123.79,55.00
8.578,176,1,0.9248,0.572525,0.841486,0.000000,1.0189,0.3350,-0.1109,0.7796,0.3350,-0.1109,0.7796,0.100580,-0.598036,0.788074,0.105718,0.0315,,0.1506,-0.0998,0.3628,0.4560,2.808238,-0.0943,0.1526,-0.1752,-2.9074,-0.7613,-0.0275,-1.5151,0.1291,0.1503,0.1656,-0.1935,-11.7073,0.6018,15.2868,145.52,55.00
8.607,177,1,0.9379,0.573547,0.841248,0.000000,1.0144,0.3350,-0.1084,0.7796,0.3350,-0.1084,0.7796,0.099201,-0.600088,0.786676,0.105808,0.0313,,0.1474,-0.0302,0.3580,0.4681,3.101335,-0.1087,0.1531,-0.1937,-2.9064,0.2040,-0.0117,-2.8277,-0.1316,-0.0031,-0.1670,-0.0398,20.9086,2.8766,-15.7162,124.64,55.00
8.645,178,1,0.9343,0.577000,0.839335,0.000000,1.0181,0.3350,-0.1018,0.7796,0.3350,-0.1018,0.7796,0.103314,-0.602478,0.784765,0.102420,0.0314,,0.1449,-0.0305,0.3560,0.4697,2.873130,-0.0944,0.1716,-0.1743,-2.9161,0.0642,-0.0200,-1.4088,0.1411,0.1501,0.1821,-0.1680,-15.3676,3.2521,21.7366,145.52,55.00
8.685,179,1,0.9032,0.596085,0.840637,0.000000,0.9979,0.3350,-0.0661,0.7796,0.3350,-0.0661,0.7796,0.087361,-0.599650,0.790252,0.091047,0.0305,,0.1757,-0.0039,0.3536,0.4590,3.123015,-0.1079,0.1867,-0.1955,-2.8905,0.6222,-0.0251,-2.6181,-0.0938,0.1317,-0.1206,-0.1963,16.5917,0.0946,-24.1271,134.64,55.00
8.724,180,1,0.9172,0.610742,0.843366,0.000000,1.0494,0.3350,-0.0333,0.7796,0.3350,-0.0333,0.7796,0.095629,-0.604226,0.787331,0.076662,0.0329,,0.1444,-0.0407,0.3508,0.4693,2.877388,-0.0943,0.2058,-0.1775,-2.9062,-0.0477,-0.0174,-1.3562,0.1175,0.1986,0.2130,0.0915,-14.7509,1.1387,19.5568,145.52,55.00
8.764,181,1,0.9279,0.626960,0.845534,0.000000,0.9970,0.3350,0.0019,0.7796,0.3350,0.0019,0.7796,0.081903,-0.606690,0.786388,0.082539,0.0304,,0.1635,-0.0412,0.3503,0.4643,2.993095,-0.1085,0.2149,-0.1991,-2.8436,0.1258,-0.0240,-2.0858,-0.1188,0.0798,-0.1528,-0.1218,12.1387,0.0606,-19.3409,122.79,55.00
8.804,182,1,0.9121,0.642762,0.842576,0.000000,0.9824,0.3350,0.0367,0.7796,0.3350,0.0367,0.7796,0.080471,-0.609984,0.783368,0.088197,0.0298,,0.1638,-0.1095,0.3493,0.4857,2.847647,-0.0941,0.2343,-0.1801,-2.8647,-0.8392,-0.0050,-1.0941,0.0992,0.1703,0.1331,-0.3156,-20.4285,0.6942,20.2290,145.41,55.00
8.844,183,1,0.8982,0.660608,0.839861,0.000000,0.9499,0.3350,0.0752,0.7796,0.3350,0.0752,0.7796,0.079175,-0.606206,0.786391,0.088509,0.0282,,0.1554,-0.0834,0.3513,0.4907,2.914726,-0.1088,0.2262,-0.1990,-2.8544,-0.3796,-0.0326,-2.1415,-0.1308,-0.0676,-0.1675,0.0103,18.3133,0.2139,-23.1183,136.31,55.00
8.874,184,1,0.9040,0.678547,0.841826,0.000000,0.8840,0.3350,0.1145,0.7796,0.3350,0.1145,0.7796,0.047529,-0.606990,0.787803,0.093110,0.0251,,0.1697,-0.1170,0.3491,0.5160,2.877416,-0.0944,0.2454,-0.1800,-2.8707,-0.9602,-0.0221,-1.3385,0.1032,0.1659,0.1358,-0.1950,-18.6103,0.1414,22.1299,139.83,55.00
8.915,185,1,0.8836,0.693560,0.842079,0.000000,0.8903,0.3350,0.1486,0.7796,0.3350,0.1486,0.7796,0.054788,-0.599029,0.794503,0.083232,0.0254,,0.1526,-0.0829,0.3483,0.5224,2.970692,-0.1088,0.2379,-0.1985,-2.8614,-0.3776,-0.0217,-2.2080,-0.1304,-0.0612,-0.1671,-0.0041,18.8144,-0.0170,-23.0034,134.61,55.00
8.954,186,1,0.9220,0.704547,0.842660,0.000000,0.8931,0.3350,0.1746,0.7796,0.3350,0.1746,0.7796,0.087217,-0.594701,0.796141,0.069883,0.0256,,0.1667,-0.1148,0.3466,0.5473,2.856243,-0.0944,0.2571,-0.1794,-2.8784,-0.9365,-0.0225,-1.3966,0.1045,0.1655,0.1371,-0.1998,-18.5569,0.1183,22.4805,140.47,55.00
8.995,187,1,0.9044,0.726064,0.839606,0.000000,0.8769,0.3350,0.2181,0.7796,0.3350,0.2181,0.7796,0.089936,-0.593168,0.797133,0.068141,0.0248,,0.1502,-0.0800,0.3460,0.5577,2.903279,-0.1088,0.2509,-0.1979,-2.8710,-0.3537,-0.0222,-2.3196,-0.1289,-0.0504,-0.1653,-0.0200,18.8205,-0.0070,-23.4650,132.02,55.00
9.031,188,1,0.9162,0.726567,0.839495,0.000000,0.8921,0.3350,0.2268,0.7796,0.3350,0.2268,0.7796,0.094191,-0.587910,0.799574,0.078552,0.0255,,0.1626,-0.1121,0.3440,0.5783,2.831288,-0.0944,0.2701,-0.1788,-2.8901,-0.9120,-0.0228,-1.5391,0.1026,0.1663,0.1351,-0.2199,-18.5289,0.0071,22.9081,142.70,55.00
9.071,189,1,0.9126,0.735054,0.838372,0.000000,0.9023,0.3350,0.2437,0.7796,0.3350,0.2437,0.7796,0.074678,-0.589507,0.800674,0.076324,0.0260,,0.1464,-0.0765,0.3435,0.5730,2.924760,-0.1088,0.2662,-0.1973,-2.8858,-0.3278,-0.0225,-2.4208,-0.1271,-0.0307,-0.1632,-0.0447,18.8185,-0.0011,-23.3044,128.31,55.00
9.114,190,1,0.8971,0.743435,0.839524,0.000000,0.8688,0.3350,0.2489,0.7796,0.3350,0.2489,0.7796,0.062276,-0.591687,0.800702,0.070033,0.0244,,0.1569,-0.1088,0.3410,0.5933,2.890373,-0.0944,0.2854,-0.1783,-2.9070,-0.8829,-0.0226,-1.5274,0.1040,0.1655,0.1368,-0.2383,-18.5236,0.0021,23.5229,145.18,55.00
9.155,191,1,0.9263,0.744829,0.841123,0.000000,0.8576,0.3350,0.2498,0.7796,0.3350,0.2498,0.7796,0.063779,-0.586510,0.802898,0.085406,0.0239,,0.1419,-0.0729,0.3410,0.5777,2.925025,-0.1087,0.2819,-0.1966,-2.9032,-0.3021,-0.0223,-2.3898,-0.1254,-0.0269,-0.1611,-0.0487,18.7865,-0.0064,-23.2279,127.65,55.00
9.183,192,1,0.9004,0.745883,0.844007,0.000000,0.8525,0.3350,0.2500,0.7796,0.3350,0.2500,0.7796,0.052882,-0.585395,0.804124,0.088882,0.0236,,0.1504,-0.0973,0.3387,0.5908,2.879369,-0.0943,0.3013,-0.1761,-2.9116,-0.7258,-0.0265,-1.7041,0.1242,0.1477,0.1615,-0.1650,-11.4937,-0.0145,14.8521,145.52,55.00
9.213,193,1,0.9043,0.743061,0.842407,0.000000,0.8488,0.3350,0.2500,0.7796,0.3350,0.2500,0.7796,0.077418,-0.584935,0.803369,0.080348,0.0235,,0.1452,-0.0318,0.3347,0.5598,2.975741,-0.1086,0.3039,-0.1944,-2.9143,0.1709,0.0000,-2.8400,-0.1326,0.0172,-0.1668,-0.0844,19.4561,3.7632,-10.9718,123.55,55.00
9.257,194,1,0.8999,0.739506,0.842543,0.000000,0.8829,0.3350,0.2500,0.7796,0.3350,0.2500,0.7796,0.074844,-0.578427,0.806850,0.093881,0.0251,,0.1444,-0.0561,0.3357,0.5719,2.832493,-0.0945,0.3242,-0.1752,-2.9084,-0.2040,-0.0419,-1.3904,0.1176,0.1904,0.1980,1.5121,0.5647,0.0530,6.5996,145.52,55.00
9.298,195,1,0.8977,0.730784,0.842711,0.000000,0.8880,0.3350,0.2402,0.7796,0.3350,0.2402,0.7796,0.091428,-0.578743,0.805599,0.087786,0.0253,,0.1650,-0.0297,0.3298,0.5514,2.904024,-0.1017,0.3341,-0.1961,-2.8588,0.2411,-0.0244,-2.2542,-0.0573,0.0903,-0.1464,-0.1324,12.0884,0.0703,-17.5590,110.71,55.00
9.327,196,1,0.9066,0.718101,0.842732,0.000000,0.9013,0.3350,0.2155,0.7796,0.3350,0.2155,0.7796,0.093635,-0.573707,0.808758,0.089463,0.0259,,0.1598,-0.0818,0.3292,0.5674,2.805552,-0.0874,0.3553,-0.1741,-2.8552,-0.4950,-0.0250,-1.3417,0.1359,0.1254,0.1756,-0.0421,-8.6965,0.1064,11.5812,145.52,55.00
9.367,197,1,0.9037,0.701017,0.848271,0.000000,0.9029,0.3350,0.1803,0.7771,0.3350,0.1803,0.7771,0.116039,-0.577553,0.803836,0.082554,0.0260,,0.1734,-0.0168,0.3245,0.5194,2.910721,-0.1014,0.3572,-0.1927,-2.8570,0.4273,-0.0225,-2.6999,-0.0963,0.0241,-0.1229,-0.0883,18.4583,0.0001,-24.3193,123.95,55.00
9.407,198,1,0.8911,0.683761,0.848540,0.000000,0.8931,0.3350,0.1428,0.7762,0.3350,0.1428,0.7762,0.096573,-0.588827,0.796884,0.094508,0.0256,,0.1539,-0.0481,0.3249,0.5224,2.791543,-0.0874,0.3766,-0.1739,-2.8721,-0.1217,-0.0223,-1.3259,0.0981,0.2084,0.2479,0.1233,-14.2474,1.0238,20.5855,145.52,55.00
9.444,199,1,0.8988,0.663302,0.848230,0.000000,0.8696,0.3350,0.0991,0.7765,0.3350,0.0991,0.7765,0.063079,-0.601731,0.789839,0.100478,0.0245,,0.1581,-0.0696,0.3239,0.5144,2.850327,-0.1016,0.3831,-0.1960,-2.8430,-0.2497,-0.0219,-1.6217,-0.1283,0.0531,-0.1648,-0.0763,4.6450,-0.0056,-12.4203,122.19,55.00
9.488,200,1,0.8729,0.592971,0.851627,0.000000,0.8980,0.3350,-0.0356,0.7717,0.3350,-0.0356,0.7717,0.110748,-0.613351,0.775928,0.097320,0.0258,,0.2213,-0.1474,0.3180,0.4808,2.911392,-0.0887,0.3938,-0.1786,-2.8542,-1.6266,-0.0205,-0.9076,0.0570,0.0961,0.0759,-0.1265,-23.2175,0.0527,0.1199,125.42,55.00
9.528,201,1,0.8905,0.574879,0.847608,0.000000,0.9301,0.3350,-0.0925,0.7766,0.3350,-0.0925,0.7766,0.084027,-0.625831,0.769906,0.092299,0.0273,,0.2055,-0.1466,0.3238,0.4741,2.804582,-0.1009,0.3848,-0.1941,-2.8261,-1.2951,-0.0222,-2.4467,-0.1470,-0.0795,-0.1883,0.1505,17.7476,-0.0108,-24.9346,145.52,55.00
9.571,202,1,0.9382,0.560367,0.849644,0.000000,0.9910,0.3350,-0.1289,0.7745,0.3350,-0.1289,0.7745,0.122878,-0.626078,0.763938,0.096574,0.0302,,0.2518,-0.1513,0.3165,0.4661,2.841438,-0.0895,0.3960,-0.1785,-2.8335,-1.9137,-0.0219,-1.5015,0.0618,0.0951,0.0853,-0.0473,-18.8560,-0.0135,23.9164,124.57,55.00
9.613,203,1,0.9321,0.561714,0.848969,0.000000,0.9672,0.3350,-0.1330,0.7751,0.3350,-0.1330,0.7751,0.092381,-0.629974,0.763315,0.109310,0.0290,,0.2167,-0.1509,0.3237,0.4670,2.772274,-0.1007,0.3872,-0.1926,-2.8089,-1.3778,-0.0221,-2.4254,-0.1509,-0.0789,-0.1931,0.1520,18.4520,-0.0105,-23.5441,145.52,55.00
9.655,204,1,0.9366,0.560976,0.845179,0.000000,0.9455,0.3350,-0.1351,0.7788,0.3350,-0.1351,0.7788,0.093010,-0.632031,0.761910,0.106673,0.0280,,0.2617,-0.1519,0.3174,0.4675,2.836093,-0.0896,0.3972,-0.1773,-2.8145,-1.9671,-0.0223,-1.5309,0.0601,0.0837,0.0834,-0.0262,-18.7660,-0.0054,23.5597,124.03,55.00
9.685,205,1,0.9293,0.562270,0.844510,0.000000,0.9735,0.3350,-0.1331,0.7795,0.3350,-0.1331,0.7795,0.094672,-0.630875,0.762917,0.104842,0.0293,,0.2254,-0.1535,0.3244,0.4685,2.773457,-0.1006,0.3884,-0.1912,-2.7900,-1.4222,-0.0222,-2.4492,-0.1520,-0.0785,-0.1944,0.1541,18.5101,-0.0102,-23.5090,145.52,55.00
9.730,206,1,0.9275,0.563492,0.839648,0.000000,0.9735,0.3350,-0.1306,0.7796,0.3350,-0.1306,0.7796,0.095320,-0.628889,0.765576,0.096468,0.0293,,0.2702,-0.1525,0.3186,0.4660,2.849517,-0.0897,0.3984,-0.1761,-2.7956,-2.0048,-0.0221,-1.5105,0.0584,0.0837,0.0818,-0.0224,-18.7245,-0.0103,23.7700,124.02,55.00
9.760,207,1,0.9388,0.557482,0.842197,0.000000,1.0059,0.3350,-0.1410,0.7796,0.3350,-0.1410,0.7796,0.143174,-0.595256,0.782542,0.113132,0.0309,,0.2333,-0.1555,0.3252,0.4658,2.681041,-0.1005,0.3897,-0.1898,-2.7713,-1.4558,-0.0222,-2.3951,-0.1531,-0.0781,-0.1955,0.1554,18.5358,-0.0095,-23.2192,145.52,55.00
9.800,208,1,0.9851,0.544363,0.833143,0.000000,1.0474,0.3350,-0.1665,0.7796,0.3350,-0.1665,0.7796,0.222940,-0.518003,0.785905,0.253623,0.0328,,0.2782,-0.1527,0.3198,0.4635,2.439246,-0.0898,0.4002,-0.1749,-2.7781,-2.0410,-0.0227,-1.5874,0.0570,0.0872,0.0802,-0.0296,-18.7190,0.0051,22.9662,124.01,55.00
9.831,209,1,0.9878,0.561437,0.832435,0.000000,0.9920,0.3350,-0.1403,0.7796,0.3350,-0.1403,0.7796,0.306062,-0.428764,0.733733,0.429095,0.0302,,0.2398,-0.1571,0.3256,0.4642,2.039883,-0.1004,0.3916,-0.1884,-2.7586,-1.4909,-0.0220,-2.5605,-0.1532,-0.0780,-0.1960,0.1185,18.5684,-0.0134,-23.7417,140.89,55.00
9.876,210,1,0.9849,0.582639,0.831266,0.000000,0.8713,0.3350,-0.0973,0.7796,0.3350,-0.0973,0.7796,0.399940,-0.293580,0.642340,0.584174,0.0245,,0.2826,-0.1527,0.3200,0.4659,1.645856,-0.0898,0.4027,-0.1736,-2.7680,-2.0592,-0.0201,-1.3625,0.0771,0.0660,0.0943,-0.0510,-18.7273,1.2991,23.1945,124.29,55.00
9.907,211,1,0.9924,0.607977,0.806026,0.000000,0.8273,0.3350,-0.0439,0.7796,0.3350,-0.0439,0.7796,0.463943,-0.059305,0.415431,0.780165,0.0225,,0.2424,-0.1573,0.3251,0.4775,1.011067,-0.1003,0.3943,-0.1870,-2.7566,-1.5135,-0.0231,-2.2791,-0.1539,-0.0773,-0.1958,0.0528,18.5160,0.0482,-23.4194,132.14,55.00
9.945,212,1,0.9894,0.609616,0.819733,0.000000,0.7461,0.3350,-0.0313,0.7796,0.3350,-0.0313,0.7796,0.490649,0.080583,0.316628,0.807785,0.0186,,0.2864,-0.1523,0.3196,0.4782,0.807842,-0.0899,0.4034,-0.1724,-2.7658,-2.0949,-0.0193,-1.4948,0.0552,0.0749,0.0782,-0.0446,-18.6794,0.0141,22.9302,112.46,55.00
9.973,213,1,0.9963,0.611815,0.821307,0.000000,0.7385,0.3350,-0.0251,0.7796,0.3350,-0.0251,0.7796,0.501103,0.095080,0.299437,0.806346,0.0183,,0.2442,-0.1579,0.3243,0.4829,0.866032,-0.1002,0.3948,-0.1855,-2.7600,-1.5443,-0.0191,-2.3363,-0.1534,-0.0775,-0.1953,0.0066,18.5244,0.0025,-23.1513,124.89,55.00
10.016,214,1,0.9932,0.611462,0.827193,0.000000,0.7260,0.3350,-0.0246,0.7796,0.3350,-0.0246,0.7796,0.514048,0.096619,0.273210,0.807326,0.0177,,0.2881,-0.1513,0.3191,0.4799,0.781508,-0.0900,0.4030,-0.1712,-2.7686,-2.1225,-0.0189,-1.5325,0.0550,0.0675,0.0778,-0.0365,-18.6685,0.0102,23.0196,111.52,55.00
10.047,215,1,0.9889,0.605282,0.824614,0.000000,0.7053,0.3350,-0.0357,0.7796,0.3350,-0.0357,0.7796,0.505072,0.118923,0.266965,0.812089,0.0167,,0.2458,-0.1580,0.3240,0.4801,0.837592,-0.1002,0.3946,-0.1841,-2.7633,-1.5721,-0.0188,-2.3609,-0.1528,-0.0758,-0.1946,0.0038,18.5180,0.0032,-23.0884,123.93,55.00
10.089,216,1,0.9840,0.598890,0.825028,0.000000,0.7347,0.3350,-0.0492,0.7796,0.3350,-0.0492,0.7796,0.507415,0.132283,0.257537,0.811607,0.0181,,0.2896,-0.1501,0.3185,0.4742,0.777391,-0.0900,0.4030,-0.1699,-2.7723,-2.1510,-0.0186,-1.5524,0.0547,0.0680,0.0773,-0.0370,-18.6766,0.0100,23.0412,111.09,55.00
10.126,217,1,0.9910,0.596589,0.825651,0.000000,0.7792,0.3350,-0.0558,0.7796,0.3350,-0.0558,0.7796,0.499976,0.116244,0.265624,0.816061,0.0202,,0.2476,-0.1579,0.3236,0.4754,0.832063,-0.1001,0.3945,-0.1827,-2.7668,-1.6017,-0.0187,-2.3779,-0.1521,-0.0765,-0.1938,0.0079,18.5068,0.0028,-23.0745,123.91,55.00
10.165,218,1,0.9940,0.592090,0.827512,0.000000,0.7272,0.3350,-0.0651,0.7796,0.3350,-0.0651,0.7796,0.502163,0.119484,0.271222,0.812400,0.0177,,0.2914,-0.1488,0.3179,0.4712,0.797195,-0.0901,0.4028,-0.1687,-2.7756,-2.1813,-0.0187,-1.5570,0.0544,0.0669,0.0768,-0.0336,-18.6852,0.0093,23.1180,111.17,55.00
10.205,219,1,0.9922,0.592259,0.822138,0.000000,0.6263,0.3350,-0.0664,0.7796,0.3350,-0.0664,0.7796,0.504578,0.111888,0.281097,0.808620,0.0130,,0.2497,-0.1579,0.3233,0.4732,0.812372,-0.1000,0.3942,-0.1812,-2.7699,-1.6336,-0.0188,-2.3827,-0.1515,-0.0775,-0.1930,0.0127,18.4946,0.0019,-23.0806,124.18,55.00
10.245,220,1,0.9905,0.590799,0.818147,0.000000,0.6775,0.3350,-0.0693,0.7796,0.3350,-0.0693,0.7796,0.501081,0.114999,0.276347,0.811989,0.0154,,0.2934,-0.1473,0.3175,0.4705,0.822664,-0.0902,0.4023,-0.1675,-2.7786,-2.2144,-0.0186,-1.5603,0.0540,0.0655,0.0762,-0.0304,-18.6954,0.0088,23.1293,111.15,55.00
10.288,221,1,0.9934,0.587020,0.810719,0.000000,0.7375,0.3350,-0.0767,0.7796,0.3350,-0.0767,0.7796,0.491278,0.066769,0.290726,0.818331,0.0182,,0.2523,-0.1578,0.3231,0.4710,0.786656,-0.0999,0.3937,-0.1798,-2.7715,-1.6671,-0.0190,-2.3664,-0.1509,-0.0786,-0.1921,0.0262,18.4852,0.0037,-22.9740,124.73,55.00
10.320,222,1,0.9930,0.586499,0.813108,0.000000,0.6998,0.3350,-0.0789,0.7796,0.3350,-0.0789,0.7796,0.501055,0.035362,0.317277,0.804381,0.0165,,0.2961,-0.1458,0.3176,0.4685,0.890838,-0.0903,0.4011,-0.1663,-2.7791,-2.2490,-0.0193,-1.5498,0.0536,0.0596,0.0757,-0.0187,-18.7037,0.0090,23.0788,112.04,55.00
10.367,223,1,0.9920,0.585321,0.808144,0.000000,0.7671,0.3350,-0.0814,0.7796,0.3350,-0.0814,0.7796,0.494316,0.014752,0.319571,0.808275,0.0196,,0.2558,-0.1578,0.3234,0.4693,0.779123,-0.0998,0.3925,-0.1784,-2.7706,-1.7029,-0.0194,-2.3722,-0.1503,-0.0788,-0.1913,0.0415,18.4812,0.0033,-23.0604,125.62,55.00
10.398,224,1,0.9932,0.587355,0.804666,0.000000,0.7928,0.3350,-0.0782,0.7796,0.3350,-0.0782,0.7796,0.492084,-0.010556,0.321153,0.809075,0.0208,,0.2996,-0.1444,0.3181,0.4675,0.905574,-0.0903,0.3993,-0.1651,-2.7773,-2.2846,-0.0195,-1.5529,0.0532,0.0542,0.0751,-0.0089,-18.7015,0.0091,23.1056,112.52,55.00
10.426,225,1,0.9925,0.587584,0.799315,0.000000,0.7457,0.3350,-0.0772,0.7796,0.3350,-0.0772,0.7796,0.493376,0.000617,0.335651,0.802445,0.0186,,0.2598,-0.1579,0.3240,0.4688,0.792377,-0.0997,0.3907,-0.1770,-2.7682,-1.7394,-0.0194,-2.3963,-0.1496,-0.0791,-0.1905,0.0483,18.4813,-0.0009,-23.1720,126.00,55.00
10.459,226,1,0.9938,0.593262,0.797026,0.000000,0.8040,0.3350,-0.0668,0.7796,0.3350,-0.0668,0.7796,0.495699,-0.017163,0.335467,0.800906,0.0214,,0.3031,-0.1429,0.3187,0.4682,0.964951,-0.0904,0.3975,-0.1639,-2.7750,-2.3197,-0.0194,-1.5514,0.0528,0.0545,0.0746,-0.0074,-18.6942,0.0061,23.2764,112.65,55.00
10.488,227,1,0.9921,0.594459,0.800037,0.000000,0.8820,0.3350,-0.0628,0.7796,0.3350,-0.0628,0.7796,0.499677,-0.077529,0.353675,0.786909,0.0250,,0.2642,-0.1578,0.3248,0.4700,0.790915,-0.0997,0.3890,-0.1756,-2.7639,-1.7738,-0.0199,-2.3897,-0.1492,-0.0792,-0.1899,0.0685,18.4849,-0.0020,-23.1533,127.68,55.00
10.529,228,1,0.9929,0.581381,0.809348,0.000000,0.7991,0.3350,-0.0856,0.7796,0.3350,-0.0856,0.7796,0.502600,-0.182841,0.534966,0.654044,0.0211,,0.3071,-0.1413,0.3198,0.4640,1.471396,-0.0905,0.3960,-0.1627,-2.7699,-2.3541,-0.0215,-1.5460,0.0523,0.0560,0.0742,0.0007,-18.6950,0.0046,23.2654,118.24,55.00
10.560,229,1,0.9921,0.566621,0.807941,0.000000,1.0214,0.3350,-0.1164,0.7796,0.3350,-0.1164,0.7796,0.502113,-0.343913,0.625883,0.487727,0.0316,,0.2708,-0.1581,0.3267,0.4593,1.504434,-0.0996,0.3876,-0.1742,-2.7499,-1.8052,-0.0225,-2.4074,-0.1491,-0.0794,-0.1898,0.1463,18.5177,-0.0026,-23.2713,141.66,55.00
10.602,230,1,0.9683,0.551659,0.794910,0.000000,1.0264,0.3350,-0.1489,0.7796,0.3350,-0.1489,0.7796,0.425862,-0.466058,0.694541,0.345028,0.0318,,0.3142,-0.1406,0.3232,0.4570,2.252613,-0.0906,0.3930,-0.1615,-2.7523,-2.3833,-0.0227,-1.5524,0.0513,0.0424,0.0734,0.0325,-18.6743,0.0035,23.3041,124.65,55.00
10.645,231,1,0.9416,0.551608,0.790934,0.000000,0.9751,0.3350,-0.1549,0.7796,0.3350,-0.1549,0.7796,0.326777,-0.519812,0.761907,0.206182,0.0294,,0.2792,-0.1590,0.3298,0.4532,2.276572,-0.0995,0.3846,-0.1728,-2.7286,-1.8346,-0.0219,-2.5149,-0.1492,-0.0796,-0.1902,0.1793,18.5528,-0.0143,-23.6843,145.52,55.00
10.685,232,1,0.9434,0.557393,0.792618,0.000000,0.9186,0.3350,-0.1455,0.7796,0.3350,-0.1455,0.7796,0.265967,-0.567596,0.769682,0.121188,0.0268,,0.3214,-0.1408,0.3269,0.4529,2.780898,-0.0907,0.3908,-0.1603,-2.7307,-2.4009,-0.0220,-1.4370,0.0545,0.0425,0.0753,0.0326,-18.6511,0.2148,23.7156,124.71,55.00
10.715,233,1,0.9394,0.558009,0.787856,0.000000,0.8638,0.3350,-0.1427,0.7796,0.3350,-0.1427,0.7796,0.250745,-0.583604,0.768060,0.081348,0.0242,,0.2864,-0.1598,0.3331,0.4495,2.585375,-0.0994,0.3825,-0.1715,-2.7073,-1.8510,-0.0229,-2.3740,-0.1501,-0.0789,-0.1909,0.1788,18.5599,0.0112,-23.5870,145.52,55.00
10.757,234,1,0.9353,0.563555,0.781776,0.000000,0.8752,0.3350,-0.1322,0.7796,0.3350,-0.1322,0.7796,0.228640,-0.581903,0.778961,0.048303,0.0247,,0.3294,-0.1407,0.3318,0.4479,2.890807,-0.0907,0.3870,-0.1591,-2.7067,-2.4219,-0.0228,-1.5579,0.0492,0.0338,0.0716,0.0579,-18.5968,0.0072,23.1451,126.67,55.00
10.787,235,1,0.9228,0.563334,0.772764,0.000000,0.8930,0.3350,-0.1307,0.7796,0.3350,-0.1307,0.7796,0.222316,-0.563405,0.794706,0.039912,0.0256,,0.2936,-0.1608,0.3373,0.4453,2.684386,-0.0994,0.3786,-0.1702,-2.6834,-1.8608,-0.0225,-2.4100,-0.1511,-0.0787,-0.1922,0.1781,18.6267,-0.0003,-23.1593,145.52,55.00
10.832,236,1,0.9329,0.563307,0.771025,0.000000,0.8856,0.3350,-0.1305,0.7796,0.3350,-0.1305,0.7796,0.213244,-0.545572,0.808524,0.056269,0.0252,,0.3355,-0.1413,0.3361,0.4437,2.866240,-0.0908,0.3848,-0.1579,-2.6848,-2.4254,-0.0228,-1.5495,0.0482,0.0473,0.0709,0.0420,-18.5509,0.0057,23.3272,125.26,55.00
10.871,237,1,0.9277,0.545136,0.779509,0.000000,0.8677,0.3350,-0.1632,0.7796,0.3350,-0.1632,0.7796,0.287850,-0.547847,0.782705,0.066170,0.0244,,0.2993,-0.1618,0.3408,0.4403,2.551720,-0.0993,0.3766,-0.1689,-2.6617,-1.8600,-0.0223,-2.4245,-0.1523,-0.0785,-0.1936,0.1769,18.6684,-0.0069,-23.2828,145.52,55.00
10.901,238,1,0.9504,0.536374,0.794720,0.000000,0.9519,0.3350,-0.1849,0.7796,0.3350,-0.1849,0.7796,0.294847,-0.573608,0.756127,0.110959,0.0283,,0.3410,-0.1425,0.3409,0.4408,2.728143,-0.0908,0.3818,-0.1566,-2.6620,-2.4170,-0.0224,-1.5246,0.0473,0.0392,0.0704,0.0509,-18.4936,-0.0038,23.5609,126.26,55.00
10.941,239,1,0.9466,0.528566,0.811070,0.000000,0.8849,0.3350,-0.2029,0.7796,0.3350,-0.2029,0.7796,0.241916,-0.630523,0.729481,0.108514,0.0252,,0.3042,-0.1628,0.3448,0.4378,2.538116,-0.0993,0.3736,-0.1677,-2.6390,-1.8477,-0.0222,-2.4293,-0.1539,-0.0782,-0.1955,0.1750,18.7109,-0.0096,-23.4345,145.52,55.00
10.982,240,1,0.9337,0.532096,0.820439,0.000000,0.8660,0.3350,-0.1998,0.7796,0.3350,-0.1998,0.7796,0.244247,-0.649969,0.713569,0.093294,0.0243,,0.3461,-0.1443,0.3467,0.4366,2.744638,-0.0908,0.3773,-0.1552,-2.6367,-2.3976,-0.0223,-1.5277,0.0465,0.0255,0.0699,0.0708,-18.4349,-0.0064,23.5892,128.86,55.00
11.024,241,1,0.9006,0.543635,0.808002,0.000000,0.8365,0.3350,-0.1784,0.7796,0.3350,-0.1784,0.7796,0.243973,-0.653089,0.713791,0.066740,0.0229,,0.3084,-0.1640,0.3496,0.4311,2.589926,-0.0994,0.3690,-0.1665,-2.6137,-1.8206,-0.0223,-2.3847,-0.1562,-0.0776,-0.1982,0.1718,18.7646,-0.0060,-23.1944,145.52,55.00
11.054,242,1,0.9134,0.555977,0.798865,0.000000,0.8412,0.3350,-0.1523,0.7796,0.3350,-0.1523,0.7796,0.245474,-0.634689,0.729397,0.069947,0.0231,,0.3501,-0.1463,0.3525,0.4275,2.762771,-0.0907,0.3732,-0.1539,-2.6120,-2.3674,-0.0228,-1.5448,0.0458,0.0298,0.0696,0.0641,-18.3906,0.0062,23.2459,128.39,55.00
11.098,243,1,0.8811,0.574832,0.787147,0.000000,0.8235,0.3350,-0.1136,0.7796,0.3350,-0.1136,0.7796,0.237786,-0.615109,0.748472,0.069914,0.0223,,0.3146,-0.1650,0.3546,0.4285,2.599300,-0.0994,0.3650,-0.1653,-2.5893,-1.8223,-0.0226,-2.3599,-0.1552,-0.0771,-0.1969,0.1708,18.4719,0.0005,-22.8966,145.52,55.00
11.128,244,1,0.8768,0.589000,0.778260,0.000000,0.8936,0.3350,-0.0810,0.7796,0.3350,-0.0810,0.7796,0.226726,-0.591876,0.769606,0.077358,0.0256,,0.3575,-0.1459,0.3579,0.4273,2.746445,-0.0908,0.3705,-0.1527,-2.5892,-2.3928,-0.0228,-1.5372,0.0442,0.0397,0.0680,0.0524,-18.4959,0.0083,23.1079,126.88,55.00
11.165,245,1,0.9242,0.605788,0.775462,0.000000,0.8513,0.3350,-0.0449,0.7796,0.3350,-0.0449,0.7796,0.187646,-0.591821,0.781787,0.057853,0.0236,,0.3196,-0.1659,0.3590,0.4379,2.691492,-0.0994,0.3623,-0.1640,-2.5666,-1.8144,-0.0224,-2.4187,-0.1586,-0.0771,-0.2011,0.1690,18.8146,-0.0038,-23.3018,145.52,55.00
11.195,246,1,0.9417,0.621155,0.771276,0.000000,0.8394,0.3350,-0.0107,0.7796,0.3350,-0.0107,0.7796,0.220019,-0.575074,0.787200,0.034610,0.0230,,0.3598,-0.1481,0.3619,0.4405,2.817756,-0.0907,0.3694,-0.1513,-2.5683,-2.3533,-0.0225,-1.5268,0.0445,0.0537,0.0688,0.0336,-18.3173,-0.0025,23.5169,125.49,55.00
11.232,247,1,0.9263,0.638163,0.770528,0.000000,0.8116,0.3350,0.0262,0.7796,0.3350,0.0262,0.7796,0.200712,-0.556508,0.805646,0.030791,0.0217,,0.3236,-0.1666,0.3625,0.4597,2.721568,-0.0994,0.3613,-0.1629,-2.5459,-1.8021,-0.0226,-2.3389,-0.1579,-0.0764,-0.2001,0.1674,18.5236,0.0000,-22.8927,145.52,55.00
11.261,248,1,0.9182,0.649784,0.771560,0.000000,0.8422,0.3350,0.0538,0.7796,0.3350,0.0538,0.7796,0.197649,-0.535493,0.820666,0.026258,0.0232,,0.3656,-0.1480,0.3661,0.4611,2.837010,-0.0907,0.3690,-0.1501,-2.5483,-2.3665,-0.0229,-1.5159,0.0430,0.0573,0.0674,0.0289,-18.4304,0.0081,23.1097,125.11,55.00
11.304,249,1,0.9187,0.656968,0.774111,0.000000,0.8895,0.3350,0.0717,0.7796,0.3350,0.0717,0.7796,0.190495,-0.520527,0.831781,0.030076,0.0254,,0.3265,-0.1673,0.3655,0.4783,2.747595,-0.0994,0.3609,-0.1617,-2.5260,-1.7776,-0.0226,-2.3727,-0.1620,-0.0761,-0.2051,0.1646,18.8968,0.0005,-23.1723,145.52,55.00
11.334,250,1,0.9004,0.659507,0.775186,0.000000,0.8981,0.3350,0.0795,0.7796,0.3350,0.0795,0.7796,0.190493,-0.512225,0.837062,0.025814,0.0258,,0.3660,-0.1506,0.3685,0.4721,2.824652,-0.0905,0.3703,-0.1486,-2.5304,-2.3117,-0.0228,-1.5564,0.0438,0.0721,0.0688,0.0087,-18.2549,0.0073,23.0999,124.29,55.00
11.374,251,1,0.9202,0.652893,0.774869,0.000000,0.8813,0.3350,0.0690,0.7796,0.3350,0.0690,0.7796,0.176882,-0.518588,0.835231,0.046572,0.0250,,0.3267,-0.1680,0.3669,0.4759,2.749898,-0.0996,0.3622,-0.1607,-2.5081,-1.7274,-0.0224,-2.4454,-0.1635,-0.0755,-0.2071,0.1609,18.8282,-0.0058,-23.3455,145.52,55.00
11.406,252,1,0.9369,0.638034,0.773011,0.000000,0.8658,0.3350,0.0403,0.7796,0.3350,0.0403,0.7796,0.223397,-0.518169,0.824907,0.033502,0.0243,,0.3665,-0.1526,0.3700,0.4538,2.789662,-0.0904,0.3730,-0.1472,-2.5142,-2.2640,-0.0225,-1.5204,0.0436,0.0840,0.0691,-0.0087,-18.2695,-0.0031,23.6640,123.95,55.00
11.445,253,1,0.9304,0.622857,0.775083,0.000000,0.8240,0.3350,0.0077,0.7796,0.3350,0.0077,0.7796,0.215631,-0.534043,0.816999,0.028516,0.0223,,0.3267,-0.1683,0.3676,0.4481,2.710776,-0.0997,0.3649,-0.1596,-2.4920,-1.6796,-0.0223,-2.3753,-0.1657,-0.0743,-0.2095,0.1568,18.8369,-0.0064,-23.1859,145.52,55.00
11.485,254,1,0.9344,0.605059,0.782258,0.000000,0.9312,0.3350,-0.0302,0.7796,0.3350,-0.0302,0.7796,0.163583,-0.568070,0.805385,0.043489,0.0273,,0.3674,-0.1544,0.3724,0.4269,2.764144,-0.0903,0.3743,-0.1458,-2.4957,-2.2182,-0.0228,-1.5583,0.0439,0.0725,0.0699,0.0077,-18.2558,0.0067,23.1081,124.59,55.00
11.524,255,1,0.8947,0.578745,0.788172,0.000000,1.0419,0.3350,-0.0845,0.7796,0.3350,-0.0845,0.7796,0.137804,-0.564618,0.808813,0.089654,0.0326,,0.3271,-0.1685,0.3690,0.4192,2.748813,-0.0999,0.3661,-0.1586,-2.4735,-1.6294,-0.0223,-2.4547,-0.1679,-0.0734,-0.2123,0.1527,18.8904,-0.0067,-23.3841,145.52,55.00
11.555,256,1,0.8904,0.558058,0.801142,0.000000,0.9747,0.3350,-0.1316,0.7796,0.3350,-0.1316,0.7796,0.154425,-0.598456,0.782022,0.080274,0.0294,,0.3672,-0.1565,0.3740,0.4076,2.680227,-0.0901,0.3765,-0.1443,-2.4781,-2.1596,-0.0221,-1.5070,0.0446,0.0811,0.0712,-0.0027,-18.2111,-0.0109,23.8130,124.40,55.00
11.593,257,1,0.9215,0.498634,0.837178,0.000000,0.8444,0.3350,-0.2287,0.7796,0.3350,-0.2287,0.7796,0.055978,-0.645448,0.752979,0.115267,0.0233,,0.3264,-0.1683,0.3696,0.4145,2.822454,-0.1001,0.3684,-0.1576,-2.4559,-1.5685,-0.0226,-2.4454,-0.1703,-0.0721,-0.2151,0.1476,18.9293,0.0000,-23.5649,145.52,55.00
11.622,258,1,0.9293,0.476871,0.842167,0.000000,0.9772,0.3350,-0.2462,0.7796,0.3350,-0.2462,0.7796,0.136805,-0.647452,0.740817,0.115241,0.0295,,0.3667,-0.1584,0.3759,0.4143,2.595099,-0.0899,0.3781,-0.1427,-2.4590,-2.0959,-0.0224,-1.5176,0.0456,0.0760,0.0731,0.0048,-18.1840,-0.0050,23.7109,124.97,55.00
11.664,259,1,0.9141,0.476568,0.839544,0.000000,1.0107,0.3350,-0.2493,0.7796,0.3350,-0.2493,0.7796,0.093909,-0.661979,0.735960,0.106432,0.0311,,0.3255,-0.1678,0.3703,0.4175,2.778748,-0.1003,0.3698,-0.1566,-2.4369,-1.4990,-0.0222,-2.4407,-0.1727,-0.0703,-0.2179,0.1416,18.9787,-0.0098,-23.5305,145.52,55.00
11.696,260,1,0.9360,0.478273,0.844651,0.000000,1.0310,0.3350,-0.2499,0.7796,0.3350,-0.2499,0.7796,0.108422,-0.657860,0.736006,0.117302,0.0320,,0.3654,-0.1601,0.3772,0.4135,2.596266,-0.0896,0.3802,-0.1412,-2.4406,-2.0240,-0.0222,-1.5232,0.0472,0.0825,0.0755,-0.0047,-18.1593,-0.0092,23.6378,124.76,55.00
11.734,261,1,0.9196,0.482384,0.848904,0.000000,1.0244,0.3350,-0.2500,0.7762,0.3350,-0.2500,0.7762,0.129072,-0.656102,0.735659,0.108057,0.0317,,0.3240,-0.1666,0.3704,0.4144,2.749951,-0.1006,0.3719,-0.1557,-2.4186,-1.4227,-0.0230,-2.5144,-0.1747,-0.0683,-0.2204,0.1352,19.0378,0.0162,-23.8550,145.52,55.00
11.777,262,1,0.9114,0.490357,0.849548,0.000000,1.0108,0.3350,-0.2500,0.7746,0.3350,-0.2500,0.7746,0.125163,-0.656496,0.738754,0.087116,0.0311,,0.3627,-0.1615,0.3765,0.4087,2.640747,-0.0894,0.3845,-0.1395,-2.4249,-1.9409,-0.0213,-1.4564,0.0550,0.0959,0.0820,-0.0347,-18.1691,0.2183,23.5435,124.29,55.00
11.819,263,1,0.9190,0.501328,0.852704,0.000000,0.9827,0.3350,-0.2500,0.7698,0.3350,-0.2500,0.7698,0.132120,-0.646633,0.745694,0.091377,0.0298,,0.3214,-0.1644,0.3688,0.4102,2.771938,-0.1009,0.3763,-0.1548,-2.4031,-1.3360,-0.0238,-2.4513,-0.1765,-0.0655,-0.2222,0.1280,19.0703,0.0484,-23.8532,145.52,55.00
11.859,264,1,0.9394,0.518237,0.855256,0.000000,0.9724,0.3350,-0.2333,0.7652,0.3350,-0.2333,0.7652,0.139582,-0.641182,0.746795,0.108166,0.0293,,0.3597,-0.1621,0.3752,0.3973,2.595655,-0.0891,0.3898,-0.1379,-2.4104,-1.8585,-0.0222,-1.5153,0.0522,0.1115,0.0823,-0.0477,-18.1407,-0.0090,23.7975,124.37,55.00
11.888,265,1,0.9288,0.538376,0.853331,0.000000,0.9270,0.3350,-0.1939,0.7672,0.3350,-0.1939,0.7672,0.163556,-0.635612,0.748160,0.097482,0.0272,,0.3186,-0.1619,0.3663,0.4025,2.732489,-0.1012,0.3817,-0.1539,-2.3889,-1.2464,-0.0221,-2.4352,-0.1775,-0.0628,-0.2234,0.1202,19.1131,-0.0101,-23.5181,145.52,55.00
11.926,266,1,0.9232,0.557832,0.849347,0.000000,0.8929,0.3350,-0.1517,0.7733,0.3350,-0.1517,0.7733,0.201068,-0.619250,0.754191,0.085424,0.0255,,0.3559,-0.1621,0.3726,0.4013,2.598055,-0.0888,0.3962,-0.1363,-2.3980,-1.7704,-0.0222,-1.5260,0.0556,0.1220,0.0866,-0.0695,-18.1509,-0.0093,23.5923,124.65,55.00
11.969,267,1,0.8788,0.582909,0.843413,0.000000,0.7728,0.3350,-0.0989,0.7785,0.3350,-0.0989,0.7785,0.220568,-0.623275,0.748126,0.056446,0.0199,,0.3155,-0.1583,0.3630,0.4201,2.685514,-0.1014,0.3881,-0.1530,-2.3767,-1.1532,-0.0222,-2.4039,-0.1777,-0.0596,-0.2235,0.1125,19.1426,-0.0090,-23.3041,145.52,55.00
12.007,268,1,0.9064,0.595993,0.840057,0.000000,0.7563,0.3350,-0.0658,0.7794,0.3350,-0.0658,0.7794,0.270774,-0.596413,0.752423,0.069512,0.0191,,0.3517,-0.1614,0.3693,0.4214,2.569248,-0.0884,0.4034,-0.1346,-2.3872,-1.6813,-0.0227,-1.5531,0.0594,0.1303,0.0914,-0.0888,-18.1749,0.0016,23.2932,125.13,55.00
12.048,269,1,0.9587,0.604395,0.838482,0.000000,0.7024,0.3350,-0.0447,0.7796,0.3350,-0.0447,0.7796,0.325830,-0.553165,0.761396,0.090105,0.0166,,0.3116,-0.1538,0.3588,0.4353,2.496344,-0.1017,0.3954,-0.1521,-2.3702,-1.0613,-0.0226,-2.3871,-0.1769,-0.0563,-0.2223,0.0721,19.1525,0.0035,-23.1320,141.51,55.00
12.091,270,1,0.9821,0.606458,0.838136,-0.000000,0.8236,0.3350,-0.0372,0.7796,0.3350,-0.0372,0.7796,0.390121,-0.470325,0.774945,0.161431,0.0223,,0.3459,-0.1598,0.3637,0.4338,2.325121,-0.0881,0.4132,-0.1330,-2.3846,-1.5931,-0.0228,-1.5430,0.0636,0.1535,0.0964,-0.1279,-18.2058,0.0055,23.2744,128.15,55.00
12.123,271,1,0.9951,0.610829,0.846489,-0.000000,0.8454,0.3350,-0.0279,0.7796,0.3350,-0.0279,0.7796,0.457938,-0.371205,0.746105,0.309561,0.0233,,0.3057,-0.1486,0.3523,0.4450,2.106386,-0.1019,0.4052,-0.1511,-2.3758,-0.9761,-0.0226,-2.3904,-0.1747,-0.0537,-0.2197,-0.0007,19.1299,0.0028,-23.1991,136.16,55.00
12.162,272,1,0.9946,0.649193,0.864139,-0.000000,0.4710,0.3350,0.0430,0.7542,0.3350,0.0430,0.7542,0.520850,-0.198051,0.660379,0.503379,0.0057,,0.3383,-0.1573,0.3561,0.4457,1.557387,-0.0879,0.4241,-0.1315,-2.3924,-1.5113,-0.0228,-1.5459,0.0679,0.1642,0.1014,-0.1526,-18.2461,0.0051,23.2876,130.51,55.00
12.194,273,1,0.9954,0.667871,0.851579,-0.000000,0.5196,0.3350,0.0894,0.7677,0.3350,0.0894,0.7677,0.502957,-0.022949,0.517189,0.692115,0.0080,,0.2977,-0.1428,0.3443,0.4844,1.690602,-0.1020,0.4168,-0.1500,-2.3930,-0.8984,-0.0218,-2.3341,-0.1716,-0.0473,-0.2161,-0.0828,19.0766,0.0090,-22.8850,130.77,55.00
12.235,274,1,0.9950,0.674356,0.860132,-0.000000,0.5603,0.3350,0.1095,0.7578,0.3350,0.1095,0.7578,0.494156,0.042468,0.432485,0.752970,0.0099,,0.3295,-0.1545,0.3484,0.4872,1.010768,-0.0877,0.4332,-0.1300,-2.4076,-1.4393,-0.0210,-1.5119,0.0717,0.1439,0.1058,-0.1396,-18.2902,0.0091,23.1113,120.84,55.00
12.273,275,1,0.9969,0.677843,0.867010,-0.000000,0.5302,0.3350,0.1194,0.7461,0.3350,0.1194,0.7461,0.512545,0.084705,0.351467,0.778842,0.0085,,0.2903,-0.1376,0.3374,0.4849,1.581617,-0.1021,0.4271,-0.1489,-2.4102,-0.8335,-0.0204,-2.3126,-0.1685,-0.0351,-0.2125,-0.1017,19.0160,0.0076,-22.9423,125.11,55.00
12.311,276,1,0.9973,0.680795,0.870521,0.000000,0.5324,0.3350,0.1265,0.7389,0.3350,0.1265,0.7389,0.511249,0.093293,0.322627,0.791096,0.0086,,0.3217,-0.1517,0.3418,0.4850,0.840119,-0.0875,0.4416,-0.1287,-2.4226,-1.3795,-0.0201,-1.4946,0.0750,0.1286,0.1096,-0.1266,-18.3327,0.0084,23.0920,116.33,55.00
12.343,277,1,0.9966,0.675398,0.875775,0.000000,0.5319,0.3350,0.1180,0.7300,0.3350,0.1180,0.7300,0.504969,0.093072,0.319026,0.796597,0.0086,,0.2841,-0.1328,0.3319,0.4734,1.593111,-0.1022,0.4359,-0.1478,-2.4255,-0.7798,-0.0201,-2.2966,-0.1656,-0.0315,-0.2093,-0.1060,18.9649,0.0058,-22.9486,124.14,55.00
12.381,278,1,0.9968,0.673017,0.883625,0.000000,0.5372,0.3350,0.1122,0.7171,0.3350,0.1122,0.7171,0.512559,0.083869,0.303841,0.798705,0.0088,,0.3147,-0.1489,0.3360,0.4625,0.782868,-0.0874,0.4497,-0.1273,-2.4371,-1.3310,-0.0200,-1.4791,0.0778,0.1238,0.1127,-0.1234,-18.3753,0.0083,23.0892,115.64,55.00
12.423,279,1,0.9962,0.671661,0.886382,0.000000,0.5208,0.3350,0.1087,0.7108,0.3350,0.1087,0.7108,0.501417,0.082281,0.313831,0.802073,0.0080,,0.2787,-0.1287,0.3271,0.4547,1.602587,-0.1022,0.4442,-0.1467,-2.4400,-0.7364,-0.0201,-2.2812,-0.1630,-0.0301,-0.2064,-0.1062,18.9205,0.0055,-22.9493,123.85,55.00
12.460,280,1,0.9952,0.668789,0.891345,0.000000,0.5599,0.3350,0.1029,0.7025,0.3350,0.1029,0.7025,0.503357,0.098287,0.293157,0.806864,0.0099,,0.3085,-0.1464,0.3308,0.4484,0.770398,-0.0873,0.4576,-0.1261,-2.4512,-1.2921,-0.0199,-1.4638,0.0800,0.1216,0.1152,-0.1240,-18.4114,0.0085,23.0880,115.34,55.00
12.501,281,1,0.9760,0.663066,0.889952,0.000000,0.7168,0.3350,0.0915,0.7030,0.3350,0.0915,0.7030,0.500779,0.092488,0.240471,0.826341,0.0173,,0.2737,-0.1251,0.3230,0.4418,1.573565,-0.1022,0.4518,-0.1455,-2.4537,-0.7020,-0.0195,-2.2659,-0.1608,-0.0325,-0.2040,-0.1036,18.8788,0.0066,-22.9478,122.90,55.00
12.542,282,1,0.9138,0.653091,0.894322,0.000000,0.7048,0.3350,0.0715,0.6968,0.3350,0.0715,0.6968,0.483803,0.086368,0.171125,0.853927,0.0167,,0.3038,-0.1443,0.3272,0.4292,0.584620,-0.0873,0.4626,-0.1248,-2.4616,-1.2606,-0.0189,-1.4486,0.0818,0.0993,0.1173,-0.0985,-18.4326,0.0097,23.0854,111.76,55.00
12.581,283,1,0.9098,0.651919,0.891731,0.000001,0.9000,0.3350,0.0658,0.6994,0.3350,0.0658,0.6994,0.469564,0.032410,0.193954,0.860722,0.0259,,0.2715,-0.1243,0.3210,0.4282,1.612584,-0.1022,0.4556,-0.1443,-2.4624,-0.7012,-0.0191,-2.2838,-0.1595,-0.0427,-0.2027,-0.0872,18.6240,0.0018,-23.1206,123.55,55.00
12.623,284,1,0.8811,0.647880,0.890194,0.000001,0.9468,0.3350,0.0575,0.7021,0.3350,0.0575,0.7021,0.456554,-0.020418,0.225637,0.860366,0.0281,,0.3031,-0.1444,0.3254,0.4286,0.577447,-0.0873,0.4664,-0.1237,-2.4702,-1.2799,-0.0195,-1.4786,0.0803,0.0993,0.1151,-0.0969,-18.5405,0.0077,23.0312,112.81,55.00
12.666,285,1,0.9184,0.640115,0.880017,0.000001,0.9062,0.3350,0.0419,0.7173,0.3350,0.0419,0.7173,0.447851,-0.017439,0.266023,0.853438,0.0262,,0.2690,-0.1222,0.3193,0.4356,1.790906,-0.1022,0.4591,-0.1432,-2.4702,-0.6840,-0.0207,-2.3961,-0.1593,-0.0449,-0.2027,-0.0850,18.9929,0.0379,-23.4843,124.98,55.00
12.707,286,1,0.9562,0.642378,0.881212,0.000001,1.1211,0.3350,0.0432,0.7183,0.3350,0.0432,0.7183,0.438856,-0.080730,0.242322,0.861492,0.0363,,0.2981,-0.1417,0.3227,0.4383,0.704391,-0.0872,0.4698,-0.1225,-2.4777,-1.2345,-0.0195,-1.5960,0.0841,0.0993,0.1193,-0.0961,-18.4051,0.0011,22.9614,113.39,55.00
12.750,287,1,0.9635,0.639725,0.885988,0.000001,1.0349,0.3350,0.0387,0.7116,0.3350,0.0387,0.7116,0.450928,-0.063303,0.247665,0.855172,0.0322,,0.2670,-0.1207,0.3178,0.4302,1.909628,-0.1022,0.4622,-0.1420,-2.4770,-0.6739,-0.0218,-2.5373,-0.1572,-0.0482,-0.2008,-0.0757,18.6513,0.0640,-23.6127,125.16,55.00
12.782,288,1,0.9803,0.632120,0.888902,0.000000,0.8676,0.3350,0.0241,0.7062,0.3350,0.0241,0.7062,0.470791,-0.094020,0.292549,0.827001,0.0244,,0.2968,-0.1411,0.3209,0.4210,0.636479,-0.0872,0.4740,-0.1214,-2.4860,-1.2440,-0.0215,-1.4370,0.1001,0.0913,0.1269,-0.1063,-18.5778,0.7949,23.8421,115.16,55.00
12.819,289,1,0.9800,0.615020,0.894622,0.000000,0.9364,0.3350,-0.0093,0.6970,0.3350,-0.0093,0.6970,0.511644,-0.256737,0.550087,0.608038,0.0276,,0.2648,-0.1185,0.3160,0.4024,1.774983,-0.1022,0.4663,-0.1409,-2.4836,-0.6537,-0.0237,-2.3621,-0.1572,-0.0498,-0.2003,-0.0632,18.9530,0.0477,-23.5437,134.74,55.00
12.862,290,1,0.9931,0.610392,0.899283,-0.000000,0.8593,0.3350,-0.0237,0.6886,0.3350,-0.0237,0.6886,0.537313,-0.315984,0.628683,0.464981,0.0240,,0.2915,-0.1388,0.3165,0.3918,1.521696,-0.0872,0.4826,-0.1202,-2.4979,-1.2103,-0.0227,-1.5705,0.0856,0.1477,0.1207,-0.1570,-18.4564,0.0049,22.9966,129.08,55.00
12.903,291,1,0.9941,0.609552,0.898618,-0.000000,0.8576,0.3350,-0.0278,0.6880,0.3350,-0.0278,0.6880,0.541036,-0.324277,0.644323,0.432402,0.0239,,0.2605,-0.1154,0.3123,0.3929,1.846798,-0.1022,0.4750,-0.1398,-2.4954,-0.6248,-0.0225,-2.4249,-0.1546,-0.0499,-0.1977,-0.0616,18.8387,0.0008,-23.1717,134.75,55.00
12.944,292,1,0.9880,0.603790,0.896131,-0.000000,0.6995,0.3350,-0.0389,0.6915,0.3350,-0.0389,0.6915,0.499902,-0.357441,0.699121,0.365464,0.0164,,0.2863,-0.1368,0.3119,0.3950,1.784153,-0.0872,0.4927,-0.1190,-2.5117,-1.1888,-0.0226,-1.5231,0.0867,0.1592,0.1219,-0.1757,-18.5166,0.0018,23.5703,131.91,55.00
12.984,293,1,0.9889,0.599849,0.897086,-0.000000,0.6152,0.3350,-0.0480,0.6908,0.3350,-0.0480,0.6908,0.488412,-0.389167,0.726338,0.287116,0.0125,,0.2574,-0.1150,0.3089,0.3954,2.003274,-0.1022,0.4851,-0.1386,-2.5080,-0.6340,-0.0226,-2.3393,-0.1538,-0.0513,-0.1967,-0.0480,18.5714,0.0033,-23.0517,134.87,55.00
13.029,294,1,0.9715,0.610694,0.915957,0.000000,0.9233,0.3350,-0.0301,0.6634,0.3350,-0.0301,0.6634,0.324199,-0.535137,0.767350,0.140346,0.0270,,0.2822,-0.1354,0.3077,0.3746,2.411637,-0.0872,0.5030,-0.1179,-2.5240,-1.1775,-0.0228,-1.5271,0.0886,0.1605,0.1240,-0.1735,-18.2521,0.0069,23.0610,132.19,55.00
13.073,295,1,0.8112,0.639845,0.980585,0.000000,0.9179,0.3350,0.0257,0.5652,0.3350,0.0257,0.5652,-0.511819,-0.525694,0.666530,0.132003,0.0267,,0.2521,-0.1439,0.1037,0.4986,1.137271,-0.1047,0.4952,-0.1570,-2.5367,-0.6178,1.6771,-2.3644,-0.3268,0.0860,-0.2595,-1.0098,19.4097,24.0955,-24.0660,134.86,55.00
13.114,296,1,0.9407,0.650718,1.015426,0.000000,0.9169,0.3350,0.0554,0.5278,0.3350,0.0554,0.5278,0.487697,-0.533765,0.684682,0.091960,0.0267,,0.2822,-0.1847,0.1305,0.4672,2.781716,-0.0825,0.4950,-0.1432,-2.5304,-1.2141,1.4119,-1.4662,0.1052,0.1266,0.0286,-0.1841,-17.9565,-17.5473,23.8534,121.52,55.00
13.142,297,1,0.9384,0.661906,1.035258,0.000000,0.9413,0.3350,0.0809,0.5211,0.3350,0.0809,0.5211,0.237494,-0.591961,0.765359,0.086052,0.0278,,0.2699,-0.1183,0.0671,0.5000,1.955410,-0.1045,0.5206,-0.1343,-2.5663,-0.5879,2.0010,-2.3196,-0.0797,0.7873,0.2384,-1.5438,20.4443,18.2778,-24.3887,144.71,55.00
13.188,298,1,0.9423,0.661846,1.035083,0.000000,0.9093,0.3350,0.0854,0.5199,0.3350,0.0854,0.5199,0.173343,-0.606404,0.770727,0.090592,0.0263,,0.2635,-0.1810,0.1259,0.4809,2.419203,-0.0825,0.5251,-0.1284,-2.5637,-1.2400,1.3468,-1.4310,0.0826,0.1164,-0.0636,-0.1934,-18.0999,-19.2213,23.7231,126.86,55.00
13.219,299,1,0.9377,0.676952,1.053407,0.000000,0.8538,0.3350,0.1134,0.5197,0.3350,0.1134,0.5197,0.256919,-0.591826,0.758186,0.094278,0.0237,,0.2364,-0.1210,0.0703,0.5163,2.140163,-0.1037,0.5484,-0.1198,-2.5926,-0.6550,1.8412,-2.2822,-0.1109,0.7147,0.1858,-1.2756,19.7630,17.8866,-24.2245,145.52,55.00
13.260,300,1,0.9480,0.692267,1.066659,-0.000000,0.6230,0.3350,0.1461,0.5196,0.3350,0.1461,0.5196,0.297882,-0.587316,0.746636,0.094130,0.0128,,0.2560,-0.1815,0.1396,0.5079,2.698946,-0.0849,0.5524,-0.1053,-2.5667,-1.2550,1.1669,-1.4033,0.0594,0.0899,-0.0214,-0.0997,-17.5053,-19.0543,23.6343,135.28,55.00
13.302,301,1,0.9759,0.696529,1.052948,-0.000000,0.3145,0.3350,0.1597,0.5196,0.3350,0.1597,0.5196,0.261350,-0.599119,0.749869,0.102218,0.0000,,0.2217,-0.1259,0.0793,0.5369,2.296923,-0.1031,0.5723,-0.1016,-2.5901,-0.7088,1.6799,-2.2414,-0.1350,0.6034,0.0939,-1.0716,18.9596,18.0322,-24.0106,139.92,55.00
13.340,302,1,0.9634,0.714198,1.070654,-0.000001,0.2518,0.3350,0.1940,0.5196,0.3350,0.1940,0.5196,0.163610,-0.679865,0.703477,0.127024,0.0000,,0.2537,-0.1764,0.1473,0.5314,2.731182,-0.0858,0.5761,-0.0763,-2.5738,-1.2787,1.0440,-1.3645,0.0476,0.0742,0.0235,-0.0746,-17.1868,-18.7356,23.5942,139.42,55.00
13.385,303,1,0.9964,0.733682,1.062963,-0.000001,0.5809,0.3350,0.2353,0.5196,0.3350,0.2353,0.5196,-0.552996,-0.521451,0.580635,0.291799,0.0109,,0.2106,-0.1321,0.0824,0.5844,1.471304,-0.1025,0.5946,-0.1036,-2.5947,-0.7498,1.6068,-2.1936,-0.1462,0.5639,-0.1764,-0.9911,18.6011,18.3479,-23.9072,143.77,55.00
13.425,304,1,0.9968,0.725402,1.072812,-0.000001,0.4417,0.3350,0.2278,0.5196,0.3350,0.2278,0.5196,-0.188318,-0.628538,0.695836,0.292042,0.0043,,0.2458,-0.1803,0.1482,0.5590,2.716455,-0.0862,0.5981,-0.0843,-2.5890,-1.3105,0.9963,-1.3177,0.0402,0.0650,-0.0022,-0.0924,-17.0900,-18.6025,23.5723,134.29,55.00
13.469,305,1,0.9959,0.729340,1.058552,-0.000001,0.4554,0.3350,0.2336,0.5196,0.3350,0.2336,0.5196,-0.181143,-0.616772,0.680194,0.352300,0.0050,,0.1997,-0.1349,0.0822,0.5877,2.026677,-0.1024,0.6160,-0.1011,-2.6079,-0.7909,1.5694,-2.1430,-0.1529,0.5432,-0.1265,-0.8992,18.4006,18.4321,-23.8461,137.61,55.00
13.500,306,1,0.9973,0.738997,1.013643,-0.000001,0.3047,0.3350,0.2470,0.5196,0.3350,0.2470,0.5196,-0.317252,-0.527818,0.642426,0.456124,0.0000,,0.2407,-0.1814,0.1437,0.5777,2.946240,-0.0865,0.6191,-0.0840,-2.6040,-1.3494,0.9860,-1.2680,0.0368,0.0601,-0.0229,-0.0950,-17.0780,-18.4210,23.5585,132.02,55.00
13.542,307,0,,0.000000,0.000000,0.000000,1.0000,0.3350,0.2470,0.5196,0.3350,0.2470,0.5196,-0.317252,-0.527818,0.642426,0.456124,0.0000,,0.1904,-0.1394,0.0781,0.6043,2.011436,-0.1021,0.6366,-0.1106,-2.6214,-0.8345,1.5760,-2.0920,-0.1581,0.5431,-0.2033,-0.8543,18.3851,18.4694,-23.8396,144.48,55.00
13.581,308,0,,0.000000,0.000000,0.000000,1.0000,0.3350,0.2470,0.5196,0.3350,0.2470,0.5196,-0.317252,-0.527818,0.642426,0.456124,0.0000,,0.2370,-0.1853,0.1370,0.5856,2.964845,-0.0867,0.6400,-0.0922,-2.6150,-1.3980,0.9970,-1.2183,0.0327,0.0589,-0.0158,-0.0722,-17.1168,-18.4086,23.5443,135.22,55.00
13.622,309,0,,0.000000,0.000000,0.000000,1.0000,0.3350,0.2470,0.5196,0.3350,0.2470,0.5196,-0.317252,-0.527818,0.642426,0.456124,0.0000,,0.1837,-0.1452,0.0735,0.6130,2.046890,-0.1018,0.6572,-0.1216,-2.6309,-0.8888,1.5873,-2.0424,-0.1766,0.5414,-0.2883,-0.8097,18.3812,18.4331,-23.8398,145.52,55.00
13.660,310,0,,0.000000,0.000000,0.000000,1.0000,0.3350,0.2470,0.5196,0.3350,0.2470,0.5196,-0.317252,-0.527818,0.642426,0.456124,0.0000,,0.2364,-0.1898,0.1306,0.5932,2.985121,-0.0870,0.6608,-0.1005,-2.6216,-1.4586,1.0045,-1.1700,0.0272,0.0581,-0.0136,-0.0447,-17.1623,-18.4353,23.5292,139.07,55.00
13.700,311,0,,0.000000,0.000000,0.000000,1.0000,0.3350,0.2470,0.5196,0.3350,0.2470,0.5196,-0.317252,-0.527818,0.642426,0.456124,0.0000,,0.1804,-0.1518,0.0694,0.6210,2.084359,-0.1015,0.6775,-0.1298,-2.6356,-0.9572,1.5910,-1.9938,-0.1750,0.5295,-0.3735,-0.7344,18.3491,18.3862,-23.8312,145.52,55.00
13.744,312,0,,0.000000,0.000000,0.000000,1.0000,0.3350,0.2470,0.5196,0.3350,0.2470,0.5196,-0.317252,-0.527818,0.642426,0.456124,0.0000,,0.2383,-0.1937,0.1241,0.6000,3.004834,-0.0872,0.6812,-0.1062,-2.6275,-1.5321,1.0079,-1.1226,0.0211,0.0565,-0.0129,-0.0372,-17.1940,-18.4480,23.5156,140.11,55.00
13.788,313,0,,0.000000,0.000000,0.000000,1.0000,0.3350,0.2470,0.5196,0.3350,0.2470,0.5196,-0.317252,-0.527818,0.642426,0.456124,0.0000,,0.1790,-0.1584,0.0652,0.6287,2.120350,-0.1012,0.6972,-0.1356,-2.6394,-1.0374,1.5920,-1.9459,-0.1729,0.5189,-0.4753,-0.6506,18.3092,18.3546,-23.8187,145.52,55.00
13.835,314,0,,0.000000,0.000000,0.000000,1.0000,0.3350,0.2470,0.5196,0.3350,0.2470,0.5196,-0.317252,-0.527818,0.642426,0.456124,0.0000,,0.2430,-0.1959,0.1170,0.6056,3.022258,-0.0875,0.7014,-0.1073,-2.6322,-1.6168,1.0079,-1.0757,0.0150,0.0544,-0.0107,-0.0269,-17.2223,-18.4515,23.5025,141.57,55.00
13.868,315,0,,0.000000,0.000000,0.000000,1.0000,0.3350,0.2470,0.5196,0.3350,0.2470,0.5196,-0.317252,-0.527818,0.642426,0.456124,0.0000,,0.1801,-0.1640,0.0604,0.6354,2.154129,-0.1009,0.7165,-0.1364,-2.6421,-1.1298,1.5905,-1.8983,-0.1703,0.4956,-0.5839,-0.5610,18.2534,18.3378,-23.8024,145.52,55.00
13.915,316,0,,0.000000,0.000000,0.000000,1.0000,0.3350,0.2470,0.5196,0.3350,0.2470,0.5196,-0.317252,-0.527818,0.642426,0.456124,0.0000,,0.2523,-0.1928,0.1085,0.6077,3.036369,-0.0873,0.7210,-0.0952,-2.6357,-1.7136,1.0023,-1.0290,0.0098,0.0516,-0.0068,-0.0127,-17.2438,-18.4282,23.4881,143.55,55.00
13.947,317,0,,0.000000,0.000000,0.000000,1.0000,0.3350,0.2470,0.5196,0.3350,0.2470,0.5196,-0.317252,-0.527818,0.642426,0.456124,0.0000,,0.1877,-0.1665,0.0537,0.6402,2.184046,-0.1000,0.7350,-0.1237,-2.6431,-1.2558,1.5861,-1.8512,-0.1666,0.4596,-0.6926,-0.4339,17.9829,18.3578,-23.7819,145.52,55.00
13.978,318,0,,0.000000,0.000000,0.000000,1.0000,0.3350,0.2470,0.5196,0.3350,0.2470,0.5196,-0.317252,-0.527818,0.642426,0.456124,0.0000,,0.2714,-0.1816,0.0967,0.6055,3.045019,-0.0873,0.7402,-0.0656,-2.6378,-1.8611,0.9921,-0.9827,0.0036,0.0476,-0.0104,0.0105,-17.3642,-18.4117,23.4704,145.52,55.00
14.021,319,0,,0.000000,0.000000,0.000000,1.0000,0.3350,0.2470,0.5196,0.3350,0.2470,0.5196,-0.317252,-0.527818,0.642426,0.456124,0.0000,,0.1993,-0.1620,0.0452,0.6410,2.212972,-0.0992,0.7527,-0.0939,-2.6429,-1.3813,1.5758,-1.8022,-0.1620,0.4158,-0.8340,-0.3564,18.2104,18.3437,-23.7541,145.52,55.00
14.063,320,0,,0.000000,0.000000,0.000000,1.0000,0.3350,0.2470,0.5196,0.3350,0.2470,0.5196,-0.317252,-0.527818,0.642426,0.456124,0.0000,,0.2842,-0.1695,0.0873,0.6025,3.056380,-0.0868,0.7587,-0.0402,-2.6388,-1.9627,0.9766,-0.9351,0.0016,0.0429,-0.0210,0.0310,-17.2625,-18.4279,23.4607,145.52,55.00
14.102,321,0,,0.000000,0.000000,0.000000,1.0000,0.3350,0.2470,0.5196,0.3350,0.2470,0.5196,-0.317252,-0.527818,0.642426,0.456124,0.0000,,0.2086,-0.1564,0.0380,0.6409,2.246905,-0.0982,0.7701,-0.0675,-2.6425,-1.4824,1.5585,-1.7526,-0.1580,0.3688,-0.8941,-0.2925,18.1409,18.3529,-23.7181,145.52,55.00
14.140,322,0,,0.000000,0.000000,0.000000,1.0000,0.3350,0.2470,0.5196,0.3350,0.2470,0.5196,-0.317252,-0.527818,0.642426,0.456124,0.0000,,0.2946,-0.1598,0.0788,0.6012,3.066480,-0.0871,0.7765,-0.0253,-2.6392,-2.0613,0.9635,-0.8864,-0.0001,0.0380,-0.0297,0.0513,-17.2522,-18.4411,23.4516,145.52,55.00
14.183,323,0,,0.000000,0.000000,0.000000,1.0000,0.3350,0.2470,0.5196,0.3350,0.2470,0.5196,-0.317252,-0.527818,0.642426,0.456124,0.0000,,0.2175,-0.1529,0.0311,0.6422,2.282076,-0.0979,0.7869,-0.0511,-2.6415,-1.5864,1.5433,-1.7019,-0.1549,0.3143,-0.9191,-0.2482,18.0435,18.3596,-23.6817,145.52,55.00
14.223,324,0,,0.000000,0.000000,0.000000,1.0000,0.3350,0.2470,0.5196,0.3350,0.2470,0.5196,-0.317252,-0.527818,0.642426,0.456124,0.0000,,0.3045,-0.1506,0.0707,0.6005,3.074422,-0.0873,0.7935,-0.0165,-2.6391,-2.1655,0.9516,-0.8364,-0.0012,0.0324,-0.0364,0.0732,-17.2508,-18.4422,23.4440,145.52,55.00
14.270,325,0,,0.000000,0.000000,0.000000,1.0000,0.3350,0.2470,0.5196,0.3350,0.2470,0.5196,-0.317252,-0.527818,0.642426,0.456124,0.0000,,0.2266,-0.1500,0.0241,0.6441,2.317040,-0.0976,0.8031,-0.0408,-2.6404,-1.6956,1.5300,-1.6499,-0.1522,0.2676,-0.9262,-0.2222,17.9472,18.3574,-23.6452,145.52,55.00
14.313,326,0,,0.000000,0.000000,0.000000,1.0000,0.3350,0.2470,0.5196,0.3350,0.2470,0.5196,-0.317252,-0.527818,0.642426,0.456124,0.0000,,0.3137,-0.1416,0.0628,0.6001,3.079033,-0.0876,0.8098,-0.0132,-2.6388,-2.2749,0.9411,-0.7849,-0.0013,0.0262,-0.0409,0.0964,-17.2439,-18.4429,23.4376,145.52,55.00
14.358,327,0,,0.000000,0.000000,0.000000,1.0000,0.3350,0.2470,0.5196,0.3350,0.2470,0.5196,-0.317252,-0.527818,0.642426,0.456124,0.0000,,0.2356,-0.1473,0.0172,0.6464,2.351339,-0.0973,0.8189,-0.0354,-2.6391,-1.8084,1.5175,-1.5966,-0.1502,0.2297,-0.9011,-0.1948,17.8752,18.3371,-23.6095,145.52,55.00
14.400,328,0,,0.000000,0.000000,0.000000,1.0000,0.3350,0.2470,0.5196,0.3350,0.2470,0.5196,-0.317252,-0.527818,0.642426,0.456124,0.0000,,0.3218,-0.1324,0.0552,0.5998,3.079944,-0.0879,0.8257,-0.0130,-2.6384,-2.3859,0.9314,-0.7319,-0.0002,0.0197,-0.0427,0.1200,-17.2237,-18.4329,23.4327,145.52,55.00
