Ovmem/robot-control-retargeting-framework/results/hand_retargeting/runs/20260620_222033/raw/hand_retargeting_run.csv
timestamp,frame_id,detected_hand,detection_confidence,wrist_x,wrist_y,wrist_z,pinch_ratio,target_pos_x,target_pos_y,target_pos_z,filtered_target_pos_x,filtered_target_pos_y,filtered_target_pos_z,target_quat_w,target_quat_x,target_quat_y,target_quat_z,gripper_width,workspace_clipped,actual_ee_pos_x,actual_ee_pos_y,actual_ee_pos_z,ee_position_error,ee_orientation_error,joint_q_1,joint_q_2,joint_q_3,joint_q_4,joint_q_5,joint_q_6,joint_q_7,joint_dq_1,joint_dq_2,joint_dq_3,joint_dq_4,joint_dq_5,joint_dq_6,joint_dq_7,torque_norm,max_abs_torque
0.464,0,0,,0.000000,0.000000,0.000000,1.0000,0.3350,0.0000,0.6396,0.3350,0.0000,0.6396,-0.000365,0.998724,-0.007292,0.049978,0.0400,,0.3350,-0.0000,0.6396,0.0000,0.000000,0.0000,-0.7000,-0.0000,-2.2000,0.0000,1.6000,0.8000,-0.0000,-0.0000,-0.0000,0.0000,0.0000,0.0000,0.0000,22.75,21.74
1.026,1,0,,0.000000,0.000000,0.000000,1.0000,0.3350,0.0000,0.6396,0.3350,0.0000,0.6396,-0.000365,0.998724,-0.007292,0.049978,0.0400,,0.3350,-0.0000,0.6396,0.0000,0.000000,0.0000,-0.7000,-0.0000,-2.2000,0.0000,1.6000,0.8000,0.0000,0.0000,0.0000,-0.0000,-0.0000,-0.0000,-0.0000,22.75,21.74
1.069,2,0,,0.000000,0.000000,0.000000,1.0000,0.3350,0.0000,0.6396,0.3350,0.0000,0.6396,-0.000365,0.998724,-0.007292,0.049978,0.0400,,0.3350,-0.0000,0.6396,0.0000,0.000000,0.0000,-0.7000,-0.0000,-2.2000,0.0000,1.6000,0.8000,0.0000,0.0000,0.0000,-0.0000,-0.0000,-0.0000,-0.0000,22.75,21.74
1.117,3,0,,0.000000,0.000000,0.000000,1.0000,0.3350,0.0000,0.6396,0.3350,0.0000,0.6396,-0.000365,0.998724,-0.007292,0.049978,0.0400,,0.3350,-0.0000,0.6396,0.0000,0.000000,0.0000,-0.7000,-0.0000,-2.2000,0.0000,1.6000,0.8000,0.0000,0.0000,0.0000,-0.0000,-0.0000,-0.0000,-0.0000,22.75,21.74
1.172,4,0,,0.000000,0.000000,0.000000,1.0000,0.3350,0.0000,0.6396,0.3350,0.0000,0.6396,-0.000365,0.998724,-0.007292,0.049978,0.0400,,0.3350,-0.0000,0.6396,0.0000,0.000000,0.0000,-0.7000,-0.0000,-2.2000,0.0000,1.6000,0.8000,0.0000,0.0000,0.0000,-0.0000,-0.0000,-0.0000,-0.0000,22.75,21.74
1.220,5,1,0.9868,0.296599,0.325719,-0.000000,0.3237,0.3350,0.0000,0.6396,0.3350,0.0000,0.6396,-0.157867,0.099633,0.001654,0.982420,0.0000,,0.3459,-0.0103,0.8213,0.1823,1.421936,0.0011,-0.7037,-0.0014,-2.1981,0.1365,3.0636,0.8005,0.0179,-0.0205,0.0004,0.1142,2.0280,21.5150,0.0055,97.04,55.00
1.280,6,1,0.9907,0.304173,0.314245,-0.000000,0.2444,0.3350,0.0137,0.6562,0.3350,0.0137,0.6562,-0.199491,0.038868,-0.073956,0.976331,0.0000,,0.3635,-0.0012,0.7889,0.1365,1.786841,0.0068,-0.7046,0.0051,-2.2059,0.1486,2.7419,0.7981,0.0527,0.0879,0.0621,-0.0964,-0.0164,-17.3209,-0.0190,103.10,55.00
1.312,7,1,0.9906,0.307016,0.321618,-0.000000,0.2507,0.3350,0.0213,0.6485,0.3350,0.0213,0.6485,-0.178696,0.064343,-0.064381,0.979685,0.0000,,0.3335,-0.0143,0.8323,0.1872,1.337282,0.0024,-0.7029,-0.0015,-2.2097,0.1553,3.2208,0.8029,-0.0470,-0.0324,-0.0801,0.0852,0.0571,16.7253,0.0400,102.46,55.00
1.354,8,1,0.9898,0.310089,0.324989,-0.000000,0.2171,0.3350,0.0282,0.6423,0.3350,0.0282,0.6423,-0.170875,0.080997,-0.093818,0.977466,0.0000,,0.3731,0.0002,0.7606,0.1275,1.865179,0.0075,-0.7019,0.0020,-2.2194,0.1596,2.5830,0.8077,0.0455,0.1136,0.0320,-0.1061,0.0386,-18.8323,0.0420,100.67,55.00
1.392,9,1,0.9880,0.313777,0.327147,-0.000000,0.2546,0.3350,0.0361,0.6380,0.3350,0.0361,0.6380,-0.170027,0.089846,0.010678,0.981277,0.0000,,0.3612,-0.0103,0.7929,0.1638,1.586663,0.0033,-0.7005,-0.0032,-2.2248,0.1637,2.9331,0.8077,-0.0443,-0.0165,-0.0642,0.0532,0.0357,15.9420,-0.0005,100.85,55.00
1.424,10,1,0.9876,0.315419,0.326790,-0.000000,0.2580,0.3350,0.0404,0.6378,0.3350,0.0404,0.6378,-0.164230,0.063892,-0.075361,0.981462,0.0000,,0.3778,0.0071,0.7027,0.0846,2.271134,0.0078,-0.6975,-0.0004,-2.2338,0.1683,2.2219,0.8112,0.0439,0.1562,0.0330,-0.1445,0.0407,-19.3288,0.0313,100.02,55.00
1.467,11,1,0.9824,0.315150,0.324817,-0.000000,0.2594,0.3350,0.0407,0.6406,0.3350,0.0407,0.6406,-0.179864,0.059405,-0.012247,0.981820,0.0000,,0.3794,-0.0053,0.7359,0.1148,2.022788,0.0020,-0.6980,-0.0079,-2.2402,0.1748,2.5620,0.8106,-0.0567,-0.0060,-0.0809,0.0239,0.0580,16.0237,-0.0051,105.21,55.00
1.506,12,1,0.9912,0.315192,0.331042,-0.000000,0.2786,0.3350,0.0409,0.6321,0.3350,0.0409,0.6321,-0.152580,0.074124,0.003493,0.985501,0.0000,,0.3693,0.0117,0.6576,0.0518,2.540795,0.0073,-0.6922,-0.0038,-2.2498,0.1781,1.9552,0.8090,0.0543,0.1725,0.0511,-0.1758,0.0289,-17.7856,-0.0118,99.24,55.00
1.543,13,1,0.9879,0.316687,0.326947,-0.000000,0.2661,0.3350,0.0436,0.6365,0.3350,0.0436,0.6365,-0.165000,0.069903,0.016434,0.983676,0.0000,,0.3825,-0.0033,0.7060,0.0964,2.171607,0.0014,-0.6947,-0.0112,-2.2553,0.1854,2.4105,0.8052,-0.0567,-0.0017,-0.0780,0.0143,0.0976,16.6487,-0.0315,105.74,55.00
1.573,14,1,0.9798,0.315276,0.319696,-0.000000,0.2814,0.3350,0.0415,0.6477,0.3350,0.0415,0.6477,-0.191499,0.019734,-0.052541,0.979887,0.0000,,0.3731,0.0090,0.6542,0.0505,2.617926,0.0061,-0.6888,-0.0093,-2.2636,0.2005,1.9978,0.8063,0.0475,0.1476,0.0305,-0.1534,0.1716,-15.1776,0.0103,89.65,51.43
1.614,15,1,0.9826,0.313898,0.325175,-0.000000,0.2316,0.3350,0.0387,0.6419,0.3350,0.0387,0.6419,-0.176257,0.057282,-0.037075,0.981976,0.0000,,0.3842,-0.0135,0.7242,0.1092,2.008968,-0.0008,-0.6911,-0.0175,-2.2682,0.2311,2.6072,0.8046,-0.0639,-0.0025,-0.0841,0.0327,0.4885,17.2703,-0.0141,108.05,55.00
1.650,16,1,0.9869,0.312442,0.326658,-0.000000,0.2204,0.3350,0.0355,0.6387,0.3350,0.0355,0.6387,-0.181822,0.049064,-0.097382,0.977267,0.0000,,0.3729,0.0089,0.6438,0.0466,2.590583,0.0046,-0.6858,-0.0143,-2.2771,0.2385,1.9660,0.8055,0.0587,0.1804,0.0496,-0.1768,0.0403,-19.0874,0.0094,102.80,55.00
1.686,17,1,0.9920,0.312390,0.335160,-0.000000,0.1740,0.3350,0.0349,0.6258,0.3350,0.0349,0.6258,-0.159760,0.046899,-0.121359,0.978544,0.0000,,0.3851,-0.0104,0.6797,0.0864,2.292065,-0.0069,-0.6886,-0.0275,-2.2829,0.3088,2.3347,0.8073,-0.0988,-0.0068,-0.1185,0.0135,1.1959,16.2841,0.0140,123.56,55.00
1.715,18,1,0.9652,0.316171,0.328655,-0.000000,0.2761,0.3350,0.0416,0.6329,0.3350,0.0416,0.6329,-0.175312,0.051878,0.037653,0.982424,0.0000,,0.3739,0.0093,0.6393,0.0510,2.551344,0.0015,-0.6846,-0.0195,-2.2887,0.3137,1.9813,0.5099,0.0877,0.1175,0.0973,-0.1257,-0.0090,-14.1662,-4.1087,93.03,44.58
1.757,19,1,0.9845,0.314587,0.326190,-0.000000,0.2203,0.3350,0.0399,0.6377,0.3350,0.0399,0.6377,-0.176846,0.043213,-0.046195,0.982204,0.0000,,0.3840,-0.0389,0.7033,0.1137,2.183836,-0.0061,-0.6907,-0.0253,-2.2852,1.3913,2.6611,1.0515,-0.0712,-0.1200,-0.0741,0.3911,16.0835,17.7495,8.2582,131.65,55.00
1.812,20,1,0.9941,0.316866,0.330151,-0.000000,0.2530,0.3350,0.0438,0.6329,0.3350,0.0438,0.6329,-0.150410,0.068247,-0.045630,0.985209,0.0000,,0.3726,0.0097,0.6840,0.0720,2.262390,-0.0007,-0.7072,-0.0253,-2.2560,0.5373,2.1026,-0.5753,0.2115,-0.1182,0.4148,1.0774,-21.0745,-18.3657,-26.7728,143.89,55.00
1.845,21,1,0.9643,0.317538,0.321644,-0.000000,0.2699,0.3350,0.0456,0.6443,0.3350,0.0456,0.6443,-0.192740,0.054085,0.058203,0.978028,0.0000,,0.3730,-0.0293,0.7330,0.1222,1.722248,-0.0069,-0.7143,-0.0211,-2.2501,1.1587,2.6101,0.0848,-0.0348,-0.1199,0.0154,0.4226,19.8460,17.2935,22.6708,145.52,55.00
1.876,22,1,0.9694,0.311915,0.329644,-0.000000,0.2647,0.3350,0.0358,0.6348,0.3350,0.0358,0.6348,-0.189331,0.030421,-0.012967,0.981356,0.0000,,0.3554,0.0176,0.7038,0.0743,2.337289,-0.0006,-0.7362,-0.0203,-2.2162,0.5133,2.0083,-0.7949,0.2070,-0.1298,0.4898,0.9343,-20.0144,-18.5729,-23.9575,145.52,55.00
1.917,23,1,0.9924,0.311484,0.324898,-0.000000,0.1749,0.3350,0.0333,0.6399,0.3350,0.0333,0.6399,-0.184329,0.031514,-0.103988,0.976840,0.0000,,0.3585,-0.0101,0.7548,0.1250,1.818242,-0.0080,-0.7435,-0.0172,-2.2129,1.1605,2.4689,0.0233,-0.0281,-0.1284,0.0420,0.3554,19.9543,16.9177,23.2807,145.52,55.00
1.957,24,1,0.9914,0.312118,0.326669,-0.000000,0.2030,0.3350,0.0340,0.6383,0.3350,0.0340,0.6383,-0.184308,0.069013,-0.033831,0.979859,0.0000,,0.3335,0.0292,0.7163,0.0781,2.370397,-0.0004,-0.7651,-0.0140,-2.1769,0.4943,1.8602,-0.8230,0.2063,-0.1322,0.6301,0.8351,-19.9476,-18.5636,-23.9014,145.52,55.00
1.987,25,1,0.9921,0.312214,0.325526,-0.000000,0.1981,0.3350,0.0343,0.6397,0.3350,0.0343,0.6397,-0.187792,0.049650,-0.115748,0.974100,0.0000,,0.3402,0.0114,0.7749,0.1373,1.843033,-0.0092,-0.7727,-0.0112,-2.1761,1.1651,2.3196,0.0188,-0.0231,-0.1354,0.0686,0.3045,20.2582,16.8252,23.4831,145.52,55.00
2.027,26,1,0.9953,0.311413,0.329881,-0.000000,0.1261,0.3350,0.0329,0.6336,0.3350,0.0329,0.6336,-0.185047,0.067306,-0.108582,0.974391,0.0000,,0.3055,0.0455,0.7244,0.0963,2.547629,-0.0004,-0.7944,-0.0057,-2.1380,0.5115,1.6682,-0.8278,0.1947,-0.1337,0.7612,0.6586,-19.5903,-18.8951,-24.0227,145.52,55.00
2.067,27,1,0.9948,0.311520,0.318904,-0.000000,0.1930,0.3350,0.0328,0.6484,0.3350,0.0328,0.6484,-0.176786,0.047426,-0.131669,0.974249,0.0000,,0.3146,0.0434,0.7870,0.1405,2.014920,-0.0109,-0.8029,-0.0038,-2.1391,1.1471,2.0801,0.0340,-0.0212,-0.1264,0.0960,0.2238,19.8137,16.4770,23.7592,145.52,55.00
2.099,28,1,0.9958,0.310147,0.318808,-0.000000,0.1948,0.3350,0.0304,0.6512,0.3350,0.0304,0.6512,-0.189247,0.064183,-0.079034,0.976637,0.0000,,0.2651,0.0622,0.7180,0.1018,2.686825,-0.0003,-0.8236,0.0077,-2.1031,0.4850,1.3739,-0.8219,0.1890,-0.1244,1.0018,0.1920,-19.1759,-19.1508,-24.2462,145.52,55.00
2.130,29,1,0.9957,0.311404,0.319873,-0.000000,0.2199,0.3350,0.0322,0.6501,0.3350,0.0322,0.6501,-0.184777,0.057805,-0.073840,0.978296,0.0000,,0.2791,0.0775,0.7828,0.1509,2.208664,-0.0120,-0.8332,0.0068,-2.1059,1.0562,1.7709,0.0629,-0.0278,-0.0943,0.1147,0.1376,18.7945,16.5929,24.1053,145.52,55.00
2.176,30,1,0.9924,0.312134,0.325801,-0.000000,0.1937,0.3350,0.0338,0.6414,0.3350,0.0338,0.6414,-0.172750,0.080490,-0.083770,0.978091,0.0000,,0.2158,0.0708,0.7093,0.1421,2.913649,0.0004,-0.8524,0.0258,-2.0676,0.4278,1.0526,-0.8074,0.1775,-0.0665,1.1697,0.0893,-18.8295,-19.2838,-24.4854,145.52,55.00
2.218,31,1,0.9898,0.312059,0.323504,-0.000000,0.2128,0.3350,0.0340,0.6431,0.3350,0.0340,0.6431,-0.179434,0.090245,-0.118242,0.972460,0.0000,,0.2323,0.1032,0.7716,0.1785,2.500623,-0.0131,-0.8645,0.0201,-2.0693,0.9695,1.4365,0.0966,-0.0477,-0.0754,0.1052,0.0622,17.8731,16.6979,24.4220,145.52,55.00
2.250,32,1,0.9917,0.309501,0.315831,-0.000000,0.2525,0.3350,0.0294,0.6545,0.3350,0.0294,0.6545,-0.195140,0.078356,-0.053406,0.976181,0.0000,,0.1949,0.0629,0.7190,0.1578,2.973445,0.0014,-0.8829,0.0433,-2.0305,0.2982,1.0007,-0.7815,0.1673,-0.0729,1.0026,0.0673,-19.2397,-15.2234,-24.5385,142.50,55.00
2.290,33,1,0.9924,0.312058,0.330844,-0.000000,0.2107,0.3350,0.0332,0.6349,0.3350,0.0332,0.6349,-0.176652,0.080867,-0.028677,0.980527,0.0000,,0.2345,0.0847,0.8060,0.2050,2.230977,-0.0133,-0.8943,0.0298,-2.0316,0.8419,1.6753,0.1194,-0.0472,-0.0597,0.1332,0.0766,18.5601,17.8740,24.2624,145.52,55.00
2.330,34,1,0.9809,0.315271,0.324447,-0.000000,0.2357,0.3350,0.0397,0.6406,0.3350,0.0397,0.6406,-0.175292,0.026377,-0.085495,0.980443,0.0000,,0.1784,0.0539,0.7450,0.1887,3.108096,0.0015,-0.9218,0.0574,-1.9799,0.1824,1.0307,-0.7474,0.1674,-0.0401,1.3367,0.0379,-19.0303,-19.1187,-24.4856,145.52,55.00
2.370,35,1,0.9944,0.313941,0.327264,-0.000000,0.1937,0.3350,0.0384,0.6376,0.3350,0.0384,0.6376,-0.177842,0.054547,-0.058424,0.980808,0.0000,,0.1914,0.0958,0.8055,0.2283,2.483291,-0.0142,-0.9345,0.0410,-1.9808,0.7531,1.4518,0.1598,-0.0746,-0.0525,0.1006,0.0240,18.2347,16.7925,24.4279,145.52,55.00
2.400,36,1,0.9922,0.316322,0.328664,-0.000000,0.2363,0.3350,0.0425,0.6350,0.3350,0.0425,0.6350,-0.167314,0.050299,-0.043628,0.983653,0.0000,,0.1606,0.0528,0.7721,0.2220,2.968287,0.0019,-0.9605,0.0680,-1.9364,0.1310,1.0976,-0.7123,0.1575,-0.0766,0.9783,0.0649,-18.8348,-14.0919,-24.4492,141.63,55.00
2.437,37,1,0.9902,0.316861,0.320087,-0.000000,0.2719,0.3350,0.0442,0.6469,0.3350,0.0442,0.6469,-0.180118,0.058183,-0.009589,0.981876,0.0000,,0.1799,0.0785,0.8670,0.2714,2.073617,-0.0142,-0.9719,0.0448,-1.9365,0.7279,1.7880,0.1853,-0.0748,-0.0591,0.1454,0.0774,19.1344,17.5304,24.1698,145.52,55.00
2.480,38,1,0.9933,0.316315,0.325827,-0.000000,0.2143,0.3350,0.0435,0.6408,0.3350,0.0435,0.6408,-0.181866,0.073159,-0.071441,0.977992,0.0000,,0.1396,0.0490,0.7933,0.2480,2.952825,0.0010,-0.9945,0.0762,-1.8966,0.0739,1.1075,-0.6748,0.1511,0.0074,1.4565,-0.0055,-19.1141,-19.4620,-24.3879,134.50,55.00
2.520,39,1,0.9914,0.315300,0.329591,-0.000000,0.2263,0.3350,0.0416,0.6342,0.3350,0.0416,0.6342,-0.171121,0.089803,-0.090656,0.976952,0.0000,,0.1393,0.0932,0.8462,0.2931,2.353902,-0.0157,-1.0070,0.0504,-1.8971,0.6716,1.4711,0.2350,-0.1017,-0.0507,0.0928,0.0167,18.4936,16.2179,24.4268,145.52,55.00
2.562,40,1,0.9912,0.313600,0.327517,-0.000000,0.1766,0.3350,0.0382,0.6361,0.3350,0.0382,0.6361,-0.175693,0.048509,-0.150508,0.971662,0.0000,,0.1236,0.0448,0.8305,0.2873,2.968287,0.0012,-1.0310,0.0780,-1.8566,0.0188,1.2763,-0.6292,0.1485,-0.0746,0.8671,0.0692,-19.2179,-11.4268,-24.2950,135.23,55.00
2.606,41,1,0.9934,0.314459,0.318015,-0.000000,0.2475,0.3350,0.0391,0.6501,0.3350,0.0391,0.6501,-0.177250,0.014241,-0.061550,0.982136,0.0000,,0.1127,0.0533,0.9477,0.3717,1.768331,-0.0126,-1.0409,0.0490,-1.8556,0.6442,2.1523,0.2558,-0.0716,-0.0841,0.1893,0.1445,19.9401,18.4077,23.8645,141.69,55.00
2.637,42,1,0.9938,0.312606,0.328841,-0.000000,0.2024,0.3350,0.0359,0.6370,0.3350,0.0359,0.6370,-0.180309,0.046508,-0.109337,0.976407,0.0000,,0.1224,0.0375,0.8822,0.3246,2.684765,-0.0187,-1.0497,0.0743,-1.8469,-0.0264,1.6008,-0.5769,-0.0269,0.0840,1.4199,-0.0804,-19.6979,-18.5734,-23.9346,117.63,55.00
2.678,43,1,0.9909,0.314372,0.321284,-0.000000,0.2487,0.3350,0.0385,0.6455,0.3350,0.0385,0.6455,-0.182726,0.017410,-0.110024,0.976833,0.0000,,0.1062,0.0642,0.9357,0.3704,1.915407,-0.0183,-1.0569,0.0588,-1.8500,0.5929,2.0261,0.3079,0.0438,-0.0743,0.1532,0.0958,19.7085,16.2763,23.9353,135.34,55.00
2.720,44,1,0.9940,0.314443,0.328396,-0.000000,0.1787,0.3350,0.0391,0.6368,0.3350,0.0391,0.6368,-0.164662,0.031352,-0.131193,0.977083,0.0000,,0.1021,0.0403,0.8455,0.3127,2.928502,-0.0232,-1.0679,0.0930,-1.8372,-0.0555,1.2899,-0.5401,-0.0354,0.1065,1.6060,-0.1168,-19.2013,-19.8084,-24.1864,114.22,55.00
2.760,45,1,0.9938,0.314585,0.323301,-0.000000,0.1935,0.3350,0.0395,0.6426,0.3350,0.0395,0.6426,-0.175531,0.041589,-0.142485,0.973220,0.0000,,0.0953,0.0810,0.8919,0.3483,2.240098,-0.0331,-1.0787,0.0648,-1.8386,0.5392,1.6518,0.3672,-0.0563,-0.0444,0.0996,0.0202,18.8169,16.1021,24.2954,137.03,55.00
2.803,46,1,0.9950,0.313080,0.328897,-0.000000,0.1709,0.3350,0.0368,0.6356,0.3350,0.0368,0.6356,-0.171879,0.027532,-0.144471,0.974078,0.0000,,0.0815,0.0373,0.8396,0.3254,3.005906,-0.0269,-1.0912,0.0992,-1.8232,-0.0971,1.1994,-0.4924,0.0475,0.0450,1.2014,-0.0707,-19.0834,-15.3256,-24.3050,108.00,55.00
2.843,47,1,0.9949,0.313850,0.319038,-0.000000,0.1730,0.3350,0.0378,0.6485,0.3350,0.0378,0.6485,-0.181664,0.038376,-0.137977,0.972876,0.0000,,0.0756,0.0682,0.9257,0.3808,2.007571,-0.0370,-1.1026,0.0568,-1.8227,0.5350,1.8533,0.4112,-0.0617,-0.0470,0.1482,0.0537,19.5686,17.3090,24.1518,137.28,55.00
2.872,48,1,0.9923,0.313994,0.328147,-0.000000,0.1859,0.3350,0.0382,0.6377,0.3350,0.0382,0.6377,-0.183836,0.055468,-0.047103,0.980260,0.0000,,0.0681,0.0360,0.8418,0.3360,2.821756,-0.0384,-1.1105,0.0938,-1.8133,-0.0803,1.1719,-0.4407,-0.0176,0.1395,1.5346,-0.1661,-18.9343,-19.6519,-24.2768,112.78,55.00
2.904,49,1,0.9923,0.312193,0.329167,-0.000000,0.1996,0.3350,0.0350,0.6343,0.3350,0.0350,0.6343,-0.157075,0.061108,-0.074273,0.982892,0.0000,,0.0621,0.0801,0.8910,0.3774,2.177572,-0.0474,-1.1227,0.0561,-1.8134,0.5379,1.5552,0.4760,-0.0615,-0.0424,0.0890,0.0099,18.8049,16.2709,24.3866,136.42,55.00
2.944,50,1,0.9892,0.313367,0.328392,-0.000000,0.1946,0.3350,0.0365,0.6348,0.3350,0.0365,0.6348,-0.164262,0.109803,-0.021094,0.980059,0.0000,,0.0320,0.0372,0.8089,0.3494,2.876787,-0.0407,-1.1329,0.0959,-1.7995,-0.0595,0.8573,-0.3962,0.0419,0.0990,1.3456,-0.1364,-18.8611,-18.9888,-24.5576,110.89,55.00
2.987,51,1,0.9918,0.315001,0.331080,-0.000000,0.1895,0.3350,0.0398,0.6310,0.3350,0.0398,0.6310,-0.170681,0.058704,-0.088133,0.979619,0.0000,,0.0335,0.0853,0.8654,0.3846,2.385957,-0.0573,-1.1531,0.0486,-1.7964,0.5489,1.3082,0.5307,-0.1396,-0.0409,0.0573,-0.0123,18.2942,16.8487,24.5771,144.55,55.00
3.019,52,1,0.9931,0.312431,0.327331,-0.000000,0.1990,0.3350,0.0357,0.6357,0.3350,0.0357,0.6357,-0.185055,0.054441,-0.099598,0.976151,0.0000,,0.0187,0.0348,0.8254,0.3688,2.937404,-0.0464,-1.1646,0.0847,-1.7809,-0.0556,0.9572,-0.3456,0.0797,0.0364,0.9982,-0.0645,-18.7910,-14.1965,-24.5474,112.17,55.00
3.063,53,1,0.9935,0.313060,0.325609,-0.000000,0.2151,0.3350,0.0361,0.6391,0.3350,0.0361,0.6391,-0.178633,0.045939,-0.050381,0.981551,0.0000,,0.0177,0.0669,0.9205,0.4252,1.981644,-0.0588,-1.1784,0.0338,-1.7782,0.5496,1.6728,0.5660,-0.1124,-0.0397,0.1208,0.0316,18.9944,17.6328,24.2929,139.93,55.00
3.095,54,1,0.9929,0.313210,0.335293,-0.000000,0.1924,0.3350,0.0365,0.6257,0.3350,0.0365,0.6257,-0.166581,0.097669,-0.063435,0.979126,0.0000,,0.0101,0.0289,0.8415,0.3901,2.706666,-0.0619,-1.1859,0.0709,-1.7684,-0.0586,1.0418,-0.2958,-0.0395,0.1381,1.4008,-0.1648,-18.8021,-19.2895,-24.4186,113.80,55.00
3.126,55,1,0.9890,0.312415,0.322716,-0.000000,0.1764,0.3350,0.0351,0.6414,0.3350,0.0351,0.6414,-0.187718,0.050617,-0.102300,0.975569,0.0000,,0.0008,0.0718,0.8943,0.4207,2.187862,-0.0716,-1.2012,0.0227,-1.7667,0.5612,1.4419,0.6270,-0.0895,-0.0458,0.0719,0.0077,18.6004,16.3741,24.4587,137.15,55.00
3.170,56,1,0.9952,0.308261,0.327216,-0.000000,0.1590,0.3350,0.0274,0.6378,0.3350,0.0274,0.6378,-0.181112,0.051459,-0.136495,0.972584,0.0000,,-0.0142,0.0281,0.8321,0.3996,2.877904,-0.0705,-1.2123,0.0583,-1.7516,-0.0295,0.9400,-0.2461,-0.0058,0.0636,1.1174,-0.0848,-18.7064,-16.2123,-24.5396,107.70,55.00
3.211,57,1,0.9931,0.309299,0.324626,-0.000000,0.2034,0.3350,0.0278,0.6409,0.3350,0.0278,0.6409,-0.179770,0.084713,-0.036962,0.979357,0.0000,,-0.0213,0.0651,0.9116,0.4490,1.952419,-0.0819,-1.2281,0.0101,-1.7485,0.5737,1.5327,0.6726,-0.1163,-0.0434,0.0931,0.0215,18.6892,17.1672,24.3847,138.99,55.00
3.251,58,1,0.9906,0.310590,0.330392,-0.000000,0.2204,0.3350,0.0302,0.6331,0.3350,0.0302,0.6331,-0.164861,0.107116,-0.014638,0.980374,0.0000,,-0.0366,0.0262,0.8247,0.4181,2.680232,-0.0844,-1.2367,0.0481,-1.7359,-0.0199,0.8461,-0.2005,-0.0388,0.1246,1.3196,-0.1493,-18.7644,-19.5562,-24.5881,112.04,55.00
3.281,59,1,0.9930,0.311478,0.328624,-0.000000,0.1790,0.3350,0.0323,0.6342,0.3350,0.0323,0.6342,-0.163447,0.104061,-0.057582,0.979357,0.0000,,-0.0480,0.0731,0.8766,0.4551,2.164960,-0.0985,-1.2610,-0.0003,-1.7320,0.5838,1.2444,0.7293,-0.1360,-0.0518,0.0424,-0.0001,18.1840,16.5779,24.5858,141.07,55.00
3.322,60,1,0.9913,0.312169,0.319450,-0.000000,0.1915,0.3350,0.0339,0.6477,0.3350,0.0339,0.6477,-0.189833,0.066614,-0.040366,0.978722,0.0000,,-0.0644,0.0249,0.8196,0.4349,2.771292,-0.0941,-1.2722,0.0356,-1.7160,-0.0101,0.7889,-0.1543,0.0208,0.0534,0.9849,-0.0722,-18.7640,-15.7882,-24.6866,108.98,55.00
3.361,61,1,0.9951,0.310341,0.327542,-0.000000,0.1759,0.3350,0.0309,0.6384,0.3350,0.0309,0.6384,-0.182302,0.041124,-0.107520,0.976480,0.0000,,-0.0652,0.0314,0.8985,0.4773,2.082887,-0.1079,-1.2961,-0.0107,-1.7102,0.2774,1.4320,0.7570,-0.1331,-0.0352,-0.0212,-0.0043,13.7541,17.6048,24.4442,139.01,55.00
3.424,62,1,0.9928,0.311887,0.318734,-0.000000,0.1912,0.3350,0.0331,0.6495,0.3350,0.0331,0.6495,-0.187472,0.078523,-0.095483,0.974460,0.0000,,-0.0983,-0.0486,0.8276,0.4755,2.949179,-0.1045,-1.2904,0.0379,-1.7258,-0.6114,0.7739,-0.1172,0.0159,0.2242,0.9297,-1.1049,-19.7945,-19.5050,-24.6797,133.10,55.00
3.464,63,1,0.9945,0.311648,0.325962,-0.000000,0.1580,0.3350,0.0331,0.6410,0.3350,0.0331,0.6410,-0.180336,0.089029,-0.109808,0.973393,0.0000,,-0.1006,-0.0072,0.8598,0.4891,2.153833,-0.0987,-1.3690,-0.0152,-1.7221,-0.0359,1.2246,0.8137,0.0393,-0.1611,-0.0618,0.0314,18.3446,16.7801,24.6021,131.90,55.00
3.507,64,1,0.9901,0.312999,0.319198,-0.000000,0.2027,0.3350,0.0355,0.6493,0.3350,0.0355,0.6493,-0.168144,0.030915,-0.086699,0.981456,0.0000,,-0.1376,-0.0336,0.7977,0.5001,3.073808,-0.0991,-1.3623,0.0619,-1.7418,-0.6084,0.6060,-0.0733,-0.0175,0.1626,0.7449,-1.0538,-18.4264,-18.1812,-24.7735,133.64,55.00
3.548,65,1,0.9939,0.312278,0.332518,-0.000000,0.2248,0.3350,0.0347,0.6315,0.3350,0.0347,0.6315,-0.166264,0.090425,-0.007557,0.981897,0.0000,,-0.1862,-0.0589,0.8516,0.5734,2.351797,-0.0958,-1.4562,0.0437,-1.7332,-0.8023,1.1428,0.8261,0.0543,-0.8566,-0.1662,0.0922,5.6641,17.2894,24.4906,116.45,55.00
3.587,66,1,0.9918,0.314270,0.318876,-0.000000,0.2122,0.3350,0.0381,0.6480,0.3350,0.0381,0.6480,-0.187414,0.061432,-0.034781,0.979741,0.0000,,-0.2152,0.1545,0.7628,0.5739,2.863930,-0.0843,-1.4497,0.0542,-1.7938,1.2108,0.3943,-0.0045,0.0254,0.1360,0.7027,-2.1512,25.2601,-20.3658,-23.4587,136.01,55.00
3.627,67,1,0.9951,0.312284,0.332311,-0.000000,0.1761,0.3350,0.0352,0.6316,0.3350,0.0352,0.6316,-0.170983,0.070596,-0.089831,0.978627,0.0000,,-0.1768,0.1604,0.8602,0.5743,2.171446,-0.0949,-1.4636,0.0505,-1.7954,1.0983,1.2795,0.6317,-0.1807,0.0758,0.0475,-0.0944,-16.4892,19.4758,21.8469,127.64,55.00
3.671,68,1,0.9898,0.315815,0.324208,-0.000000,0.2591,0.3350,0.0410,0.6404,0.3350,0.0410,0.6404,-0.176858,0.061867,0.007946,0.982258,0.0000,,-0.2674,0.1877,0.8088,0.6425,2.449997,-0.0849,-1.4693,0.0644,-1.7885,1.6832,0.6700,-0.3486,0.0501,-0.0691,0.7732,0.0750,17.0226,-19.4058,-24.1665,145.52,55.00
3.713,69,1,0.9769,0.312558,0.319937,-0.000000,0.2009,0.3350,0.0362,0.6481,0.3350,0.0362,0.6481,-0.199046,0.048705,-0.064919,0.976624,0.0000,,-0.2008,0.1742,0.8306,0.5826,2.335721,-0.0939,-1.4838,0.0563,-1.7939,1.1647,1.0692,0.4245,-0.1788,0.0500,0.0638,-0.1908,-17.5771,16.5962,23.1763,145.52,55.00
3.744,70,1,0.9918,0.310184,0.333151,-0.000000,0.1996,0.3350,0.0310,0.6304,0.3350,0.0310,0.6304,-0.175807,0.066183,-0.124798,0.974237,0.0000,,-0.2658,0.1933,0.8092,0.6474,2.626334,-0.0848,-1.4903,0.0712,-1.7884,1.6201,0.7608,-0.4646,0.0505,-0.0977,0.4327,0.0800,16.3824,-12.8557,-23.7822,140.50,55.00
3.801,71,1,0.9838,0.311241,0.312789,-0.000000,0.2482,0.3350,0.0320,0.6566,0.3350,0.0320,0.6566,-0.185436,0.067761,-0.032710,0.979771,0.0000,,-0.1902,0.1554,0.8788,0.5835,1.833150,-0.0951,-1.4991,0.0629,-1.7962,1.0599,1.4969,0.3229,-0.1787,0.1360,0.0125,-0.3446,-18.8437,17.3698,23.3609,145.52,55.00
3.833,72,1,0.9898,0.313620,0.331224,-0.000000,0.2290,0.3350,0.0365,0.6347,0.3350,0.0365,0.6347,-0.162851,0.078411,-0.030590,0.983054,0.0000,,-0.2584,0.1930,0.8041,0.6366,2.422919,-0.0842,-1.5061,0.0730,-1.7887,1.5153,0.7754,-0.5299,0.0385,-0.0339,0.5718,0.0313,16.3473,-19.8258,-23.5253,145.52,55.00
3.876,73,1,0.9857,0.312821,0.317286,-0.000000,0.2225,0.3350,0.0358,0.6509,0.3350,0.0358,0.6509,-0.183999,0.056164,-0.046760,0.980206,0.0000,,-0.1967,0.1683,0.8231,0.5743,2.238912,-0.0944,-1.5170,0.0666,-1.7958,1.0037,1.1160,0.2659,-0.1805,0.0731,0.0453,-0.2197,-17.3991,16.1979,23.1816,145.52,55.00
3.907,74,1,0.9922,0.311597,0.328141,-0.000000,0.2069,0.3350,0.0335,0.6382,0.3350,0.0335,0.6382,-0.155131,0.032078,-0.127966,0.979045,0.0000,,-0.2528,0.1954,0.8118,0.6339,2.529696,-0.0842,-1.5252,0.0787,-1.7887,1.4408,0.9173,-0.6249,0.0447,-0.0867,0.2817,0.0577,16.1812,-11.1292,-23.7956,139.50,55.00
3.945,75,1,0.9892,0.310715,0.318516,-0.000000,0.2413,0.3350,0.0315,0.6497,0.3350,0.0315,0.6497,-0.182873,0.017736,-0.115214,0.976201,0.0000,,-0.1979,0.1335,0.8985,0.5968,1.755739,-0.0960,-1.5311,0.0722,-1.8011,0.8866,1.7637,0.1758,-0.1571,0.1551,-0.0795,-0.6628,-19.3709,17.8481,23.5898,145.52,55.00
3.974,76,1,0.9900,0.308343,0.328059,-0.000000,0.2451,0.3350,0.0269,0.6381,0.3350,0.0269,0.6381,-0.182756,0.025392,-0.045130,0.981794,0.0000,,-0.2518,0.1935,0.8255,0.6381,2.253167,-0.0833,-1.5358,0.0780,-1.7907,1.4288,1.0254,-0.6829,0.0260,0.0632,0.3656,-0.0233,16.8261,-20.2636,-23.5904,139.11,55.00
4.017,77,1,0.9753,0.312467,0.319231,-0.000000,0.1940,0.3350,0.0335,0.6487,0.3350,0.0335,0.6487,-0.192806,0.028633,-0.068774,0.978405,0.0000,,-0.1958,0.1591,0.8399,0.5780,2.118383,-0.0950,-1.5444,0.0739,-1.7995,0.8959,1.3107,0.1210,-0.1788,0.1134,0.0129,-0.2591,-18.0372,15.6179,23.3067,145.52,55.00
4.049,78,1,0.9881,0.308183,0.332414,-0.000000,0.2225,0.3350,0.0269,0.6316,0.3350,0.0269,0.6316,-0.183085,0.030791,-0.045184,0.981575,0.0000,,-0.2580,0.1943,0.7850,0.6350,2.508338,-0.0840,-1.5529,0.0841,-1.7907,1.3571,0.7918,-0.7720,0.0382,-0.0603,0.3696,0.0384,16.4756,-15.3807,-23.7838,141.46,55.00
4.091,79,1,0.9890,0.312002,0.318289,-0.000000,0.2475,0.3350,0.0326,0.6489,0.3350,0.0326,0.6489,-0.158279,0.059390,-0.052658,0.984199,0.0000,,-0.1988,0.1541,0.8444,0.5813,1.998525,-0.0953,-1.5610,0.0783,-1.8002,0.8322,1.3870,-0.0247,-0.1786,0.1269,-0.0052,-0.3543,-18.0699,16.9364,22.9578,145.52,55.00
4.121,80,1,0.9862,0.309717,0.310653,-0.000000,0.2267,0.3350,0.0295,0.6630,0.3350,0.0295,0.6630,-0.200062,-0.011451,-0.133928,0.970519,0.0000,,-0.2572,0.1908,0.7693,0.6228,2.802559,-0.0838,-1.5636,0.0875,-1.7902,1.2869,0.7073,-0.9198,0.0332,0.0122,0.4486,0.0206,16.4082,-18.5455,-23.6996,136.85,55.00
4.164,81,1,0.9878,0.311209,0.317818,-0.000000,0.2176,0.3350,0.0317,0.6552,0.3350,0.0317,0.6552,-0.163784,0.097708,-0.126677,0.973438,0.0000,,-0.1981,0.1555,0.8039,0.5671,2.355464,-0.0949,-1.5726,0.0817,-1.7995,0.7637,1.1174,-0.1781,-0.1843,0.1025,0.0208,-0.2584,-17.3309,16.4656,22.7766,145.52,55.00
4.195,82,1,0.9836,0.307181,0.314083,-0.000000,0.2184,0.3350,0.0248,0.6592,0.3350,0.0248,0.6592,-0.198126,0.066576,-0.090123,0.973751,0.0000,,-0.2533,0.1871,0.7556,0.6178,2.784082,-0.0839,-1.5694,0.0924,-1.7949,1.2247,0.6395,-1.0239,0.0382,0.0333,0.3724,-0.0047,16.5880,-15.3190,-23.2730,125.50,55.00
4.233,83,1,0.9844,0.308353,0.313311,-0.000000,0.2600,0.3350,0.0257,0.6611,0.3350,0.0257,0.6611,-0.187314,-0.002006,-0.053209,0.980856,0.0000,,-0.1929,0.1504,0.8194,0.5651,2.281057,-0.0952,-1.5767,0.0862,-1.8055,0.7127,1.2515,-0.2187,-0.1798,0.1185,-0.0019,-0.3553,-17.5444,17.2113,23.2312,145.52,55.00
4.265,84,1,0.9886,0.311129,0.322866,-0.000000,0.2643,0.3350,0.0308,0.6476,0.3350,0.0308,0.6476,-0.173180,0.045553,0.019109,0.983651,0.0000,,-0.2460,0.1790,0.7411,0.6068,2.678165,-0.0838,-1.5713,0.0961,-1.8029,1.1392,0.5411,-1.1043,0.0343,0.0733,0.4760,-0.0529,16.3429,-19.4278,-23.6538,126.72,55.00
4.308,85,1,0.9875,0.308398,0.315968,-0.000000,0.1795,0.3350,0.0268,0.6551,0.3350,0.0268,0.6551,-0.197127,0.003631,-0.159782,0.967263,0.0000,,-0.1895,0.1442,0.7713,0.5498,2.788102,-0.0948,-1.5794,0.0895,-1.8134,0.6352,0.9193,-0.3668,-0.1816,0.0859,0.0204,-0.2551,-16.7183,16.6722,22.6611,145.52,55.00
4.347,86,1,0.9880,0.306140,0.322349,-0.000000,0.2350,0.3350,0.0220,0.6473,0.3350,0.0220,0.6473,-0.191510,0.024063,-0.091947,0.976878,0.0000,,-0.2323,0.1798,0.7481,0.5974,2.871536,-0.0837,-1.5683,0.0986,-1.8180,1.1058,0.6231,-1.2058,0.0346,0.0928,0.2534,-0.0853,16.6167,-12.8378,-23.1570,117.91,55.00
4.391,87,1,0.9846,0.310197,0.298219,-0.000000,0.3149,0.3350,0.0285,0.6807,0.3350,0.0285,0.6807,-0.197444,0.013292,0.026884,0.979855,0.0000,,-0.1726,0.1354,0.8330,0.5406,2.142978,-0.0955,-1.5730,0.0924,-1.8321,0.5826,1.3859,-0.3886,-0.1636,0.1307,-0.0502,-0.5571,-17.8850,17.7639,23.3956,145.52,55.00
4.422,88,1,0.9877,0.305565,0.313837,-0.000000,0.1856,0.3350,0.0213,0.6642,0.3350,0.0213,0.6642,-0.208385,0.033895,-0.080938,0.974103,0.0000,,-0.2121,0.1764,0.7546,0.5758,2.828465,-0.0834,-1.5594,0.1000,-1.8382,1.0451,0.6708,-1.2664,0.0314,0.1730,0.3607,-0.1750,16.4675,-19.7835,-23.5605,127.28,55.00
4.465,89,1,0.9869,0.306345,0.309437,-0.000000,0.1954,0.3350,0.0214,0.6675,0.3350,0.0214,0.6675,-0.204085,0.058147,-0.109761,0.971041,0.0000,,-0.1586,0.1294,0.7776,0.5171,2.669059,-0.0949,-1.5652,0.0948,-1.8512,0.5084,0.9956,-0.4870,-0.1683,0.0959,-0.0072,-0.3473,-17.1107,16.2055,23.0083,145.52,55.00
4.505,90,1,0.9897,0.304303,0.301066,-0.000000,0.2229,0.3350,0.0178,0.6802,0.3350,0.0178,0.6802,-0.218788,0.015918,-0.097501,0.970758,0.0000,,-0.1972,0.1665,0.7429,0.5561,2.956994,-0.0834,-1.5491,0.1012,-1.8600,0.9685,0.6025,-1.3579,0.0411,0.1451,0.2321,-0.1466,16.6568,-13.9749,-23.4232,121.64,55.00
4.548,91,1,0.9829,0.301095,0.302891,-0.000000,0.2190,0.3350,0.0113,0.6799,0.3350,0.0113,0.6799,-0.218033,0.007042,-0.118243,0.968726,0.0000,,-0.1358,0.1190,0.8158,0.5017,2.593910,-0.0952,-1.5524,0.0955,-1.8764,0.4428,1.2942,-0.5625,-0.1529,0.1227,-0.0634,-0.6210,-17.6115,17.5171,23.2730,145.52,55.00
4.588,92,1,0.9869,0.298118,0.293844,-0.000000,0.2336,0.3350,0.0048,0.6929,0.3350,0.0048,0.6929,-0.218419,0.013663,-0.040563,0.974916,0.0000,,-0.1748,0.1582,0.7386,0.5343,2.885307,-0.0834,-1.5310,0.1038,-1.8903,0.8958,0.5718,-1.4330,0.0419,0.3139,0.3457,-0.2385,16.5711,-19.7704,-23.4331,136.56,55.00
4.618,93,1,0.9800,0.296652,0.296246,-0.000000,0.2820,0.3350,0.0010,0.6917,0.3350,0.0010,0.6917,-0.226051,-0.018408,0.016135,0.973808,0.0000,,-0.1259,0.1108,0.7624,0.4790,2.754830,-0.0948,-1.5345,0.0978,-1.8980,0.3863,0.9131,-0.6481,-0.1601,0.1146,-0.0210,-0.2351,-16.7679,16.3834,23.0011,138.85,55.00
4.644,94,1,0.9862,0.294077,0.286161,-0.000000,0.3171,0.3350,-0.0044,0.7061,0.3350,-0.0044,0.7061,-0.238024,-0.017563,-0.012811,0.971016,0.0000,,-0.1801,0.1384,0.7124,0.5346,2.981966,-0.0838,-1.5151,0.0951,-1.9143,0.8567,0.3142,-1.5091,0.0322,0.1592,0.1844,-0.2214,17.1148,-17.1834,-23.3291,124.80,55.00
4.691,95,1,0.9901,0.291882,0.290041,-0.000000,0.3935,0.3350,-0.0093,0.7031,0.3350,-0.0093,0.7031,-0.171982,0.055360,0.033986,0.982956,0.0020,,-0.1210,0.0986,0.7498,0.4709,2.711127,-0.0948,-1.5249,0.0864,-1.9131,0.3452,0.8206,-0.7280,-0.1602,0.0592,-0.0176,-0.1708,-16.7308,17.2012,22.9329,127.14,55.00
4.732,96,1,0.9893,0.289984,0.300458,-0.000000,0.2817,0.3350,-0.0136,0.6875,0.3350,-0.0136,0.6875,-0.191718,0.160057,0.008261,0.968276,0.0000,,-0.1842,0.1201,0.6997,0.5363,2.987046,-0.0839,-1.5066,0.0798,-1.9418,0.8292,0.1500,-1.5868,0.0285,0.1206,0.1716,-0.6811,17.7423,-18.7685,-23.3046,131.40,55.00
4.772,97,1,0.9857,0.283518,0.288881,-0.000000,0.3449,0.3350,-0.0260,0.7014,0.3350,-0.0260,0.7014,-0.254845,0.050770,0.036610,0.964954,0.0000,,-0.1109,0.0826,0.7504,0.4615,2.758652,-0.0950,-1.5250,0.0701,-1.9340,0.2800,0.8535,-0.8451,-0.1590,0.0400,-0.0303,-0.1336,-17.0187,18.5719,22.6907,124.30,55.00
4.804,98,1,0.9849,0.278369,0.290428,-0.000000,0.3121,0.3350,-0.0376,0.7017,0.3350,-0.0376,0.7017,-0.225249,0.188072,-0.035616,0.955313,0.0000,,-0.1600,0.1082,0.7026,0.5160,3.011544,-0.0833,-1.5084,0.0592,-1.9697,0.7214,0.2586,-1.7188,0.0492,0.1139,0.1091,-1.1685,17.2785,-18.6544,-23.2850,135.08,55.00
4.847,99,1,0.9946,0.276714,0.296110,-0.000000,0.2483,0.3350,-0.0426,0.6935,0.3350,-0.0426,0.6935,-0.221454,0.221042,0.006583,0.949766,0.0000,,-0.1075,0.0524,0.7304,0.4541,2.730816,-0.0953,-1.5211,0.0498,-1.9636,0.1308,0.7240,-0.9395,-0.1504,0.0236,-0.0521,-0.1086,-17.1781,17.3003,22.9241,125.29,55.00
4.878,100,1,0.9947,0.274109,0.295075,-0.000000,0.2446,0.3350,-0.0482,0.6935,0.3350,-0.0482,0.6935,-0.219862,0.239322,0.066165,0.943402,0.0000,,-0.1670,0.0733,0.6864,0.5165,2.853250,-0.0831,-1.5056,0.0236,-2.0007,0.5786,0.0688,-1.7849,0.0515,0.0972,-0.0015,-1.1866,17.7801,-18.6466,-23.1519,143.02,55.00
4.908,101,1,0.9916,0.274265,0.294581,-0.000000,0.3091,0.3350,-0.0490,0.6943,0.3350,-0.0490,0.6943,-0.203576,0.255216,0.078466,0.941947,0.0000,,-0.1062,0.0184,0.7438,0.4490,2.535749,-0.0957,-1.5615,0.0137,-1.9841,-0.0166,0.9055,-1.0013,-0.1352,-0.0119,-0.1071,-0.0485,-17.2994,18.8282,23.0870,136.02,55.00
4.951,102,1,0.9956,0.273601,0.293829,-0.000000,0.3873,0.3350,-0.0503,0.6955,0.3350,-0.0503,0.6955,-0.216128,0.325710,0.164833,0.905556,0.0018,,-0.1429,0.0583,0.6931,0.4900,2.563489,-0.0823,-1.5484,-0.0051,-2.0142,0.4438,0.3362,-1.8401,0.0782,0.1227,-0.0164,-1.1975,17.3647,-18.6119,-23.0447,137.71,55.00
4.982,103,1,0.9948,0.272164,0.300520,-0.000000,0.3326,0.3350,-0.0531,0.6860,0.3350,-0.0531,0.6860,-0.162279,0.332045,0.151824,0.916712,0.0000,,-0.1159,-0.0058,0.7252,0.4550,2.372460,-0.0960,-1.5725,-0.0144,-2.0004,-0.1167,0.7862,-1.0383,-0.1311,-0.0131,-0.1193,-0.0309,-17.0305,17.0289,23.0910,135.39,55.00
5.025,104,1,0.9941,0.268264,0.297427,0.000000,0.6152,0.3350,-0.0607,0.6888,0.3350,-0.0607,0.6888,-0.215877,0.278572,0.308783,0.883429,0.0125,,-0.1628,0.0300,0.6753,0.5061,2.287264,-0.0821,-1.5595,-0.0508,-2.0322,0.3582,0.1520,-1.8689,0.0751,0.1065,-0.0835,-1.2018,17.7487,-18.5190,-23.0197,145.52,55.00
5.065,105,0,,0.000000,0.000000,0.000000,1.0000,0.3350,-0.0607,0.6888,0.3350,-0.0607,0.6888,-0.215877,0.278572,0.308783,0.883429,0.0125,,-0.1217,-0.0327,0.7260,0.4590,2.223195,-0.0961,-1.6040,-0.0496,-2.0185,-0.2122,0.8624,-1.0730,-0.1176,-0.0137,-0.0562,-0.0494,-17.1510,18.3639,23.1303,126.38,55.00
5.095,106,0,,0.000000,0.000000,0.000000,1.0000,0.3350,-0.0607,0.6888,0.3350,-0.0607,0.6888,-0.215877,0.278572,0.308783,0.883429,0.0125,,-0.1553,0.0066,0.6731,0.4951,2.259563,-0.0817,-1.5921,-0.0833,-2.0456,0.2286,0.2657,-1.9041,0.0964,0.1154,-0.1343,-1.1211,17.1643,-18.7020,-22.9913,145.52,55.00
5.137,107,0,,0.000000,0.000000,0.000000,1.0000,0.3350,-0.0607,0.6888,0.3350,-0.0607,0.6888,-0.215877,0.278572,0.308783,0.883429,0.0125,,-0.1395,-0.0623,0.7057,0.4748,2.292916,-0.0965,-1.6216,-0.0837,-2.0324,-0.3588,0.7426,-1.1015,-0.1126,-0.0320,-0.0843,-0.0350,-17.1378,17.2543,23.0908,126.77,55.00
5.174,108,0,,0.000000,0.000000,0.000000,1.0000,0.3350,-0.0607,0.6888,0.3350,-0.0607,0.6888,-0.215877,0.278572,0.308783,0.883429,0.0125,,-0.1795,-0.0174,0.6542,0.5174,2.263212,-0.0812,-1.6100,-0.1152,-2.0600,0.0937,0.0897,-1.9278,0.0952,0.0983,-0.1346,-1.1099,17.7191,-18.6719,-22.9913,145.52,55.00
5.228,109,0,,0.000000,0.000000,0.000000,1.0000,0.3350,-0.0607,0.6888,0.3350,-0.0607,0.6888,-0.215877,0.278572,0.308783,0.883429,0.0125,,-0.1470,-0.0856,0.7167,0.4834,2.336311,-0.0961,-1.6622,-0.0994,-2.0483,-0.4799,0.9082,-1.1304,-0.0882,-0.0358,0.0031,-0.0455,-17.2537,18.7858,23.1974,130.36,55.00
5.275,110,1,0.9755,0.312214,0.331406,-0.000000,0.1956,0.3350,0.0172,0.6403,0.3350,0.0172,0.6403,-0.203630,0.095399,0.040547,0.973545,0.0000,,-0.1613,-0.0360,0.6608,0.4996,2.895836,-0.0812,-1.6522,-0.1308,-2.0692,-0.0021,0.3436,-1.9547,0.1448,0.1169,-0.2257,-0.9479,17.3503,-18.6389,-22.9161,145.52,55.00
5.333,111,1,0.9838,0.314844,0.314833,-0.000000,0.2593,0.3350,0.0360,0.6554,0.3350,0.0360,0.6554,-0.189985,0.051161,0.051454,0.979102,0.0000,,-0.1638,-0.0993,0.6938,0.5183,2.999276,-0.0966,-1.6905,-0.1328,-2.0582,-0.5163,0.7938,-1.1410,-0.0952,-0.0648,-0.1310,-0.0226,-16.7275,16.9058,23.1716,129.34,55.00
5.367,112,1,0.9905,0.313962,0.320708,-0.000000,0.2222,0.3350,0.0378,0.6497,0.3350,0.0378,0.6497,-0.197705,0.024613,-0.043712,0.978977,0.0000,,-0.1935,-0.0351,0.6377,0.5336,3.109028,-0.0803,-1.6803,-0.1254,-2.0817,-0.0565,0.1202,-1.9626,0.1129,0.0980,0.1228,-0.9904,17.7384,-18.7113,-22.9584,143.13,55.00
5.410,113,1,0.9816,0.314642,0.336832,-0.000000,0.2240,0.3350,0.0394,0.6254,0.3350,0.0394,0.6254,-0.172602,0.048934,-0.075731,0.980856,0.0000,,-0.1849,-0.0959,0.6973,0.5420,3.088308,-0.0962,-1.7589,-0.0975,-2.0707,-0.6030,0.8919,-1.1610,-0.0813,-0.1340,0.0507,0.0100,-17.1130,18.5418,23.2059,141.05,55.00
5.452,114,1,0.9736,0.311699,0.321441,-0.000000,0.2552,0.3350,0.0343,0.6432,0.3350,0.0343,0.6432,-0.178363,0.050686,-0.146616,0.971659,0.0000,,-0.1924,-0.0359,0.6381,0.5320,2.934055,-0.0804,-1.7501,-0.0957,-2.0888,-0.1268,0.3052,-1.9823,0.1367,0.1122,0.0187,-0.8318,17.5272,-18.6684,-22.9004,137.45,55.00
5.481,115,1,0.9793,0.312413,0.335062,-0.000000,0.2104,0.3350,0.0347,0.6268,0.3350,0.0347,0.6268,-0.138538,0.061200,-0.050073,0.987195,0.0000,,-0.1967,-0.0870,0.6814,0.5481,3.087973,-0.0965,-1.7649,-0.0665,-2.0769,-0.6603,0.7456,-1.1709,-0.0879,0.0546,0.0739,-0.0207,-16.8482,16.8858,23.1552,141.76,55.00
5.521,116,1,0.9571,0.309883,0.324495,0.000000,0.2815,0.3350,0.0302,0.6391,0.3350,0.0302,0.6391,-0.149110,0.108935,-0.075280,0.979914,0.0000,,-0.2161,-0.0257,0.6206,0.5542,3.090673,-0.0803,-1.7546,-0.0722,-2.0988,-0.1607,0.0866,-1.9890,0.1200,0.0910,-0.0163,-0.9243,18.1924,-18.5986,-22.9272,134.78,55.00
5.561,117,1,0.9949,0.305985,0.317623,0.000000,0.1925,0.3350,0.0224,0.6512,0.3350,0.0224,0.6512,-0.182933,0.092408,-0.128197,0.970341,0.0000,,-0.1885,-0.0839,0.7000,0.5363,2.991097,-0.0962,-1.7645,-0.0455,-2.0843,-0.6811,0.8837,-1.1871,-0.0735,0.0422,0.0390,-0.0324,-16.8994,18.7171,23.2135,143.98,55.00
5.603,118,1,0.9900,0.304862,0.318774,-0.000000,0.2148,0.3350,0.0189,0.6517,0.3350,0.0189,0.6517,-0.198585,0.035525,-0.105809,0.973708,0.0000,,-0.1899,-0.0288,0.6387,0.5272,2.935693,-0.0806,-1.7549,-0.0500,-2.1019,-0.1946,0.3185,-2.0075,0.1418,0.1123,-0.0566,-0.7786,17.5228,-18.5778,-22.8822,134.82,55.00
5.640,119,1,0.9898,0.307604,0.331812,-0.000000,0.2010,0.3350,0.0233,0.6330,0.3350,0.0233,0.6330,-0.160638,0.076909,-0.071641,0.981401,0.0000,,-0.1956,-0.0763,0.6873,0.5426,3.002942,-0.0964,-1.7647,-0.0210,-2.0903,-0.7183,0.7618,-1.1934,-0.0858,0.0425,0.0628,-0.0164,-16.7622,16.8887,23.1825,145.52,55.00
5.679,120,1,0.9882,0.309265,0.312348,-0.000000,0.1958,0.3350,0.0270,0.6577,0.3350,0.0270,0.6577,-0.163110,0.066510,-0.068800,0.981956,0.0000,,-0.2112,-0.0177,0.6220,0.5492,3.030251,-0.0804,-1.7547,-0.0310,-2.1112,-0.2071,0.1043,-2.0092,0.1249,0.0910,-0.0687,-0.8990,18.2541,-18.6166,-22.8978,135.16,55.00
5.710,121,1,0.9911,0.311128,0.326769,-0.000000,0.2180,0.3350,0.0311,0.6414,0.3350,0.0311,0.6414,-0.179778,0.059303,-0.060789,0.980035,0.0000,,-0.1876,-0.0710,0.6991,0.5355,2.960615,-0.0962,-1.7646,-0.0041,-2.0975,-0.7148,0.8546,-1.2048,-0.0776,0.0417,0.0410,-0.0274,-16.7678,18.4204,23.2068,145.52,55.00
5.745,122,1,0.9870,0.313466,0.325153,-0.000000,0.2458,0.3350,0.0360,0.6407,0.3350,0.0360,0.6407,-0.175304,0.051071,-0.023608,0.982905,0.0000,,-0.1908,-0.0168,0.6343,0.5284,3.063406,-0.0807,-1.7548,-0.0114,-2.1158,-0.2116,0.2714,-2.0233,0.1376,0.1069,-0.0780,-0.8107,17.7726,-18.6000,-22.8680,134.80,55.00
5.788,123,1,0.9892,0.315865,0.326888,-0.000000,0.2165,0.3350,0.0412,0.6381,0.3350,0.0412,0.6381,-0.161757,0.030372,-0.031737,0.985852,0.0000,,-0.1926,-0.0618,0.6855,0.5396,2.930727,-0.0965,-1.7648,0.0180,-2.1038,-0.7243,0.7347,-1.2107,-0.0894,0.0445,0.0663,-0.0174,-16.6667,17.0859,23.1609,145.52,55.00
5.824,124,1,0.9885,0.314883,0.322978,-0.000000,0.1974,0.3350,0.0404,0.6433,0.3350,0.0404,0.6433,-0.163323,0.037509,-0.076595,0.982879,0.0000,,-0.2094,-0.0047,0.6197,0.5467,2.967495,-0.0806,-1.7544,0.0045,-2.1257,-0.1970,0.0785,-2.0263,0.1194,0.0870,-0.0921,-0.9457,18.4541,-18.6311,-22.8940,136.61,55.00
5.865,125,1,0.9850,0.312199,0.323377,-0.000000,0.2411,0.3350,0.0354,0.6437,0.3350,0.0354,0.6437,-0.170536,0.041496,-0.047736,0.983319,0.0000,,-0.1764,-0.0556,0.7070,0.5232,2.923169,-0.0961,-1.7645,0.0316,-2.1125,-0.6924,0.9176,-1.2216,-0.0796,0.0415,0.0365,-0.0320,-16.7709,18.8442,23.2587,145.52,55.00
5.908,126,1,0.9912,0.313642,0.321857,-0.000000,0.2526,0.3350,0.0371,0.6459,0.3350,0.0371,0.6459,-0.163314,0.051259,-0.026473,0.984886,0.0000,,-0.1754,-0.0036,0.6410,0.5120,3.014559,-0.0810,-1.7550,0.0266,-2.1299,-0.1850,0.3641,-2.0390,0.1373,0.1152,-0.0676,-0.7847,17.6103,-18.5736,-22.8455,134.72,55.00
5.947,127,1,0.9880,0.311441,0.328922,-0.000000,0.1934,0.3350,0.0335,0.6361,0.3350,0.0335,0.6361,-0.170256,0.057222,-0.065767,0.981536,0.0000,,-0.1792,-0.0446,0.6930,0.5232,2.900504,-0.0963,-1.7647,0.0574,-2.1186,-0.6859,0.7999,-1.2192,-0.0937,0.0436,0.0705,-0.0188,-16.6194,16.7552,23.2374,145.52,55.00
5.984,128,1,0.9848,0.311112,0.307559,-0.000000,0.2305,0.3350,0.0322,0.6652,0.3350,0.0322,0.6652,-0.170253,0.024632,-0.129269,0.976574,0.0000,,-0.1969,0.0110,0.6213,0.5341,2.821490,-0.0809,-1.7545,0.0472,-2.1406,-0.1567,0.1320,-2.0313,0.1176,0.0908,-0.0648,-0.9710,18.3545,-18.7044,-22.8594,135.45,55.00
6.014,129,1,0.9905,0.310600,0.325334,-0.000000,0.2720,0.3350,0.0311,0.6448,0.3350,0.0311,0.6448,-0.160722,0.066307,0.001336,0.984769,0.0000,,-0.1696,-0.0342,0.6979,0.5116,2.998717,-0.0962,-1.7645,0.0761,-2.1270,-0.6486,0.8545,-1.2232,-0.0921,0.0417,0.0605,-0.0342,-16.6467,18.3714,23.2260,145.52,55.00
6.053,130,1,0.9841,0.309012,0.307545,-0.000000,0.2195,0.3350,0.0280,0.6668,0.3350,0.0280,0.6668,-0.192390,-0.000551,-0.096945,0.976518,0.0000,,-0.1775,0.0179,0.6301,0.5139,2.838440,-0.0812,-1.7544,0.0684,-2.1472,-0.1268,0.2712,-2.0394,0.1230,0.1048,-0.0613,-0.9059,17.9492,-18.5810,-22.8467,134.94,55.00
6.096,131,1,0.9921,0.311027,0.322084,-0.000000,0.2384,0.3350,0.0311,0.6497,0.3350,0.0311,0.6497,-0.177207,-0.012472,-0.102564,0.978735,0.0000,,-0.1721,-0.0228,0.6827,0.5110,2.723693,-0.0964,-1.7648,0.0992,-2.1336,-0.6261,0.7372,-1.2252,-0.1040,0.0487,0.0906,-0.0256,-16.5705,17.0952,23.1724,145.52,55.00
6.132,132,1,0.9803,0.307137,0.323217,-0.000000,0.2025,0.3350,0.0246,0.6450,0.3350,0.0246,0.6450,-0.186541,0.042214,-0.093397,0.977086,0.0000,,-0.1953,0.0317,0.6151,0.5311,2.887190,-0.0812,-1.7540,0.0886,-2.1581,-0.0836,0.0842,-2.0393,0.1035,0.0843,-0.0415,-1.0496,18.6066,-18.6010,-22.8770,135.66,55.00
6.174,133,1,0.9903,0.308033,0.317091,-0.000000,0.2151,0.3350,0.0251,0.6530,0.3350,0.0251,0.6530,-0.183462,0.030695,-0.135130,0.973211,0.0000,,-0.1546,-0.0112,0.6979,0.4930,2.750730,-0.0962,-1.7645,0.1165,-2.1432,-0.5695,0.8883,-1.2337,-0.1012,0.0476,0.0727,-0.0447,-16.6629,18.7463,23.2434,145.52,55.00
6.214,134,1,0.9877,0.308513,0.323160,-0.000000,0.1867,0.3350,0.0260,0.6457,0.3350,0.0260,0.6457,-0.180129,0.026880,-0.157973,0.970503,0.0000,,-0.1629,0.0399,0.6306,0.4983,2.710833,-0.0815,-1.7542,0.1125,-2.1638,-0.0465,0.3326,-2.0501,0.1153,0.1093,-0.0199,-0.9289,17.8466,-18.5096,-22.8361,134.75,55.00
6.253,135,1,0.9896,0.308036,0.322892,-0.000000,0.2285,0.3350,0.0253,0.6448,0.3350,0.0253,0.6448,-0.169352,0.041287,-0.087681,0.980779,0.0000,,-0.1553,0.0023,0.6832,0.4924,2.811562,-0.0963,-1.7647,0.1460,-2.1506,-0.5405,0.7823,-1.2313,-0.1129,0.0483,0.1062,-0.0303,-16.5536,16.8853,23.2240,145.52,55.00
6.296,136,1,0.9893,0.309271,0.318168,-0.000000,0.2227,0.3350,0.0274,0.6514,0.3350,0.0274,0.6514,-0.165888,0.047673,-0.093388,0.980554,0.0000,,-0.1791,0.0548,0.6142,0.5161,2.847816,-0.0816,-1.7538,0.1409,-2.1754,0.0008,0.1535,-2.0431,0.0980,0.0897,0.0131,-1.0621,18.4545,-18.4033,-22.8459,134.72,55.00
6.338,137,1,0.9859,0.309364,0.319025,-0.000000,0.2115,0.3350,0.0280,0.6514,0.3350,0.0280,0.6514,-0.179437,0.025957,-0.114114,0.976784,0.0000,,-0.1432,0.0176,0.6869,0.4796,2.751042,-0.0961,-1.7645,0.1716,-2.1600,-0.4839,0.8473,-1.2329,-0.1159,0.0487,0.1033,-0.0465,-16.5851,18.2577,23.2315,145.52,55.00
6.378,138,1,0.9889,0.311551,0.330330,-0.000000,0.2211,0.3350,0.0320,0.6351,0.3350,0.0320,0.6351,-0.161618,0.050478,-0.048552,0.984365,0.0000,,-0.1624,0.0689,0.6176,0.4991,2.912974,-0.0818,-1.7537,0.1717,-2.1841,0.0496,0.2575,-2.0478,0.0986,0.0984,0.0506,-1.0665,18.1574,-18.5553,-22.8375,135.47,55.00
6.421,139,1,0.9854,0.312937,0.322129,-0.000000,0.2208,0.3350,0.0352,0.6440,0.3350,0.0352,0.6440,-0.178774,0.036614,-0.057601,0.981520,0.0000,,-0.1441,0.0335,0.6700,0.4798,2.814021,-0.0961,-1.7648,0.2062,-2.1684,-0.4428,0.7351,-1.2335,-0.1260,0.0532,0.1343,-0.0357,-16.5186,17.1634,23.1737,145.52,55.00
6.465,140,1,0.9869,0.312842,0.323046,-0.000000,0.2095,0.3350,0.0356,0.6443,0.3350,0.0356,0.6443,-0.188098,0.020561,-0.081809,0.978521,0.0000,,-0.1782,0.0837,0.6028,0.5171,2.840430,-0.0820,-1.7533,0.2021,-2.1970,0.1118,0.0907,-2.0470,0.0805,0.0782,0.0572,-1.1817,18.7720,-18.5288,-22.8654,134.72,55.00
6.506,141,1,0.9939,0.311658,0.319049,-0.000000,0.2068,0.3350,0.0336,0.6501,0.3350,0.0336,0.6501,-0.182759,0.033042,-0.133436,0.973500,0.0000,,-0.1243,0.0518,0.6821,0.4608,2.722244,-0.0958,-1.7646,0.2311,-2.1796,-0.3676,0.8919,-1.2403,-0.1296,0.0544,0.1239,-0.0579,-16.6242,18.7330,23.2518,145.52,55.00
6.546,142,1,0.9935,0.309985,0.324642,-0.000000,0.2368,0.3350,0.0302,0.6431,0.3350,0.0302,0.6431,-0.171557,0.048341,-0.113337,0.977439,0.0000,,-0.1446,0.1013,0.6134,0.4857,2.761539,-0.0822,-1.7535,0.2364,-2.2044,0.1649,0.3366,-2.0558,0.0885,0.1026,0.1104,-1.0909,18.0188,-18.4628,-22.8289,137.82,55.00
6.575,143,1,0.9893,0.312129,0.307722,-0.000000,0.2771,0.3350,0.0335,0.6662,0.3350,0.0335,0.6662,-0.190824,0.038951,-0.042437,0.979933,0.0000,,-0.1262,0.0689,0.6612,0.4625,2.815326,-0.0958,-1.7648,0.2738,-2.1887,-0.3250,0.7601,-1.2364,-0.1376,0.0540,0.1609,-0.0348,-16.5095,16.6745,23.2146,145.52,55.00
6.619,144,1,0.9944,0.313230,0.312878,-0.000000,0.2009,0.3350,0.0360,0.6629,0.3350,0.0360,0.6629,-0.191360,0.026863,-0.075502,0.978243,0.0000,,-0.1689,0.1158,0.5917,0.5151,2.824357,-0.0826,-1.7531,0.2756,-2.2199,0.2328,0.0958,-2.0475,0.0683,0.0731,0.1315,-1.2439,18.8513,-18.5580,-22.8510,135.67,55.00
6.660,145,1,0.9915,0.311224,0.322187,-0.000000,0.2114,0.3350,0.0329,0.6489,0.3350,0.0329,0.6489,-0.197627,0.027378,-0.054031,0.978404,0.0000,,-0.1079,0.0913,0.6678,0.4471,2.802368,-0.0955,-1.7646,0.3073,-2.2003,-0.2456,0.8937,-1.2397,-0.1466,0.0568,0.1569,-0.0615,-16.6066,18.7294,23.2589,145.52,55.00
6.702,146,1,0.9883,0.308443,0.341435,-0.000000,0.1624,0.3350,0.0273,0.6186,0.3350,0.0273,0.6186,-0.171476,0.015861,-0.103839,0.979572,0.0000,,-0.1352,0.1381,0.5985,0.4834,2.744988,-0.0828,-1.7532,0.3167,-2.2278,0.2923,0.3397,-2.0547,0.0743,0.0969,0.1731,-1.1655,18.1208,-18.4346,-22.8264,140.37,55.00
6.744,147,1,0.9773,0.295850,0.343162,0.000000,0.5636,0.3350,0.0036,0.6107,0.3350,0.0036,0.6107,-0.165821,0.040767,-0.085545,0.981592,0.0101,,-0.1093,0.1098,0.6448,0.4581,2.734413,-0.0954,-1.7649,0.3576,-2.2102,-0.1967,0.7672,-1.2349,-0.1514,0.0555,0.1924,-0.0353,-16.4963,16.7067,23.2214,145.52,55.00
6.785,148,0,,0.000000,0.000000,0.000000,1.0000,0.3350,0.0036,0.6107,0.3350,0.0036,0.6107,-0.165821,0.040767,-0.085545,0.981592,0.0101,,-0.1588,0.1515,0.5761,0.5166,2.763275,-0.0832,-1.7529,0.3629,-2.2438,0.3662,0.1074,-2.0457,0.0571,0.0674,0.1850,-1.2789,18.9217,-18.5227,-22.8440,136.76,55.00
6.815,149,1,0.9348,0.455946,0.887263,0.000001,1.0327,0.3350,0.2056,0.5360,0.3350,0.2056,0.5360,0.340075,-0.632773,0.693645,-0.052942,0.0321,,-0.0930,0.1344,0.6445,0.4472,2.556669,-0.0949,-1.7646,0.3985,-2.2221,-0.1133,0.8703,-1.2377,-0.1802,0.0527,0.2441,-0.0584,-16.5896,18.5201,23.2389,145.52,55.00
6.867,150,1,0.9422,0.454309,0.906407,0.000001,0.9944,0.3350,0.2420,0.5226,0.3350,0.2420,0.5226,0.145707,-0.660945,0.729530,0.098526,0.0303,,-0.1317,0.1707,0.5796,0.4755,1.749835,-0.0837,-1.7529,0.3834,-2.2538,0.4428,0.3060,-2.0518,0.0596,0.0859,-0.0036,-1.2721,18.3213,-18.4817,-22.8074,139.82,55.00
6.909,151,1,0.9401,0.443471,0.906228,0.000001,0.9763,0.3350,0.2486,0.5201,0.3350,0.2486,0.5201,0.112524,-0.661526,0.732122,0.117128,0.0295,,-0.0976,0.1422,0.6226,0.4571,2.696650,-0.0947,-1.7649,0.4195,-2.2329,-0.0576,0.7381,-1.2347,-0.1675,0.0570,0.3382,-0.0312,-16.6195,16.8073,23.1830,145.33,55.00
6.948,152,1,0.9426,0.432876,0.901803,0.000001,1.0178,0.3350,0.2497,0.5197,0.3350,0.2497,0.5197,0.110080,-0.664827,0.729807,0.115189,0.0314,,-0.1528,0.1736,0.5650,0.4958,1.784096,-0.0841,-1.7528,0.3994,-2.2690,0.5121,0.1147,-2.0451,0.0475,0.0640,-0.0102,-1.2682,18.9042,-18.2897,-22.8227,145.52,55.00
6.985,153,1,0.9460,0.431840,0.902227,0.000001,1.0187,0.3350,0.2500,0.5196,0.3350,0.2500,0.5196,0.115050,-0.665840,0.729362,0.107016,0.0315,,-0.0800,0.1596,0.6293,0.4386,2.597224,-0.0942,-1.7647,0.4359,-2.2450,0.0182,0.8855,-1.2371,-0.1786,0.0587,0.4939,-0.0598,-16.8064,18.6618,23.2476,145.52,55.00
7.015,154,1,0.9549,0.403316,0.902462,0.000001,1.0404,0.3350,0.2375,0.5196,0.3350,0.2375,0.5196,0.141835,-0.655444,0.730186,0.130783,0.0325,,-0.1243,0.1930,0.5683,0.4639,1.674195,-0.0841,-1.7529,0.4225,-2.2786,0.5641,0.3283,-2.0504,0.0514,0.0835,0.0263,-1.2832,18.2238,-18.4876,-22.8009,139.28,55.00
7.053,155,1,0.9654,0.393985,0.899876,0.000001,1.0293,0.3350,0.2184,0.5196,0.3350,0.2184,0.5196,0.102836,-0.660355,0.731427,0.135541,0.0320,,-0.0851,0.1627,0.6096,0.4332,2.621011,-0.0944,-1.7650,0.4511,-2.2571,0.0545,0.7598,-1.2316,-0.1713,0.0566,0.2305,-0.0272,-16.6621,16.8057,23.2028,142.88,55.00
7.094,156,1,0.9759,0.377285,0.902295,0.000001,1.0475,0.3350,0.1849,0.5196,0.3350,0.1849,0.5196,0.101054,-0.661657,0.729068,0.143028,0.0328,,-0.1454,0.1899,0.5555,0.4817,1.730224,-0.0845,-1.7527,0.4318,-2.2945,0.6111,0.1344,-2.0414,0.0433,0.0628,0.0066,-1.2583,18.7682,-18.3307,-22.8154,145.52,55.00
7.132,157,1,0.9721,0.369281,0.910774,0.000001,1.0241,0.3350,0.1644,0.5196,0.3350,0.1644,0.5196,0.110763,-0.662102,0.725996,0.149274,0.0317,,-0.0722,0.1767,0.6139,0.4181,2.561515,-0.0937,-1.7647,0.4698,-2.2653,0.1026,0.8722,-1.2325,-0.1748,0.0559,0.6484,-0.0545,-16.9113,18.5829,23.2408,145.52,55.00
7.162,158,1,0.9709,0.363771,0.915440,0.000001,0.9849,0.3350,0.1508,0.5196,0.3350,0.1508,0.5196,0.116616,-0.658993,0.726324,0.156786,0.0299,,-0.1223,0.2064,0.5569,0.4622,1.655433,-0.0845,-1.7528,0.4535,-2.3011,0.6453,0.3079,-2.0453,0.0462,0.0781,0.0153,-1.2987,18.2560,-18.5019,-22.8021,142.51,55.00
7.199,159,1,0.9736,0.357937,0.919278,0.000001,0.9954,0.3350,0.1378,0.5196,0.3350,0.1378,0.5196,0.123052,-0.660264,0.722607,0.163551,0.0304,,-0.0789,0.1767,0.5957,0.4226,2.599966,-0.0940,-1.7650,0.4816,-2.2767,0.1258,0.7438,-1.2279,-0.1680,0.0577,0.3180,-0.0222,-16.7494,16.8894,23.1853,142.68,55.00
7.244,160,1,0.9742,0.353414,0.918993,0.000001,1.0192,0.3350,0.1273,0.5196,0.3350,0.1273,0.5196,0.126506,-0.660616,0.721278,0.165352,0.0315,,-0.1424,0.2012,0.5462,0.4838,1.752310,-0.0848,-1.7527,0.4627,-2.3155,0.6788,0.1237,-2.0385,0.0404,0.0596,0.0206,-1.2330,18.7703,-18.2833,-22.8236,145.52,55.00
7.276,161,1,0.9718,0.350006,0.910911,0.000001,1.0559,0.3350,0.1193,0.5196,0.3350,0.1193,0.5196,0.121906,-0.664303,0.718686,0.165321,0.0332,,-0.0635,0.1913,0.6030,0.4134,2.534270,-0.0933,-1.7649,0.5015,-2.2844,0.1656,0.8882,-1.2303,-0.1740,0.0636,0.7471,-0.0530,-16.9867,18.6592,23.2497,145.52,55.00
7.309,162,1,0.9683,0.348751,0.918816,0.000001,1.0236,0.3350,0.1155,0.5196,0.3350,0.1155,0.5196,0.120856,-0.665052,0.719180,0.160871,0.0317,,-0.1158,0.2190,0.5476,0.4634,1.650779,-0.0847,-1.7530,0.4858,-2.3215,0.7039,0.3260,-2.0432,0.0438,0.0772,0.0218,-1.3062,18.1961,-18.5203,-22.8016,142.95,55.00
7.352,163,1,0.9586,0.368193,0.919776,0.000001,1.0130,0.3350,0.1500,0.5196,0.3350,0.1500,0.5196,0.116846,-0.663850,0.723980,0.146642,0.0312,,-0.0699,0.1900,0.5848,0.4121,2.568349,-0.0936,-1.7650,0.5158,-2.2965,0.1794,0.7608,-1.2248,-0.1644,0.0564,0.4318,-0.0200,-16.8283,16.8782,23.1991,143.17,55.00
7.415,164,1,0.9647,0.377709,0.921833,0.000001,0.9822,0.3350,0.1733,0.5196,0.3350,0.1733,0.5196,0.105916,-0.662822,0.726529,0.146981,0.0298,,-0.1356,0.2125,0.5366,0.4726,1.708998,-0.0850,-1.7529,0.4980,-2.3360,0.7276,0.1390,-2.0349,0.0399,0.0589,0.0282,-1.2252,18.7088,-18.3036,-22.8194,145.52,55.00
7.447,165,1,0.9560,0.400055,0.927595,0.000001,0.9945,0.3350,0.2178,0.5196,0.3350,0.2178,0.5196,0.107124,-0.661494,0.728877,0.140317,0.0303,,-0.0572,0.2028,0.5892,0.3986,2.502244,-0.0930,-1.7648,0.5370,-2.3026,0.2098,0.8765,-1.2259,-0.1712,0.0590,0.8176,-0.0479,-17.0008,18.6236,23.2427,145.52,55.00
7.489,166,1,0.9482,0.421217,0.930632,0.000001,0.9977,0.3350,0.2442,0.5196,0.3350,0.2442,0.5196,0.097843,-0.661420,0.730960,0.136556,0.0305,,-0.1127,0.2288,0.5361,0.4482,1.606737,-0.0849,-1.7530,0.5217,-2.3409,0.7486,0.3120,-2.0388,0.0420,0.0734,0.0275,-1.2975,18.2416,-18.5025,-22.8051,143.67,55.00
7.532,167,1,0.9442,0.438102,0.938789,0.000001,0.9996,0.3350,0.2490,0.5196,0.3350,0.2490,0.5196,0.073789,-0.652647,0.742220,0.133106,0.0306,,-0.0634,0.2026,0.5701,0.4042,2.525571,-0.0930,-1.7649,0.5602,-2.3153,0.2205,0.7521,-1.2217,-0.1554,0.0553,0.7573,-0.0167,-16.9358,16.9462,23.1846,145.52,55.00
7.573,168,1,0.9326,0.469854,0.945402,0.000001,0.9868,0.3350,0.2498,0.5196,0.3350,0.2498,0.5196,0.072317,-0.644075,0.748168,0.142064,0.0300,,-0.1313,0.2244,0.5243,0.4669,1.638269,-0.0852,-1.7530,0.5442,-2.3542,0.7723,0.1338,-2.0320,0.0380,0.0576,0.0376,-1.1350,18.7405,-18.2575,-22.8235,145.06,55.00
7.613,169,1,0.9341,0.502554,0.950185,0.000001,1.0005,0.3350,0.2500,0.5196,0.3350,0.2500,0.5196,0.075924,-0.646871,0.746779,0.134593,0.0306,,-0.0493,0.2180,0.5743,0.3894,2.446973,-0.0927,-1.7647,0.5845,-2.3200,0.2580,0.8827,-1.2233,-0.1702,0.0533,0.9102,-0.0443,-17.0016,18.7206,23.2431,145.52,55.00
7.653,170,1,0.9323,0.498983,0.950875,0.000001,0.9853,0.3350,0.2500,0.5196,0.3350,0.2500,0.5196,0.074657,-0.649787,0.740966,0.152228,0.0299,,-0.1065,0.2426,0.5230,0.4415,1.566296,-0.0852,-1.7532,0.5687,-2.3592,0.7997,0.3240,-2.0366,0.0402,0.0716,0.0227,-1.2841,18.2419,-18.4860,-22.8061,145.52,55.00
7.696,171,1,0.9144,0.525764,0.960377,0.000001,0.9829,0.3350,0.2500,0.5196,0.3350,0.2500,0.5196,0.060990,-0.643784,0.750645,0.135481,0.0298,,-0.0552,0.2179,0.5559,0.3932,2.482293,-0.0927,-1.7648,0.6077,-2.3319,0.2729,0.7658,-1.2188,-0.1534,0.0510,0.8250,-0.0121,-16.9415,16.9600,23.1951,145.52,55.00
7.734,172,1,0.9046,0.548236,0.966435,0.000001,0.9690,0.3350,0.2500,0.5196,0.3350,0.2500,0.5196,0.042215,-0.642379,0.753591,0.132922,0.0291,,-0.1271,0.2389,0.5126,0.4623,1.592605,-0.0857,-1.7529,0.5928,-2.3607,0.8210,0.1464,-2.0291,0.0283,0.0662,0.0455,-0.6831,18.5716,-18.2583,-22.8308,142.02,55.00
7.773,173,1,0.9083,0.565581,0.975280,0.000001,0.9868,0.3350,0.2500,0.5196,0.3350,0.2500,0.5196,0.034412,-0.644791,0.752490,0.129689,0.0300,,-0.0466,0.2363,0.5601,0.3840,2.421800,-0.0923,-1.7647,0.6336,-2.3213,0.3136,0.8798,-1.2197,-0.1678,0.0538,0.9914,-0.0351,-16.9512,18.6454,23.2406,145.52,55.00
7.802,174,1,0.9218,0.581414,0.986183,0.000001,0.9852,0.3350,0.2500,0.5196,0.3350,0.2500,0.5196,0.047737,-0.643158,0.754430,0.122085,0.0299,,-0.1089,0.2591,0.5110,0.4441,1.491749,-0.0857,-1.7532,0.6185,-2.3534,0.8596,0.3127,-2.0332,0.0287,0.0748,0.0378,-0.9265,18.2001,-18.5210,-22.8135,142.99,55.00
7.845,175,1,0.9273,0.601353,0.995094,0.000001,0.9797,0.3350,0.2500,0.5196,0.3350,0.2500,0.5196,0.043154,-0.637379,0.758868,0.126511,0.0296,,-0.0571,0.2393,0.5424,0.3929,2.422242,-0.0922,-1.7650,0.6577,-2.3196,0.3412,0.7556,-1.2163,-0.1498,0.0536,0.9194,-0.0003,-16.8837,17.0018,23.1808,145.47,55.00
7.875,176,1,0.9315,0.607013,0.996731,0.000001,1.0102,0.3350,0.2500,0.5196,0.3350,0.2500,0.5196,0.056144,-0.640379,0.756377,0.121066,0.0311,,-0.1381,0.2559,0.5024,0.4734,1.580151,-0.0864,-1.7530,0.6440,-2.3389,0.8967,0.0985,-2.0273,0.0164,0.0620,0.0651,-0.2125,18.6062,-18.4788,-22.8559,138.49,55.00
7.903,177,1,0.9406,0.611767,0.999337,0.000001,1.0130,0.3350,0.2500,0.5196,0.3350,0.2500,0.5196,0.060059,-0.637506,0.759145,0.116953,0.0312,,-0.0507,0.2678,0.5517,0.3875,2.306364,-0.0917,-1.7647,0.6873,-2.2877,0.3983,0.9170,-1.2207,-0.1709,0.0549,1.1555,-0.0285,-16.9451,18.9904,23.2599,145.52,55.00
7.941,178,1,0.9361,0.614013,1.004173,0.000001,1.0231,0.3350,0.2500,0.5196,0.3350,0.2500,0.5196,0.055877,-0.637729,0.758925,0.119220,0.0317,,-0.1148,0.2903,0.5016,0.4519,1.404564,-0.0864,-1.7531,0.6808,-2.3072,0.9440,0.3642,-2.0352,0.0014,0.0895,0.1073,-0.3320,17.8939,-18.5519,-22.8228,132.28,55.00
7.973,179,1,0.9479,0.621695,0.998493,0.000001,1.0212,0.3350,0.2500,0.5196,0.3350,0.2500,0.5196,0.051018,-0.638961,0.758187,0.119491,0.0316,,-0.0564,0.2727,0.5366,0.3924,2.307451,-0.0923,-1.7650,0.7017,-2.2915,0.4531,0.8354,-1.2139,-0.1732,0.0492,0.2864,-0.0643,-16.6604,17.1834,23.2458,130.36,55.00
8.013,180,1,0.9458,0.615552,0.990301,0.000001,1.0061,0.3350,0.2500,0.5196,0.3350,0.2500,0.5196,0.056886,-0.635435,0.759899,0.124658,0.0309,,-0.1385,0.2838,0.4949,0.4754,1.466654,-0.0869,-1.7529,0.6883,-2.3040,0.9933,0.1830,-2.0254,0.0072,0.0637,0.0956,-0.1521,18.2589,-18.6349,-22.8398,132.40,55.00
8.053,181,1,0.9479,0.610864,0.987010,0.000001,1.0017,0.3350,0.2500,0.5196,0.3350,0.2500,0.5196,0.068102,-0.631419,0.763339,0.118264,0.0307,,-0.0616,0.2838,0.5306,0.3981,2.251296,-0.0914,-1.7648,0.7214,-2.2768,0.4943,0.8257,-1.2150,-0.1610,0.0507,0.8924,-0.0222,-16.8322,18.3544,23.1928,139.28,55.00
8.093,182,1,0.9462,0.603183,0.982522,0.000001,1.0047,0.3350,0.2500,0.5196,0.3350,0.2500,0.5196,0.072778,-0.627476,0.765499,0.122427,0.0308,,-0.1372,0.2980,0.4908,0.4755,1.405673,-0.0871,-1.7530,0.7107,-2.2895,1.0359,0.2368,-2.0296,0.0025,0.0663,0.0967,-0.1527,18.1205,-18.4609,-22.8426,132.42,55.00
8.122,183,1,0.9464,0.598978,0.977290,0.000001,0.9977,0.3350,0.2500,0.5196,0.3350,0.2500,0.5196,0.079903,-0.628544,0.763344,0.125911,0.0305,,-0.0671,0.2905,0.5216,0.4041,2.226522,-0.0914,-1.7650,0.7348,-2.2723,0.5387,0.7838,-1.2168,-0.1616,0.0478,0.5590,-0.0466,-16.7337,17.8487,23.1710,131.94,55.00
8.160,184,1,0.9549,0.583345,0.969687,0.000001,0.9818,0.3350,0.2500,0.5196,0.3350,0.2500,0.5196,0.105841,-0.626281,0.762773,0.121433,0.0297,,-0.1468,0.3008,0.4874,0.4855,1.438870,-0.0873,-1.7530,0.7218,-2.2813,1.0776,0.1856,-2.0313,0.0053,0.0558,0.0934,-0.1014,18.2290,-18.3154,-22.8526,133.29,55.00
8.202,185,1,0.9525,0.579176,0.966418,0.000001,0.9814,0.3350,0.2500,0.5196,0.3350,0.2500,0.5196,0.097911,-0.627152,0.763298,0.120294,0.0297,,-0.0661,0.3030,0.5209,0.4045,2.164390,-0.0911,-1.7649,0.7481,-2.2635,0.5809,0.8320,-1.2209,-0.1640,0.0501,0.6913,-0.0478,-16.8024,18.3531,23.1964,132.68,55.00
8.245,186,1,0.9597,0.572804,0.962238,0.000001,0.9753,0.3350,0.2500,0.5196,0.3350,0.2500,0.5196,0.105424,-0.627330,0.761825,0.122331,0.0294,,-0.1444,0.3133,0.4837,0.4849,1.386862,-0.0874,-1.7531,0.7403,-2.2704,1.1107,0.2420,-2.0358,0.0002,0.0591,0.1322,-0.0867,18.0276,-18.4636,-22.8439,129.11,55.00
8.288,187,1,0.9602,0.569245,0.964535,0.000001,0.9714,0.3350,0.2500,0.5196,0.3350,0.2500,0.5196,0.112501,-0.629520,0.759335,0.120238,0.0292,,-0.0725,0.3072,0.5131,0.4115,2.162886,-0.0911,-1.7650,0.7596,-2.2563,0.6097,0.7850,-1.2222,-0.1652,0.0462,0.4138,-0.0677,-16.7264,17.8226,23.1776,127.58,55.00
8.319,188,1,0.9533,0.569924,0.960774,0.000001,0.9766,0.3350,0.2500,0.5196,0.3350,0.2500,0.5196,0.092394,-0.633101,0.759865,0.115113,0.0295,,-0.1541,0.3137,0.4808,0.4947,1.391753,-0.0876,-1.7532,0.7492,-2.2616,1.1396,0.1856,-2.0365,0.0040,0.0488,0.1204,-0.0554,18.1687,-18.3096,-22.8514,131.45,55.00
8.349,189,1,0.9583,0.563566,0.960208,0.000001,0.9705,0.3350,0.2500,0.5196,0.3350,0.2500,0.5196,0.108293,-0.630097,0.760036,0.116600,0.0292,,-0.0718,0.3180,0.5135,0.4125,2.116333,-0.0908,-1.7650,0.7705,-2.2465,0.6399,0.8329,-1.2255,-0.1678,0.0459,0.5331,-0.0656,-16.7859,18.3620,23.2011,128.58,55.00
8.392,190,1,0.9610,0.556888,0.955930,0.000001,0.9625,0.3350,0.2500,0.5196,0.3350,0.2500,0.5196,0.125516,-0.630760,0.757423,0.112684,0.0288,,-0.1514,0.3253,0.4778,0.4939,1.373388,-0.0877,-1.7531,0.7649,-2.2496,1.1620,0.2452,-2.0402,-0.0018,0.0531,0.1618,-0.0433,17.9717,-18.4421,-22.8432,128.18,55.00
8.422,191,1,0.9673,0.551906,0.954582,0.000001,0.9455,0.3350,0.2500,0.5196,0.3350,0.2500,0.5196,0.139568,-0.629442,0.755514,0.116285,0.0280,,-0.0784,0.3208,0.5067,0.4196,2.116414,-0.0909,-1.7651,0.7806,-2.2378,0.6589,0.7867,-1.2260,-0.1700,0.0423,0.3050,-0.0828,-16.7152,17.8002,23.1833,125.04,55.00
8.461,192,1,0.9609,0.544950,0.941861,0.000001,0.9476,0.3350,0.2500,0.5196,0.3350,0.2500,0.5196,0.137412,-0.630662,0.754773,0.117051,0.0281,,-0.1611,0.3245,0.4753,0.5035,1.416640,-0.0878,-1.7532,0.7727,-2.2395,1.1832,0.1868,-2.0400,0.0025,0.0429,0.1474,-0.0146,18.1352,-18.2996,-22.8510,130.73,55.00
8.493,193,1,0.9619,0.540418,0.931483,0.000001,0.9357,0.3350,0.2500,0.5196,0.3350,0.2500,0.5196,0.139295,-0.632192,0.754316,0.109260,0.0276,,-0.0785,0.3309,0.5080,0.4214,2.076520,-0.0907,-1.7650,0.7895,-2.2260,0.6828,0.8335,-1.2285,-0.1737,0.0446,0.3842,-0.0752,-16.7587,18.3468,23.2054,125.89,55.00
8.533,194,1,0.9620,0.537241,0.922000,0.000001,0.9267,0.3350,0.2500,0.5196,0.3350,0.2500,0.5196,0.159145,-0.626184,0.754377,0.116110,0.0271,,-0.1587,0.3356,0.4727,0.5033,1.384341,-0.0879,-1.7532,0.7864,-2.2261,1.2006,0.2474,-2.0431,-0.0039,0.0475,0.1894,-0.0095,17.9464,-18.4231,-22.8439,128.29,55.00
8.563,195,1,0.9725,0.527157,0.912010,0.000001,0.9181,0.3350,0.2500,0.5196,0.3350,0.2500,0.5196,0.198336,-0.609136,0.757703,0.124510,0.0267,,-0.0869,0.3315,0.5004,0.4301,2.053419,-0.0906,-1.7651,0.7986,-2.2157,0.6957,0.7688,-1.2287,-0.1720,0.0401,0.2403,-0.0887,-16.6993,17.6839,23.1735,123.49,55.00
8.600,196,1,0.9757,0.506866,0.887156,0.000000,0.9968,0.3350,0.2500,0.5196,0.3350,0.2500,0.5196,0.219836,-0.553776,0.773086,0.217582,0.0304,,-0.1713,0.3314,0.4711,0.5150,1.516493,-0.0880,-1.7534,0.7901,-2.2151,1.2202,0.1638,-2.0427,0.0028,0.0343,0.1434,0.0181,18.1993,-18.2686,-22.8540,133.29,55.00
8.640,197,1,0.9831,0.503661,0.871502,0.000000,1.0465,0.3350,0.2500,0.5196,0.3350,0.2500,0.5196,0.277542,-0.505209,0.761458,0.296505,0.0328,,-0.0870,0.3410,0.5047,0.4319,1.944547,-0.0905,-1.7651,0.7994,-2.2037,0.7204,0.8264,-1.2324,-0.1818,0.0429,0.2256,-0.0888,-16.7248,18.3473,23.1943,123.24,55.00
8.669,198,1,0.9844,0.514263,0.863234,0.000000,1.1093,0.3350,0.2500,0.5196,0.3350,0.2500,0.5196,0.288956,-0.457795,0.750517,0.379015,0.0357,,-0.1680,0.3424,0.4720,0.5137,1.667763,-0.0881,-1.7532,0.7924,-2.2015,1.2355,0.2436,-2.0471,-0.0056,0.0425,0.1614,0.0192,17.9293,-18.3975,-22.8389,132.58,55.00
8.712,199,1,0.9840,0.508265,0.860267,0.000000,1.1242,0.3350,0.2500,0.5196,0.3350,0.2500,0.5196,0.298930,-0.450778,0.748182,0.384270,0.0364,,-0.0932,0.3405,0.5028,0.4379,1.966927,-0.0904,-1.7652,0.7968,-2.1965,0.7323,0.7884,-1.2327,-0.1745,0.0426,0.1802,-0.1330,-16.6925,17.8184,23.1815,124.30,55.00
8.742,200,1,0.9836,0.539452,0.856669,0.000000,1.0644,0.3350,0.2500,0.5196,0.3350,0.2500,0.5196,0.336950,-0.414801,0.701346,0.471719,0.0336,,-0.1772,0.3382,0.4737,0.5218,1.911262,-0.0882,-1.7532,0.7858,-2.1928,1.2494,0.1892,-2.0463,-0.0013,0.0345,0.1266,0.0460,18.0748,-18.3001,-22.8433,137.93,55.00
8.781,201,1,0.9905,0.571648,0.867386,0.000000,0.8169,0.3350,0.2500,0.5196,0.3350,0.2500,0.5196,0.428064,-0.290161,0.627609,0.581957,0.0220,,-0.0941,0.3451,0.5101,0.4396,2.089474,-0.0904,-1.7651,0.7853,-2.1881,0.7485,0.8321,-1.2340,-0.1821,0.0414,0.1450,-0.1421,-16.7203,18.3136,23.2046,126.57,55.00
8.824,202,1,0.9965,0.585758,0.857692,0.000000,0.8721,0.3350,0.2500,0.5196,0.3350,0.2500,0.5196,0.445855,-0.218704,0.566200,0.657875,0.0246,,-0.1760,0.3434,0.4788,0.5210,2.354798,-0.0882,-1.7529,0.7740,-2.1840,1.2579,0.2441,-2.0487,-0.0076,0.0416,0.1288,0.0413,17.8786,-18.4432,-22.8429,137.98,55.00
8.853,203,1,0.9883,0.600869,0.853137,0.000000,0.8608,0.3350,0.2500,0.5196,0.3350,0.2500,0.5196,0.442906,-0.171847,0.512615,0.715213,0.0240,,-0.1002,0.3391,0.5121,0.4443,2.314106,-0.0903,-1.7652,0.7677,-2.1857,0.7517,0.7855,-1.2337,-0.1746,0.0436,0.0932,-0.1878,-16.7016,17.8124,23.1822,134.86,55.00
8.892,204,1,0.9920,0.606274,0.838065,0.000000,0.8408,0.3350,0.2500,0.5196,0.3350,0.2500,0.5196,0.457463,-0.096242,0.424136,0.775612,0.0231,,-0.1548,0.3644,0.4961,0.5035,2.474723,-0.0871,-1.7527,0.7523,-2.1825,1.2572,0.5129,-2.0515,0.0020,0.0738,0.0422,0.0166,17.3284,-13.6623,-22.9068,136.83,55.00
8.933,205,1,0.9930,0.604924,0.838645,0.000000,0.7385,0.3350,0.2500,0.5196,0.3350,0.2500,0.5196,0.464703,-0.044427,0.396923,0.790272,0.0183,,-0.0729,0.3658,0.5643,0.4263,2.040439,-0.0914,-1.7650,0.7480,-2.1934,0.7612,1.2376,-1.2172,-0.1912,0.0512,0.0461,-0.4185,-17.3556,17.4780,23.5881,142.81,55.00
8.973,206,1,0.9934,0.604429,0.844489,0.000000,0.7183,0.3350,0.2500,0.5196,0.3350,0.2500,0.5196,0.460769,-0.015989,0.377342,0.803150,0.0173,,-0.1490,0.3682,0.4999,0.4986,2.563762,-0.0876,-1.7521,0.7509,-2.1844,1.2516,0.5541,-2.0268,-0.0321,0.0914,0.2887,0.0209,17.1641,-19.5021,-22.8241,135.03,55.00
9.013,207,1,0.9948,0.603100,0.850215,0.000000,0.6719,0.3350,0.2500,0.5196,0.3350,0.2500,0.5196,0.473770,0.023646,0.353841,0.806089,0.0151,,-0.0875,0.3430,0.5330,0.4328,2.371751,-0.0908,-1.7651,0.7441,-2.1939,0.7432,0.9351,-1.1925,-0.1786,0.0487,0.0443,-0.2621,-16.8374,16.5561,23.3603,145.52,55.00
9.053,208,1,0.9857,0.585575,0.858205,0.000000,0.6009,0.3350,0.2500,0.5196,0.3350,0.2500,0.5196,0.499465,0.127427,0.249474,0.819793,0.0118,,-0.1288,0.3835,0.5274,0.4826,2.636785,-0.0861,-1.7527,0.7300,-2.1880,1.2432,0.8324,-2.0099,0.0143,0.0947,0.0242,0.0211,17.0828,-10.3410,-23.0234,132.98,55.00
9.083,209,1,0.9925,0.583479,0.862365,0.000001,0.6096,0.3350,0.2500,0.5196,0.3350,0.2500,0.5196,0.500706,0.172977,0.196235,0.825145,0.0122,,-0.0644,0.3729,0.6333,0.4330,1.860914,-0.0931,-1.7645,0.7250,-2.2045,0.6925,1.7033,-1.1537,-0.1873,0.0491,-0.0755,-0.8322,-19.0851,17.4971,24.0655,145.52,55.00
9.133,210,1,0.9926,0.583466,0.871577,0.000001,0.6146,0.3350,0.2500,0.5196,0.3350,0.2500,0.5196,0.490368,0.177523,0.183801,0.833212,0.0124,,-0.1117,0.3929,0.5389,0.4693,2.647227,-0.0858,-1.7522,0.7400,-2.2034,1.2383,0.9711,-1.9714,-0.0334,0.1720,0.5168,-0.1220,17.2423,-20.3423,-22.9403,137.74,55.00
9.173,211,1,0.9920,0.579508,0.870473,0.000001,0.6243,0.3350,0.2500,0.5196,0.3350,0.2500,0.5196,0.491651,0.202254,0.179609,0.827715,0.0129,,-0.0632,0.3518,0.5652,0.4135,2.320059,-0.0916,-1.7650,0.7387,-2.2154,0.7049,1.2197,-1.1163,-0.1769,0.0520,0.0107,-0.3795,-17.5247,15.2305,23.6441,145.52,55.00
9.213,212,1,0.9930,0.575168,0.874622,0.000001,0.6029,0.3350,0.2500,0.5196,0.3350,0.2500,0.5196,0.486923,0.221717,0.188354,0.823572,0.0119,,-0.1075,0.3870,0.5391,0.4636,2.653295,-0.0856,-1.7530,0.7350,-2.2071,1.1989,0.9815,-1.9316,0.0096,0.1100,0.1133,0.0139,17.1161,-11.4922,-23.0624,127.28,55.00
9.243,213,1,0.9936,0.572067,0.871265,0.000001,0.6193,0.3350,0.2500,0.5196,0.3350,0.2500,0.5196,0.487538,0.215450,0.181008,0.826513,0.0127,,-0.0541,0.3661,0.6348,0.4220,1.835815,-0.0932,-1.7647,0.7310,-2.2251,0.6303,1.7361,-1.0699,-0.1807,0.0546,-0.0944,-0.8602,-19.2737,16.8309,24.0977,145.52,55.00
9.275,214,1,0.9918,0.572149,0.875445,0.000001,0.6123,0.3350,0.2500,0.5196,0.3350,0.2500,0.5196,0.484443,0.210967,0.187101,0.828131,0.0123,,-0.0974,0.3833,0.5337,0.4526,2.651493,-0.0855,-1.7533,0.7460,-2.2271,1.1734,0.9663,-1.8919,-0.0338,0.1712,0.4824,-0.1587,17.2177,-20.4639,-22.9903,136.00,55.00
9.318,215,1,0.9938,0.569612,0.874634,0.000001,0.6204,0.3350,0.2500,0.5196,0.3350,0.2500,0.5196,0.485960,0.206667,0.173677,0.831245,0.0127,,-0.0526,0.3392,0.5586,0.3996,2.353770,-0.0917,-1.7650,0.7444,-2.2400,0.6472,1.1872,-1.0422,-0.1717,0.0496,0.0032,-0.3889,-17.3700,15.0953,23.5794,145.52,55.00
9.350,216,1,0.9933,0.569040,0.875210,0.000001,0.6217,0.3350,0.2500,0.5196,0.3350,0.2500,0.5196,0.484793,0.202463,0.181943,0.831193,0.0128,,-0.0897,0.3823,0.5432,0.4454,2.588602,-0.0851,-1.7534,0.7380,-2.2331,1.1525,1.0565,-1.8645,0.0215,0.1092,0.0736,0.0038,17.2655,-9.8123,-23.1471,125.41,55.00
9.386,217,1,0.9932,0.571199,0.878743,0.000001,0.6193,0.3350,0.2500,0.5196,0.3350,0.2500,0.5196,0.486914,0.196764,0.187440,0.830099,0.0127,,-0.0468,0.3617,0.6574,0.4210,1.656436,-0.0938,-1.7644,0.7333,-2.2568,0.5585,1.9395,-0.9982,-0.1760,0.0497,-0.1684,-1.1344,-20.0804,17.6061,24.2947,145.52,55.00
9.416,218,1,0.9938,0.567198,0.877212,0.000001,0.6381,0.3350,0.2500,0.5196,0.3350,0.2500,0.5196,0.485872,0.187231,0.195384,0.831082,0.0136,,-0.0666,0.3836,0.5558,0.4248,2.412277,-0.0843,-1.7549,0.7471,-2.2688,1.1362,1.2040,-1.8349,-0.0442,0.1792,0.2894,-0.3063,17.5450,-20.5521,-23.1510,135.00,55.00
9.455,219,1,0.9928,0.572666,0.879278,0.000001,0.6317,0.3350,0.2500,0.5196,0.3350,0.2500,0.5196,0.488278,0.155212,0.197009,0.835872,0.0133,,-0.0265,0.3357,0.5820,0.3767,2.146043,-0.0923,-1.7647,0.7461,-2.2863,0.5830,1.4189,-0.9754,-0.1683,0.0429,-0.0386,-0.5578,-18.1016,14.8599,23.7916,145.52,55.00
9.494,220,1,0.9883,0.570758,0.876191,0.000000,0.7294,0.3350,0.2500,0.5196,0.3350,0.2500,0.5196,0.507388,0.091330,0.191560,0.835177,0.0179,,-0.0603,0.3796,0.5557,0.4175,2.394557,-0.0845,-1.7540,0.7474,-2.2778,1.1107,1.2337,-1.8028,0.0234,0.1209,0.1232,-0.0083,17.6463,-10.4699,-23.2446,124.94,55.00
9.536,221,1,0.9923,0.574682,0.880445,0.000000,0.6528,0.3350,0.2500,0.5196,0.3350,0.2500,0.5196,0.492073,0.065620,0.290564,0.818004,0.0143,,-0.0323,0.3552,0.6635,0.4082,1.458305,-0.0942,-1.7642,0.7427,-2.3050,0.5217,2.0665,-0.9284,-0.1716,0.0464,-0.2089,-1.2051,-20.3206,17.4741,24.4169,144.12,55.00
9.575,222,1,0.9939,0.570471,0.891132,0.000000,0.9114,0.3350,0.2500,0.5196,0.3350,0.2500,0.5196,0.479500,-0.120967,0.383867,0.779803,0.0264,,-0.0440,0.3831,0.5664,0.4044,1.847548,-0.0837,-1.7559,0.7571,-2.3142,1.1530,1.3652,-1.7767,-0.0420,0.1850,0.2345,-0.3068,18.0902,-20.2769,-23.2815,134.84,55.00
9.613,223,1,0.9898,0.556752,0.889671,0.000000,0.8277,0.3350,0.2500,0.5196,0.3350,0.2500,0.5196,0.445302,-0.210855,0.577861,0.650633,0.0225,,-0.0066,0.3341,0.5918,0.3591,1.738176,-0.0925,-1.7646,0.7562,-2.3344,0.5729,1.5804,-0.9110,-0.1662,0.0418,-0.0680,-0.6627,-18.8443,14.6359,23.9453,145.52,55.00
9.653,224,1,0.9942,0.530188,0.884533,0.000000,0.7609,0.3350,0.2500,0.5196,0.3350,0.2500,0.5196,0.428121,-0.283482,0.649201,0.561149,0.0193,,-0.0780,0.3379,0.4889,0.4234,1.916374,-0.0859,-1.7535,0.7718,-2.3237,1.0526,0.6791,-1.7332,-0.0060,0.1374,0.5404,-0.0347,16.9948,-20.5842,-23.0440,142.56,55.00
9.694,225,1,0.9822,0.504312,0.883737,0.000000,1.1185,0.3350,0.2500,0.5196,0.3350,0.2500,0.5196,0.375925,-0.402151,0.691376,0.467926,0.0362,,-0.0344,0.3008,0.5202,0.3729,2.293609,-0.0915,-1.7649,0.7715,-2.3218,0.5495,0.9747,-0.9118,-0.1730,0.0485,0.0386,-0.1717,-16.8231,16.2222,23.2606,130.65,55.00
9.723,226,1,0.9849,0.488013,0.867405,0.000000,1.1531,0.3350,0.2500,0.5196,0.3350,0.2500,0.5196,0.325194,-0.462933,0.727744,0.387725,0.0378,,-0.1238,0.3073,0.4745,0.4645,1.994072,-0.0865,-1.7532,0.7610,-2.3158,1.0523,0.2767,-1.7428,0.0039,0.0661,0.1221,0.0030,17.8064,-18.7597,-23.0565,136.37,55.00
9.766,227,1,0.9780,0.482919,0.865097,0.000000,1.0228,0.3350,0.2500,0.5196,0.3350,0.2500,0.5196,0.291986,-0.487226,0.759711,0.316535,0.0317,,-0.0601,0.2935,0.5037,0.3978,2.361523,-0.0909,-1.7651,0.7769,-2.2972,0.5520,0.7607,-0.9478,-0.1679,0.0439,0.2431,-0.0297,-16.6370,17.6532,23.0026,129.31,55.00
9.808,228,1,0.9733,0.484059,0.871019,0.000000,1.0076,0.3350,0.2500,0.5196,0.3350,0.2500,0.5196,0.225780,-0.519984,0.778728,0.268742,0.0309,,-0.1444,0.3028,0.4738,0.4844,1.810545,-0.0866,-1.7534,0.7629,-2.3002,1.0874,0.1480,-1.7865,0.0120,0.0471,0.0847,-0.0402,18.3250,-18.2050,-23.0911,136.04,55.00
9.840,229,1,0.9690,0.483547,0.874594,0.000000,0.9815,0.3350,0.2500,0.5196,0.3350,0.2500,0.5196,0.176679,-0.547137,0.787062,0.223517,0.0297,,-0.0551,0.3136,0.5108,0.3953,2.230160,-0.0903,-1.7649,0.7892,-2.2779,0.5986,0.8893,-0.9978,-0.1706,0.0488,0.7037,-0.0319,-16.7859,18.9339,23.0645,134.64,55.00
9.870,230,1,0.9706,0.481575,0.879744,0.000001,0.9856,0.3350,0.2500,0.5196,0.3350,0.2500,0.5196,0.132205,-0.568297,0.789065,0.192190,0.0299,,-0.1304,0.3270,0.4719,0.4741,1.507018,-0.0867,-1.7535,0.7825,-2.2812,1.1218,0.3282,-1.8364,-0.0037,0.0656,0.1384,-0.0702,17.7734,-18.4027,-23.0376,128.89,55.00
9.913,231,1,0.9727,0.481174,0.885828,0.000001,0.9897,0.3350,0.2500,0.5196,0.3350,0.2500,0.5196,0.120945,-0.575339,0.787726,0.183969,0.0301,,-0.0645,0.3148,0.5005,0.4052,2.245288,-0.0905,-1.7651,0.7977,-2.2715,0.6288,0.8056,-1.0351,-0.1697,0.0445,0.2434,-0.1000,-16.6298,17.3714,23.0833,124.40,55.00
9.943,232,1,0.9727,0.484021,0.890558,0.000001,0.9816,0.3350,0.2500,0.5196,0.3350,0.2500,0.5196,0.107493,-0.590151,0.782913,0.164966,0.0297,,-0.1523,0.3179,0.4689,0.4946,1.545119,-0.0870,-1.7536,0.7861,-2.2723,1.1563,0.1649,-1.8657,0.0081,0.0418,0.1121,-0.0098,18.2187,-18.4193,-23.0138,134.99,55.00
9.981,233,1,0.9726,0.481168,0.890698,0.000001,0.9882,0.3350,0.2500,0.5196,0.3350,0.2500,0.5196,0.118764,-0.595210,0.780339,0.150637,0.0300,,-0.0680,0.3248,0.4997,0.4103,2.197552,-0.0900,-1.7651,0.8071,-2.2560,0.6609,0.8289,-1.0701,-0.1654,0.0495,0.5427,-0.0534,-16.7395,18.5074,23.0779,128.98,55.00
10.013,234,1,0.9718,0.482047,0.887927,0.000001,0.9917,0.3350,0.2500,0.5196,0.3350,0.2500,0.5196,0.112380,-0.596603,0.779890,0.152339,0.0302,,-0.1483,0.3319,0.4666,0.4930,1.451377,-0.0871,-1.7536,0.7993,-2.2571,1.1828,0.2492,-1.9010,0.0001,0.0493,0.1413,-0.0220,17.9552,-18.3381,-22.9815,131.27,55.00
10.043,235,1,0.9723,0.483776,0.889191,0.000001,0.9942,0.3350,0.2500,0.5196,0.3350,0.2500,0.5196,0.126716,-0.597344,0.779263,0.140970,0.0303,,-0.0759,0.3272,0.4931,0.4189,2.170971,-0.0900,-1.7651,0.8148,-2.2463,0.6833,0.7751,-1.0990,-0.1652,0.0411,0.3137,-0.0863,-16.6722,17.7823,23.0813,124.75,55.00
10.084,236,1,0.9776,0.485639,0.891333,0.000001,0.9884,0.3350,0.2500,0.5196,0.3350,0.2500,0.5196,0.134097,-0.596941,0.777527,0.145366,0.0300,,-0.1606,0.3295,0.4648,0.5049,1.483310,-0.0872,-1.7537,0.8047,-2.2460,1.2085,0.1725,-1.9256,0.0061,0.0370,0.1262,0.0118,18.1762,-18.2229,-22.9642,134.70,55.00
10.121,237,1,0.9739,0.486100,0.890774,0.000001,0.9769,0.3350,0.2500,0.5196,0.3350,0.2500,0.5196,0.133231,-0.594936,0.778297,0.150180,0.0295,,-0.0761,0.3382,0.4954,0.4211,2.099148,-0.0897,-1.7651,0.8213,-2.2330,0.7116,0.8301,-1.1248,-0.1700,0.0440,0.3991,-0.0762,-16.7285,18.3999,23.1197,125.57,55.00
10.160,238,1,0.9748,0.493252,0.895945,0.000001,0.9899,0.3350,0.2500,0.5196,0.3350,0.2500,0.5196,0.133872,-0.599584,0.776783,0.138514,0.0301,,-0.1576,0.3418,0.4626,0.5043,1.401149,-0.0873,-1.7536,0.8166,-2.2314,1.2279,0.2459,-1.9503,-0.0017,0.0430,0.1742,0.0126,17.9337,-18.3592,-22.9351,130.96,55.00
10.200,239,1,0.9727,0.492964,0.898341,0.000001,0.9853,0.3350,0.2500,0.5196,0.3350,0.2500,0.5196,0.130726,-0.600747,0.775865,0.141588,0.0299,,-0.0839,0.3391,0.4888,0.4294,2.097648,-0.0897,-1.7652,0.8290,-2.2231,0.7258,0.7737,-1.1441,-0.1699,0.0399,0.2482,-0.1038,-16.6758,17.7787,23.1121,123.56,55.00
10.240,240,1,0.9734,0.492825,0.899115,0.000001,0.9765,0.3350,0.2500,0.5196,0.3350,0.2500,0.5196,0.130359,-0.601661,0.775105,0.142206,0.0295,,-0.1687,0.3386,0.4608,0.5147,1.429012,-0.0874,-1.7538,0.8216,-2.2211,1.2472,0.1736,-1.9664,0.0046,0.0317,0.1501,0.0342,18.1521,-18.2139,-22.9262,133.91,55.00
10.283,241,1,0.9723,0.492629,0.899717,0.000001,0.9653,0.3350,0.2500,0.5196,0.3350,0.2500,0.5196,0.129424,-0.603315,0.773978,0.142189,0.0290,,-0.0838,0.3494,0.4914,0.4313,2.042115,-0.0895,-1.7652,0.8348,-2.2105,0.7487,0.8301,-1.1621,-0.1753,0.0428,0.2998,-0.0920,-16.7203,18.3625,23.1482,123.88,55.00
10.325,242,1,0.9715,0.494411,0.898312,0.000001,0.9730,0.3350,0.2500,0.5196,0.3350,0.2500,0.5196,0.136034,-0.605071,0.771847,0.140131,0.0293,,-0.1657,0.3504,0.4587,0.5142,1.368331,-0.0875,-1.7537,0.8322,-2.2071,1.2619,0.2462,-1.9838,-0.0035,0.0377,0.1980,0.0352,17.9184,-18.3565,-22.9040,131.25,55.00
10.356,243,1,0.9722,0.496960,0.899181,0.000001,0.9743,0.3350,0.2500,0.5196,0.3350,0.2500,0.5196,0.137578,-0.606536,0.771108,0.136307,0.0294,,-0.0914,0.3494,0.4851,0.4391,2.046428,-0.0894,-1.7653,0.8422,-2.2008,0.7585,0.7740,-1.1747,-0.1700,0.0401,0.2325,-0.1165,-16.6814,17.7665,23.1343,123.41,55.00
10.395,244,1,0.9772,0.502781,0.898243,0.000001,0.9651,0.3350,0.2500,0.5196,0.3350,0.2500,0.5196,0.147287,-0.606872,0.768621,0.138690,0.0289,,-0.1762,0.3465,0.4569,0.5240,1.418651,-0.0876,-1.7539,0.8371,-2.1971,1.2776,0.1741,-1.9941,0.0032,0.0266,0.1733,0.0554,18.1427,-18.2112,-22.9010,133.69,55.00
10.427,245,1,0.9723,0.511457,0.897864,0.000001,0.9608,0.3350,0.2500,0.5196,0.3350,0.2500,0.5196,0.150609,-0.607833,0.767478,0.137233,0.0287,,-0.0915,0.3594,0.4877,0.4414,1.996274,-0.0893,-1.7653,0.8475,-2.1879,0.7785,0.8302,-1.1872,-0.1797,0.0416,0.2440,-0.1006,-16.7131,18.3414,23.1672,123.13,55.00
10.456,246,1,0.9696,0.522848,0.896661,0.000001,0.9480,0.3350,0.2500,0.5196,0.3350,0.2500,0.5196,0.146112,-0.609627,0.768376,0.128857,0.0281,,-0.1734,0.3582,0.4546,0.5238,1.343065,-0.0876,-1.7538,0.8476,-2.1831,1.2901,0.2470,-2.0065,-0.0052,0.0326,0.2238,0.0539,17.9148,-18.3501,-22.8836,131.67,55.00
10.493,247,1,0.9717,0.534872,0.894526,0.000001,0.9627,0.3350,0.2500,0.5196,0.3350,0.2500,0.5196,0.151380,-0.610053,0.767800,0.124110,0.0288,,-0.0988,0.3591,0.4813,0.4489,1.998083,-0.0892,-1.7653,0.8552,-2.1782,0.7864,0.7746,-1.1953,-0.1700,0.0404,0.2166,-0.1253,-16.6799,17.7580,23.1497,123.93,55.00
10.533,248,1,0.9540,0.553698,0.893570,0.000001,0.9531,0.3350,0.2500,0.5196,0.3350,0.2500,0.5196,0.134922,-0.612222,0.771126,0.111102,0.0284,,-0.1834,0.3539,0.4525,0.5330,1.352790,-0.0877,-1.7540,0.8530,-2.1737,1.3045,0.1754,-2.0128,0.0020,0.0215,0.2003,0.0678,18.1384,-18.2052,-22.8845,132.79,55.00
10.573,249,1,0.9587,0.570324,0.894566,0.000001,0.9239,0.3350,0.2500,0.5196,0.3350,0.2500,0.5196,0.117801,-0.614210,0.773797,0.100541,0.0270,,-0.0987,0.3691,0.4832,0.4512,1.938949,-0.0891,-1.7653,0.8620,-2.1664,0.8053,0.8304,-1.2042,-0.1799,0.0412,0.2360,-0.1124,-16.7084,18.3339,23.1804,123.21,55.00
10.614,250,1,0.9470,0.589106,0.890145,0.000000,0.9388,0.3350,0.2500,0.5196,0.3350,0.2500,0.5196,0.112296,-0.610161,0.778745,0.093003,0.0277,,-0.1804,0.3656,0.4495,0.5328,1.237862,-0.0877,-1.7539,0.8649,-2.1612,1.3165,0.2479,-2.0219,-0.0065,0.0273,0.2499,0.0621,17.9159,-18.3414,-22.8704,131.42,55.00
10.643,251,1,0.9363,0.614289,0.891957,0.000000,0.9190,0.3350,0.2500,0.5196,0.3350,0.2500,0.5196,0.095896,-0.610654,0.780924,0.089794,0.0268,,-0.1051,0.3684,0.4761,0.4578,1.929198,-0.0889,-1.7653,0.8713,-2.1586,0.8132,0.7759,-1.2092,-0.1697,0.0375,0.2121,-0.1412,-16.6737,17.7596,23.1610,125.25,55.00
10.684,252,1,0.9409,0.636944,0.895060,0.000000,0.9215,0.3350,0.2500,0.5196,0.3350,0.2500,0.5196,0.102588,-0.606352,0.783666,0.087636,0.0269,,-0.1894,0.3611,0.4469,0.5410,1.254999,-0.0878,-1.7542,0.8715,-2.1539,1.3307,0.1777,-2.0255,0.0014,0.0167,0.2219,0.0754,18.1334,-18.1960,-22.8740,132.12,55.00
10.715,253,1,0.9242,0.657359,0.896421,0.000001,0.9320,0.3350,0.2500,0.5196,0.3350,0.2500,0.5196,0.102307,-0.603587,0.785531,0.090320,0.0274,,-0.1038,0.3791,0.4783,0.4593,1.864775,-0.0888,-1.7653,0.8788,-2.1485,0.8319,0.8428,-1.2155,-0.1819,0.0384,0.2264,-0.1282,-16.7066,18.4859,23.1974,123.88,55.00
10.758,254,1,0.9433,0.678215,0.898061,0.000001,0.9220,0.3350,0.2500,0.5196,0.3350,0.2500,0.5196,0.101535,-0.600707,0.788057,0.088367,0.0269,,-0.1843,0.3749,0.4435,0.5395,1.170441,-0.0878,-1.7540,0.8842,-2.1425,1.3410,0.2711,-2.0322,-0.0039,0.0314,0.3016,0.0711,17.8551,-18.3168,-22.8593,132.26,55.00
10.801,255,1,0.9266,0.701256,0.894553,0.000001,0.9180,0.3350,0.2500,0.5196,0.3350,0.2500,0.5196,0.078023,-0.601085,0.789585,0.095735,0.0267,,-0.1126,0.3738,0.4679,0.4672,1.891445,-0.0887,-1.7654,0.8884,-2.1431,0.8358,0.7451,-1.2175,-0.1630,0.0372,0.1927,-0.1591,-16.6709,17.3669,23.1525,128.21,55.00
10.841,256,1,0.9357,0.719264,0.899364,0.000001,0.8848,0.3350,0.2500,0.5196,0.3350,0.2500,0.5196,0.072402,-0.597468,0.792809,0.096143,0.0252,,-0.1995,0.3612,0.4418,0.5514,1.238314,-0.0879,-1.7546,0.8875,-2.1383,1.3571,0.1229,-2.0326,0.0079,0.0053,0.2113,0.0916,18.3035,-18.2019,-22.8782,133.01,55.00
10.870,257,1,0.9510,0.733071,0.899581,0.000001,0.9053,0.3350,0.2500,0.5196,0.3350,0.2500,0.5196,0.070338,-0.596237,0.794487,0.091347,0.0261,,-0.1053,0.3934,0.4775,0.4649,1.792210,-0.0886,-1.7652,0.8944,-2.1323,0.8614,0.9080,-1.2242,-0.1930,0.0380,0.2290,-0.1296,-16.7716,18.9838,23.2428,123.74,55.00
10.908,258,1,0.9460,0.746022,0.899621,0.000001,0.8813,0.3350,0.2500,0.5196,0.3350,0.2500,0.5196,0.037315,-0.600159,0.794007,0.089278,0.0250,,-0.1817,0.3918,0.4382,0.5419,1.020093,-0.0877,-1.7538,0.9053,-2.1252,1.3637,0.3656,-2.0408,-0.0001,0.0536,0.4710,0.0692,17.6159,-18.3240,-22.8511,134.64,55.00
10.950,259,1,0.9431,0.756790,0.903964,0.000001,0.9164,0.3350,0.2500,0.5196,0.3350,0.2500,0.5196,0.057143,-0.593175,0.798641,0.083967,0.0267,,-0.1084,0.3902,0.4674,0.4680,1.809549,-0.0886,-1.7653,0.9078,-2.1327,0.8625,0.8436,-1.2192,-0.1714,0.0362,0.1616,-0.2253,-16.6887,17.2640,23.2472,136.79,55.00
10.991,260,1,0.9287,0.774777,0.920479,0.000001,0.8404,0.3350,0.2500,0.5196,0.3350,0.2500,0.5196,0.048325,-0.590933,0.801824,0.074445,0.0231,,-0.1960,0.3752,0.4330,0.5523,1.126915,-0.0880,-1.7544,0.9132,-2.1248,1.3703,0.1972,-2.0315,0.0055,0.0165,0.3096,0.1075,18.0475,-18.4874,-22.8521,134.72,55.00
11.027,261,1,0.9348,0.769632,0.922071,0.000001,0.8199,0.3350,0.2500,0.5196,0.3350,0.2500,0.5196,0.041516,-0.583611,0.806593,0.084157,0.0221,,-0.1118,0.3931,0.4633,0.4725,1.784828,-0.0884,-1.7653,0.9171,-2.1239,0.8699,0.8354,-1.2187,-0.1787,0.0327,0.2017,-0.1587,-16.6922,18.3726,23.2055,127.32,55.00
11.071,262,1,0.9432,0.761810,0.923503,0.000001,0.8211,0.3350,0.2500,0.5196,0.3350,0.2500,0.5196,0.053132,-0.577765,0.809551,0.089400,0.0222,,-0.1930,0.3847,0.4296,0.5522,1.081582,-0.0879,-1.7544,0.9238,-2.1173,1.3791,0.2584,-2.0346,0.0014,0.0255,0.3397,0.0871,17.9009,-18.2881,-22.8589,133.13,55.00
11.102,263,1,0.9498,0.752426,0.924011,0.000001,0.8345,0.3350,0.2500,0.5196,0.3350,0.2500,0.5196,0.056108,-0.576262,0.809618,0.096401,0.0228,,-0.1175,0.3899,0.4553,0.4780,1.790773,-0.0882,-1.7653,0.9259,-2.1202,0.8759,0.7702,-1.2198,-0.1652,0.0311,0.1819,-0.1775,-16.6583,17.6708,23.1695,131.44,55.00
11.134,264,1,0.9348,0.744989,0.926970,0.000001,0.8341,0.3350,0.2500,0.5196,0.3350,0.2500,0.5196,0.074472,-0.579791,0.806704,0.086751,0.0228,,-0.2023,0.3769,0.4275,0.5597,1.171962,-0.0880,-1.7549,0.9288,-2.1135,1.3926,0.1695,-2.0351,0.0039,0.0028,0.2465,0.1071,18.1652,-18.1502,-22.8699,133.74,55.00
11.164,265,1,0.9382,0.731446,0.924681,0.000001,0.8514,0.3350,0.2500,0.5196,0.3350,0.2500,0.5196,0.051681,-0.583372,0.804972,0.095003,0.0236,,-0.1161,0.3998,0.4570,0.4794,1.763052,-0.0881,-1.7653,0.9321,-2.1124,0.8943,0.8348,-1.2246,-0.1777,0.0292,0.2036,-0.1529,-16.6914,18.4233,23.1973,127.40,55.00
11.204,266,1,0.9447,0.716319,0.921995,0.000001,0.8573,0.3350,0.2500,0.5196,0.3350,0.2500,0.5196,0.071131,-0.580174,0.805559,0.097024,0.0239,,-0.1973,0.3903,0.4239,0.5587,1.103158,-0.0880,-1.7546,0.9397,-2.1045,1.4028,0.2626,-2.0408,0.0034,0.0244,0.3615,0.1028,17.8888,-18.2566,-22.8571,134.82,55.00
11.244,267,1,0.9469,0.704272,0.922142,0.000001,0.8698,0.3350,0.2500,0.5196,0.3350,0.2500,0.5196,0.079295,-0.583719,0.802444,0.095230,0.0245,,-0.1215,0.3967,0.4496,0.4845,1.778998,-0.0880,-1.7654,0.9402,-2.1085,0.8993,0.7746,-1.2256,-0.1643,0.0304,0.1709,-0.1841,-16.6628,17.6646,23.1752,133.64,55.00
11.275,268,1,0.9379,0.688578,0.917567,0.000001,0.8814,0.3350,0.2500,0.5196,0.3350,0.2500,0.5196,0.072354,-0.582122,0.802453,0.109398,0.0250,,-0.2063,0.3820,0.4222,0.5656,1.189789,-0.0881,-1.7551,0.9436,-2.1007,1.4138,0.1736,-2.0403,0.0042,-0.0007,0.2519,0.1207,18.1414,-18.1506,-22.8634,135.06,55.00
11.318,269,1,0.9432,0.669978,0.916747,0.000001,0.8988,0.3350,0.2500,0.5196,0.3350,0.2500,0.5196,0.088762,-0.586192,0.798629,0.103404,0.0258,,-0.1205,0.4059,0.4518,0.4862,1.748740,-0.0879,-1.7654,0.9445,-2.1005,0.9148,0.8356,-1.2291,-0.1766,0.0306,0.1888,-0.1574,-16.6943,18.4065,23.2011,129.16,55.00
11.348,270,1,0.9416,0.651473,0.916879,0.000001,0.8780,0.3350,0.2500,0.5196,0.3350,0.2500,0.5196,0.089034,-0.590081,0.795815,0.102742,0.0248,,-0.2015,0.3946,0.4190,0.5646,1.140277,-0.0880,-1.7547,0.9531,-2.0926,1.4222,0.2633,-2.0447,0.0065,0.0242,0.3982,0.1064,17.8829,-18.2475,-22.8525,134.93,55.00
11.393,271,1,0.9452,0.630550,0.920665,0.000001,0.8784,0.3350,0.2500,0.5196,0.3350,0.2500,0.5196,0.108946,-0.590853,0.793990,0.092753,0.0249,,-0.1254,0.4023,0.4448,0.4906,1.774675,-0.0879,-1.7653,0.9521,-2.0971,0.9170,0.7764,-1.2291,-0.1635,0.0268,0.1597,-0.1862,-16.6721,17.6740,23.1789,135.45,55.00
11.423,272,1,0.9450,0.610067,0.919344,0.000001,0.8862,0.3350,0.2500,0.5196,0.3350,0.2500,0.5196,0.110495,-0.595499,0.790466,0.091294,0.0252,,-0.2096,0.3862,0.4173,0.5706,1.232328,-0.0881,-1.7552,0.9572,-2.0893,1.4300,0.1771,-2.0434,0.0076,0.0006,0.2809,0.1231,18.1249,-18.1380,-22.8597,134.81,55.00
11.461,273,1,0.9458,0.587706,0.912067,0.000001,0.9009,0.3350,0.2500,0.5196,0.3350,0.2500,0.5196,0.097929,-0.597398,0.789454,0.101432,0.0259,,-0.1233,0.4122,0.4477,0.4914,1.752236,-0.0878,-1.7654,0.9568,-2.0899,0.9301,0.8493,-1.2315,-0.1788,0.0300,0.1792,-0.1645,-16.7020,18.5639,23.2135,130.78,55.00
11.489,274,1,0.9531,0.574397,0.916346,0.000001,0.9074,0.3350,0.2500,0.5196,0.3350,0.2500,0.5196,0.108141,-0.606894,0.781385,0.097074,0.0262,,-0.2028,0.4012,0.4138,0.5685,1.163800,-0.0879,-1.7548,0.9676,-2.0821,1.4356,0.2882,-2.0469,0.0091,0.0306,0.4742,0.1049,17.8206,-18.2197,-22.8480,135.40,55.00
11.532,275,1,0.9554,0.550542,0.912688,0.000001,0.9532,0.3350,0.2500,0.5196,0.3350,0.2500,0.5196,0.111573,-0.605470,0.780143,0.111064,0.0284,,-0.1269,0.4082,0.4406,0.4946,1.805918,-0.0877,-1.7654,0.9648,-2.0887,0.9303,0.7919,-1.2295,-0.1638,0.0280,0.1413,-0.2037,-16.6760,17.5760,23.1960,139.65,55.00
11.560,276,1,0.9606,0.536870,0.909377,0.000001,0.9760,0.3350,0.2500,0.5196,0.3350,0.2500,0.5196,0.128727,-0.609623,0.774497,0.109285,0.0295,,-0.2115,0.3901,0.4123,0.5742,1.296582,-0.0881,-1.7553,0.9707,-2.0810,1.4409,0.1835,-2.0429,0.0104,0.0023,0.3103,0.1240,18.0983,-18.1958,-22.8528,134.74,55.00
11.607,277,1,0.9619,0.521764,0.907670,0.000001,0.9426,0.3350,0.2500,0.5196,0.3350,0.2500,0.5196,0.117295,-0.610123,0.773421,0.125742,0.0279,,-0.1257,0.4159,0.4428,0.4956,1.794965,-0.0876,-1.7654,0.9684,-2.0823,0.9398,0.8477,-1.2306,-0.1777,0.0295,0.1625,-0.1689,-16.7030,18.5264,23.2130,133.01,55.00
11.636,278,1,0.9596,0.512475,0.908911,0.000001,0.9544,0.3350,0.2500,0.5196,0.3350,0.2500,0.5196,0.134078,-0.609087,0.771200,0.127622,0.0284,,-0.2053,0.4035,0.4094,0.5724,1.243057,-0.0880,-1.7549,0.9788,-2.0745,1.4450,0.2850,-2.0457,0.0091,0.0273,0.4662,0.1073,17.8274,-18.2146,-22.8462,135.29,55.00
11.676,279,1,0.9740,0.505410,0.909458,0.000001,0.9428,0.3350,0.2500,0.5196,0.3350,0.2500,0.5196,0.132410,-0.604099,0.772384,0.144757,0.0279,,-0.1293,0.4114,0.4367,0.4985,1.827048,-0.0876,-1.7654,0.9742,-2.0814,0.9394,0.7904,-1.2285,-0.1631,0.0266,0.1286,-0.2040,-16.6745,17.5985,23.1931,141.52,55.00
11.718,280,1,0.9739,0.503658,0.907762,0.000001,0.9525,0.3350,0.2500,0.5196,0.3350,0.2500,0.5196,0.135218,-0.606429,0.770289,0.143577,0.0284,,-0.2136,0.3926,0.4089,0.5775,1.343827,-0.0881,-1.7554,0.9797,-2.0736,1.4501,0.1848,-2.0421,0.0099,-0.0006,0.3029,0.1256,18.0957,-18.1754,-22.8538,134.77,55.00
11.760,281,1,0.9734,0.502939,0.908291,0.000001,0.9554,0.3350,0.2500,0.5196,0.3350,0.2500,0.5196,0.151431,-0.604020,0.769773,0.140278,0.0285,,-0.1281,0.4191,0.4396,0.4994,1.788056,-0.0875,-1.7654,0.9759,-2.0753,0.9489,0.8483,-1.2297,-0.1773,0.0283,0.1518,-0.1702,-16.7022,18.5236,23.2129,134.55,55.00
11.800,282,1,0.9742,0.501102,0.910170,0.000001,0.9368,0.3350,0.2500,0.5196,0.3350,0.2500,0.5196,0.151113,-0.601891,0.770004,0.148277,0.0276,,-0.2076,0.4058,0.4065,0.5757,1.281218,-0.0879,-1.7550,0.9865,-2.0675,1.4539,0.2860,-2.0449,0.0095,0.0260,0.4714,0.1088,17.8253,-18.2080,-22.8470,135.30,55.00
11.841,283,1,0.9697,0.499899,0.904067,0.000001,0.9505,0.3350,0.2500,0.5196,0.3350,0.2500,0.5196,0.140179,-0.606575,0.769625,0.141755,0.0283,,-0.1316,0.4145,0.4339,0.5021,1.823105,-0.0875,-1.7654,0.9811,-2.0743,0.9479,0.7923,-1.2277,-0.1628,0.0260,0.1232,-0.2023,-16.6773,17.6048,23.1944,142.28,55.00
11.870,284,1,0.9709,0.493872,0.905804,0.000001,0.9551,0.3350,0.2500,0.5196,0.3350,0.2500,0.5196,0.142234,-0.603669,0.771502,0.141907,0.0285,,-0.2156,0.3949,0.4060,0.5806,1.346340,-0.0881,-1.7555,0.9874,-2.0665,1.4581,0.1876,-2.0414,0.0119,0.0005,0.3268,0.1266,18.0890,-18.1691,-22.8540,134.73,55.00
11.910,285,1,0.9724,0.494029,0.902840,0.000001,0.9659,0.3350,0.2500,0.5196,0.3350,0.2500,0.5196,0.135654,-0.608488,0.770001,0.135790,0.0290,,-0.1302,0.4218,0.4365,0.5028,1.786205,-0.0874,-1.7654,0.9830,-2.0689,0.9566,0.8481,-1.2289,-0.1766,0.0255,0.1476,-0.1751,-16.7010,18.5071,23.2128,135.86,55.00
11.949,286,1,0.9705,0.492411,0.903898,0.000001,0.9514,0.3350,0.2500,0.5196,0.3350,0.2500,0.5196,0.138492,-0.608760,0.767947,0.143135,0.0283,,-0.2097,0.4077,0.4034,0.5788,1.268843,-0.0879,-1.7551,0.9942,-2.0612,1.4615,0.2852,-2.0441,0.0113,0.0261,0.4924,0.1104,17.8296,-18.2013,-22.8473,135.44,55.00
11.990,287,1,0.9697,0.492437,0.903892,0.000001,0.9564,0.3350,0.2500,0.5196,0.3350,0.2500,0.5196,0.139602,-0.614480,0.764147,0.137859,0.0285,,-0.1337,0.4172,0.4309,0.5054,1.832472,-0.0874,-1.7654,0.9882,-2.0679,0.9548,0.7928,-1.2270,-0.1625,0.0259,0.1185,-0.2007,-16.6800,17.6180,23.1940,142.98,55.00
12.031,288,1,0.9737,0.490761,0.900585,0.000001,0.9568,0.3350,0.2500,0.5196,0.3350,0.2500,0.5196,0.148684,-0.613050,0.761673,0.148047,0.0286,,-0.2174,0.3970,0.4031,0.5833,1.375909,-0.0880,-1.7556,0.9950,-2.0601,1.4648,0.1897,-2.0407,0.0130,0.0004,0.3379,0.1276,18.0845,-18.1576,-22.8542,134.72,55.00
12.062,289,1,0.9710,0.491787,0.898933,0.000001,0.9620,0.3350,0.2500,0.5196,0.3350,0.2500,0.5196,0.154032,-0.614019,0.761643,0.138397,0.0288,,-0.1323,0.4243,0.4338,0.5060,1.798870,-0.0873,-1.7654,0.9896,-2.0627,0.9630,0.8483,-1.2281,-0.1762,0.0252,0.1394,-0.1753,-16.7012,18.4965,23.2129,137.08,55.00
12.121,290,1,0.9759,0.488909,0.900344,0.000001,0.9863,0.3350,0.2500,0.5196,0.3350,0.2500,0.5196,0.148702,-0.608932,0.766425,0.140293,0.0299,,-0.2116,0.4095,0.4005,0.5817,1.280900,-0.0879,-1.7551,1.0016,-2.0549,1.4677,0.2854,-2.0434,0.0131,0.0266,0.5259,0.1116,17.8336,-18.1912,-22.8476,135.62,55.00
12.163,291,1,0.9748,0.487669,0.898095,0.000001,0.9776,0.3350,0.2500,0.5196,0.3350,0.2500,0.5196,0.143324,-0.611225,0.765504,0.140946,0.0295,,-0.1355,0.4197,0.4282,0.5085,1.822078,-0.0873,-1.7654,0.9950,-2.0616,0.9604,0.7945,-1.2263,-0.1625,0.0265,0.1123,-0.1995,-16.6831,17.6293,23.1944,143.87,55.00
12.207,292,1,0.9693,0.492599,0.902749,0.000001,1.0024,0.3350,0.2500,0.5196,0.3350,0.2500,0.5196,0.116752,-0.615686,0.767759,0.133590,0.0307,,-0.2189,0.3991,0.4001,0.5859,1.316547,-0.0880,-1.7557,1.0027,-2.0538,1.4700,0.1928,-2.0400,0.0150,0.0022,0.3624,0.1280,18.0782,-18.1486,-22.8530,134.74,55.00
12.249,293,1,0.9756,0.491377,0.905699,0.000001,1.0157,0.3350,0.2500,0.5196,0.3350,0.2500,0.5196,0.103242,-0.616956,0.768583,0.134114,0.0313,,-0.1338,0.4266,0.4305,0.5088,1.792930,-0.0872,-1.7654,0.9973,-2.0576,0.9685,0.8483,-1.2274,-0.1756,0.0252,0.1389,-0.1846,-16.6956,18.4803,23.2119,138.46,55.00
12.294,294,1,0.9751,0.493116,0.908792,0.000001,1.0195,0.3350,0.2500,0.5196,0.3350,0.2500,0.5196,0.103325,-0.620038,0.767495,0.125809,0.0315,,-0.2131,0.4111,0.3972,0.5842,1.221747,-0.0878,-1.7552,1.0101,-2.0499,1.4733,0.2847,-2.0425,0.0150,0.0271,0.5509,0.1129,17.8401,-18.1840,-22.8467,135.80,55.00
12.334,295,1,0.9722,0.496367,0.913967,0.000001,1.0284,0.3350,0.2500,0.5196,0.3350,0.2500,0.5196,0.097768,-0.618750,0.770494,0.118016,0.0319,,-0.1369,0.4222,0.4245,0.5112,1.811431,-0.0871,-1.7654,1.0039,-2.0564,0.9659,0.7951,-1.2256,-0.1620,0.0230,0.1163,-0.1981,-16.6821,17.6407,23.1933,143.56,55.00
12.377,296,1,0.9775,0.499151,0.914828,0.000001,0.9978,0.3350,0.2500,0.5196,0.3350,0.2500,0.5196,0.124039,-0.619999,0.765213,0.121099,0.0305,,-0.2200,0.4011,0.3964,0.5882,1.319434,-0.0879,-1.7558,1.0125,-2.0487,1.4757,0.1948,-2.0393,0.0173,0.0035,0.3932,0.1289,18.0806,-18.1349,-22.8526,134.79,55.00
12.416,297,1,0.9769,0.496697,0.915561,0.000000,0.9146,0.3350,0.2500,0.5196,0.3350,0.2500,0.5196,0.179550,-0.607179,0.760997,0.141347,0.0266,,-0.1382,0.4243,0.4243,0.5132,1.807035,-0.0870,-1.7654,1.0052,-2.0519,0.9706,0.8037,-1.2270,-0.1674,0.0240,0.1233,-0.1717,-16.6836,18.2331,23.1806,139.78,55.00
12.456,298,1,0.9780,0.502870,0.941674,-0.000000,0.3401,0.3350,0.2500,0.5196,0.3350,0.2500,0.5196,0.278297,-0.596127,0.736985,0.155036,0.0000,,-0.2190,0.4061,0.3950,0.5889,1.537489,-0.0879,-1.7557,1.0153,-2.0441,1.4799,0.2293,-2.0428,0.0163,0.0113,0.4486,0.1236,17.9993,-18.1270,-22.8638,135.01,55.00
12.496,299,1,0.9842,0.496785,0.927348,-0.000000,0.2316,0.3350,0.2500,0.5196,0.3350,0.2500,0.5196,0.326342,-0.593458,0.724789,0.126450,0.0000,,-0.1394,0.4263,0.4241,0.5150,1.831152,-0.0870,-1.7654,1.0067,-2.0469,0.9736,0.8112,-1.2284,-0.1678,0.0232,0.1070,-0.1693,-16.6910,18.1446,23.2001,141.62,55.00
12.534,300,1,0.9883,0.495402,0.922720,-0.000000,0.2401,0.3350,0.2500,0.5196,0.3350,0.2500,0.5196,0.337094,-0.590015,0.723320,0.122713,0.0000,,-0.2205,0.4071,0.3936,0.5908,1.598413,-0.0878,-1.7555,1.0190,-2.0391,1.4823,0.2298,-2.0440,0.0212,0.0169,0.5311,0.1241,18.0079,-18.1576,-22.8648,135.48,55.00
12.576,301,1,0.9911,0.494638,0.925713,-0.000000,0.2850,0.3350,0.2500,0.5196,0.3350,0.2500,0.5196,0.320173,-0.583657,0.732990,0.139857,0.0000,,-0.1407,0.4276,0.4225,0.5169,1.811193,-0.0870,-1.7654,1.0106,-2.0426,0.9753,0.8106,-1.2294,-0.1676,0.0214,0.1078,-0.1749,-16.6911,18.1458,23.2012,142.32,55.00
12.619,302,1,0.9909,0.498076,0.922832,-0.000000,0.4631,0.3350,0.2500,0.5196,0.3350,0.2500,0.5196,0.302677,-0.584569,0.736229,0.156948,0.0053,,-0.2217,0.4078,0.3924,0.5924,1.568669,-0.0878,-1.7556,1.0220,-2.0348,1.4842,0.2293,-2.0448,0.0193,0.0136,0.5016,0.1245,18.0083,-18.1565,-22.8631,135.27,55.00
12.663,303,1,0.9897,0.498045,0.921719,0.000000,0.6990,0.3350,0.2500,0.5196,0.3350,0.2500,0.5196,0.287870,-0.590770,0.736130,0.161969,0.0164,,-0.1418,0.4287,0.4213,0.5186,1.821902,-0.0869,-1.7654,1.0134,-2.0392,0.9782,0.8107,-1.2302,-0.1674,0.0203,0.1084,-0.1818,-16.6822,18.1517,23.2005,143.23,55.00
12.703,304,1,0.9757,0.503084,0.919562,0.000000,0.8590,0.3350,0.2500,0.5196,0.3350,0.2500,0.5196,0.248312,-0.585607,0.749953,0.181592,0.0240,,-0.2228,0.4086,0.3915,0.5939,1.507489,-0.0879,-1.7557,1.0240,-2.0315,1.4875,0.2298,-2.0453,0.0178,0.0110,0.4730,0.1250,18.0041,-18.1577,-22.8578,135.12,55.00
12.730,305,1,0.9781,0.503901,0.926443,0.000000,0.9026,0.3350,0.2500,0.5196,0.3350,0.2500,0.5196,0.239354,-0.583529,0.755492,0.177302,0.0260,,-0.1426,0.4297,0.4202,0.5199,1.788421,-0.0868,-1.7654,1.0156,-2.0373,0.9824,0.8111,-1.2309,-0.1672,0.0240,0.1085,-0.1934,-16.6762,18.1547,23.1968,144.77,55.00
12.772,306,1,0.9688,0.509956,0.931399,0.000000,0.9309,0.3350,0.2500,0.5196,0.3350,0.2500,0.5196,0.186463,-0.582287,0.772243,0.172668,0.0273,,-0.2235,0.4093,0.3905,0.5949,1.394671,-0.0878,-1.7557,1.0265,-2.0296,1.4912,0.2305,-2.0457,0.0184,0.0112,0.4800,0.1256,17.9969,-18.1561,-22.8528,135.16,55.00
12.804,307,1,0.9710,0.519381,0.937118,0.000000,0.9366,0.3350,0.2500,0.5196,0.3350,0.2500,0.5196,0.178581,-0.585233,0.774662,0.159718,0.0276,,-0.1432,0.4305,0.4193,0.5209,1.747879,-0.0868,-1.7654,1.0176,-2.0361,0.9861,0.8112,-1.2312,-0.1667,0.0213,0.1090,-0.1982,-16.6736,18.1499,23.1955,145.52,55.00
12.842,308,1,0.9561,0.527218,0.935799,0.000000,0.9331,0.3350,0.2500,0.5196,0.3350,0.2500,0.5196,0.142906,-0.597991,0.777928,0.129663,0.0274,,-0.2240,0.4099,0.3892,0.5958,1.293542,-0.0878,-1.7557,1.0298,-2.0283,1.4946,0.2306,-2.0459,0.0215,0.0144,0.5310,0.1263,17.9996,-18.1487,-22.8518,135.44,55.00
12.882,309,1,0.9675,0.525219,0.938807,0.000000,0.9501,0.3350,0.2500,0.5196,0.3350,0.2500,0.5196,0.153207,-0.597773,0.775047,0.136003,0.0282,,-0.1435,0.4314,0.4177,0.5217,1.746968,-0.0867,-1.7654,1.0213,-2.0348,0.9883,0.8119,-1.2314,-0.1666,0.0224,0.1094,-0.1978,-16.6810,18.1548,23.1960,145.52,55.00
12.922,310,1,0.9655,0.537568,0.942902,0.000001,0.9388,0.3350,0.2500,0.5196,0.3350,0.2500,0.5196,0.138910,-0.601976,0.774687,0.134864,0.0277,,-0.2241,0.4106,0.3878,0.5965,1.300815,-0.0878,-1.7558,1.0335,-2.0271,1.4963,0.2317,-2.0460,0.0214,0.0138,0.5281,0.1264,17.9936,-18.1462,-22.8507,135.42,55.00
12.963,311,1,0.9611,0.546860,0.940525,0.000001,0.9516,0.3350,0.2500,0.5196,0.3350,0.2500,0.5196,0.121897,-0.611750,0.772997,0.115667,0.0283,,-0.1437,0.4321,0.4161,0.5225,1.756614,-0.0867,-1.7654,1.0249,-2.0335,0.9899,0.8123,-1.2314,-0.1664,0.0220,0.1098,-0.1974,-16.6814,18.1498,23.1968,145.52,55.00
13.002,312,1,0.9595,0.552429,0.945826,0.000001,0.9551,0.3350,0.2500,0.5196,0.3350,0.2500,0.5196,0.122543,-0.609272,0.777552,0.095832,0.0285,,-0.2242,0.4113,0.3858,0.5972,1.240837,-0.0877,-1.7558,1.0385,-2.0258,1.4978,0.2323,-2.0459,0.0244,0.0170,0.5817,0.1267,17.9997,-18.1365,-22.8508,135.77,55.00
13.041,313,1,0.9474,0.573238,0.943038,0.000001,0.8643,0.3350,0.2500,0.5196,0.3350,0.2500,0.5196,0.070887,-0.594362,0.794336,0.103633,0.0242,,-0.1436,0.4332,0.4136,0.5233,1.704820,-0.0866,-1.7654,1.0311,-2.0322,0.9910,0.8130,-1.2313,-0.1662,0.0212,0.1148,-0.1972,-16.6846,18.1528,23.1988,144.92,55.00
13.085,314,1,0.9624,0.583307,0.945303,0.000001,0.9349,0.3350,0.2500,0.5196,0.3350,0.2500,0.5196,0.081749,-0.586573,0.800648,0.090615,0.0275,,-0.2242,0.4122,0.3833,0.5979,1.153764,-0.0877,-1.7558,1.0448,-2.0245,1.4990,0.2334,-2.0458,0.0246,0.0168,0.5851,0.1268,18.0016,-18.1311,-22.8517,135.78,55.00
13.116,315,1,0.9659,0.586189,0.947494,0.000001,0.9582,0.3350,0.2500,0.5196,0.3350,0.2500,0.5196,0.084982,-0.578731,0.804559,0.102630,0.0286,,-0.1436,0.4342,0.4111,0.5242,1.667291,-0.0866,-1.7654,1.0372,-2.0309,0.9924,0.8137,-1.2311,-0.1660,0.0207,0.1129,-0.1968,-16.6824,18.1511,23.1988,145.22,55.00
13.143,316,1,0.9659,0.586245,0.947537,0.000001,0.9835,0.3350,0.2500,0.5196,0.3350,0.2500,0.5196,0.093383,-0.577058,0.806042,0.092628,0.0298,,-0.2242,0.4131,0.3809,0.5988,1.164045,-0.0877,-1.7559,1.0510,-2.0232,1.5008,0.2343,-2.0455,0.0249,0.0164,0.5875,0.1270,18.0026,-18.1268,-22.8498,135.79,55.00
13.175,317,1,0.9553,0.568510,0.941219,0.000001,0.9843,0.3350,0.2500,0.5196,0.3350,0.2500,0.5196,0.099317,-0.571615,0.808717,0.096794,0.0298,,-0.1437,0.4353,0.4086,0.5252,1.645874,-0.0865,-1.7654,1.0431,-2.0296,0.9946,0.8143,-1.2308,-0.1657,0.0201,0.1113,-0.1963,-16.6802,18.1501,23.1984,145.49,55.00
13.204,318,1,0.9603,0.548813,0.943032,0.000001,0.9726,0.3350,0.2500,0.5196,0.3350,0.2500,0.5196,0.089595,-0.564960,0.810934,0.123202,0.0293,,-0.2244,0.4139,0.3789,0.5996,1.188644,-0.0877,-1.7561,1.0558,-2.0218,1.5033,0.2350,-2.0452,0.0231,0.0132,0.5467,0.1273,17.9997,-18.1290,-22.8486,135.52,55.00
13.248,319,1,0.9593,0.475710,0.933353,0.000001,1.0181,0.3350,0.2500,0.5196,0.3350,0.2500,0.5196,0.065258,-0.592224,0.793906,0.121349,0.0314,,-0.1441,0.4363,0.4065,0.5263,1.714431,-0.0865,-1.7654,1.0477,-2.0282,0.9980,0.8144,-1.2304,-0.1651,0.0181,0.1117,-0.1954,-16.6749,18.1482,23.1978,145.52,55.00
13.290,320,1,0.9603,0.441821,0.925776,0.000001,1.0326,0.3350,0.2500,0.5196,0.3350,0.2500,0.5196,0.093377,-0.596240,0.787311,0.126176,0.0321,,-0.2248,0.4146,0.3771,0.6006,1.236453,-0.0877,-1.7561,1.0603,-2.0205,1.5072,0.2352,-2.0447,0.0234,0.0124,0.5460,0.1280,18.0009,-18.1255,-22.8472,135.50,55.00
13.321,321,1,0.9692,0.412838,0.921377,0.000001,1.0401,0.3350,0.2500,0.5196,0.3350,0.2500,0.5196,0.101690,-0.598211,0.782385,0.140276,0.0325,,-0.1445,0.4373,0.4045,0.5275,1.743284,-0.0864,-1.7654,1.0522,-2.0268,1.0020,0.8149,-1.2300,-0.1647,0.0175,0.1123,-0.1946,-16.6754,18.1509,23.1970,145.52,55.00
13.364,322,1,0.9435,0.367398,0.919645,0.000001,1.0465,0.3350,0.1727,0.5196,0.3350,0.1727,0.5196,0.127197,-0.614941,0.764936,0.143320,0.0328,,-0.2253,0.4153,0.3756,0.6273,1.329210,-0.0877,-1.7562,1.0641,-2.0191,1.5111,0.2358,-2.0443,0.0221,0.0096,0.5200,0.1286,17.9951,-18.1255,-22.8461,135.30,55.00
13.405,323,1,0.9586,0.346941,0.921299,0.000001,1.0615,0.3350,0.1219,0.5196,0.3350,0.1219,0.5196,0.148970,-0.602928,0.767973,0.156532,0.0335,,-0.1450,0.4383,0.4029,0.5866,1.773834,-0.0863,-1.7654,1.0556,-2.0254,1.0059,0.8153,-1.2297,-0.1643,0.0185,0.1126,-0.1938,-16.6760,18.1506,23.1965,145.52,55.00
13.441,324,1,0.9663,0.330683,0.916790,0.000001,1.1165,0.3350,0.0834,0.5196,0.3350,0.0834,0.5196,0.169264,-0.606193,0.762991,0.147390,0.0361,,-0.2258,0.4160,0.3743,0.6680,1.383622,-0.0877,-1.7563,1.0672,-2.0177,1.5149,0.2362,-2.0439,0.0216,0.0080,0.5082,0.1292,17.9902,-18.1254,-22.8448,135.22,55.00
13.481,325,1,0.9710,0.318665,0.917225,0.000001,1.0792,0.3350,0.0548,0.5196,0.3350,0.0548,0.5196,0.151195,-0.608845,0.762397,0.158742,0.0343,,-0.1456,0.4391,0.4015,0.6265,1.788596,-0.0863,-1.7654,1.0586,-2.0240,1.0096,0.8155,-1.2293,-0.1639,0.0177,0.1131,-0.1930,-16.6774,18.1501,23.1962,145.52,55.00
13.522,326,1,0.9768,0.312116,0.920676,0.000001,1.0840,0.3350,0.0379,0.5196,0.3350,0.0379,0.5196,0.175947,-0.611295,0.754935,0.159480,0.0345,,-0.2264,0.4165,0.3732,0.6928,1.416378,-0.0877,-1.7564,1.0696,-2.0163,1.5184,0.2363,-2.0435,0.0208,0.0060,0.4911,0.1298,17.9864,-18.1255,-22.8452,135.11,55.00
13.564,327,1,0.9718,0.309915,0.915174,0.000001,1.0833,0.3350,0.0308,0.5196,0.3350,0.0308,0.5196,0.156318,-0.615014,0.758172,0.149992,0.0345,,-0.1462,0.4399,0.4003,0.6427,1.793563,-0.0862,-1.7654,1.0609,-2.0225,1.0130,0.8156,-1.2289,-0.1635,0.0169,0.1136,-0.1922,-16.6783,18.1510,23.1960,145.52,55.00
13.605,328,1,0.9724,0.306558,0.911326,0.000001,1.0699,0.3350,0.0235,0.5196,0.3350,0.0235,0.5196,0.144542,-0.619860,0.755449,0.155493,0.0339,,-0.2269,0.4171,0.3723,0.7016,1.377143,-0.0877,-1.7564,1.0720,-2.0148,1.5217,0.2366,-2.0432,0.0211,0.0057,0.4930,0.1303,17.9846,-18.1228,-22.8458,135.12,55.00
13.644,329,1,0.9682,0.306188,0.908551,0.000001,1.0664,0.3350,0.0215,0.5196,0.3350,0.0215,0.5196,0.137542,-0.620429,0.757085,0.151567,0.0337,,-0.1467,0.4406,0.3992,0.6497,1.802451,-0.0862,-1.7654,1.0633,-2.0211,1.0160,0.8158,-1.2286,-0.1632,0.0166,0.1140,-0.1916,-16.6811,18.1518,23.1964,145.52,55.00
13.685,330,1,0.9663,0.311654,0.905350,0.000001,1.0524,0.3350,0.0310,0.5196,0.3350,0.0310,0.5196,0.130300,-0.618446,0.762094,0.140569,0.0331,,-0.2274,0.4176,0.3710,0.6984,1.336141,-0.0876,-1.7564,1.0751,-2.0134,1.5243,0.2372,-2.0429,0.0225,0.0070,0.5130,0.1307,17.9839,-18.1176,-22.8464,135.23,55.00
