Ovmem/robot-control-retargeting-framework/results/hand_retargeting/runs/20260620_213141/raw/hand_retargeting_run.csv
timestamp,frame_id,detected_hand,detection_confidence,wrist_x,wrist_y,wrist_z,pinch_ratio,target_pos_x,target_pos_y,target_pos_z,filtered_target_pos_x,filtered_target_pos_y,filtered_target_pos_z,target_quat_w,target_quat_x,target_quat_y,target_quat_z,gripper_width,workspace_clipped,actual_ee_pos_x,actual_ee_pos_y,actual_ee_pos_z,ee_position_error,ee_orientation_error,joint_q_1,joint_q_2,joint_q_3,joint_q_4,joint_q_5,joint_q_6,joint_q_7,joint_dq_1,joint_dq_2,joint_dq_3,joint_dq_4,joint_dq_5,joint_dq_6,joint_dq_7,torque_norm,max_abs_torque
0.512,0,0,,0.000000,0.000000,0.000000,,0.3350,0.0000,0.6396,0.3350,0.0000,0.6396,-0.000365,0.998724,-0.007292,0.049978,0.0400,,0.3350,-0.0000,0.6396,0.0000,0.000000,0.0000,-0.7000,-0.0000,-2.2000,0.0000,1.6000,0.8000,-0.0000,-0.0000,-0.0000,0.0000,0.0000,0.0000,0.0000,22.75,21.74
1.050,1,0,,0.000000,0.000000,0.000000,,0.3350,0.0000,0.6396,0.3350,0.0000,0.6396,-0.000365,0.998724,-0.007292,0.049978,0.0400,,0.3350,-0.0000,0.6396,0.0000,0.000000,0.0000,-0.7000,-0.0000,-2.2000,0.0000,1.6000,0.8000,0.0000,0.0000,0.0000,-0.0000,-0.0000,-0.0000,-0.0000,22.75,21.74
1.076,2,0,,0.000000,0.000000,0.000000,,0.3350,0.0000,0.6396,0.3350,0.0000,0.6396,-0.000365,0.998724,-0.007292,0.049978,0.0400,,0.3350,-0.0000,0.6396,0.0000,0.000000,0.0000,-0.7000,-0.0000,-2.2000,0.0000,1.6000,0.8000,0.0000,0.0000,0.0000,-0.0000,-0.0000,-0.0000,-0.0000,22.75,21.74
1.107,3,0,,0.000000,0.000000,0.000000,,0.3350,0.0000,0.6396,0.3350,0.0000,0.6396,-0.000365,0.998724,-0.007292,0.049978,0.0400,,0.3350,-0.0000,0.6396,0.0000,0.000000,0.0000,-0.7000,-0.0000,-2.2000,0.0000,1.6000,0.8000,0.0000,0.0000,0.0000,-0.0000,-0.0000,-0.0000,-0.0000,22.75,21.74
1.139,4,0,,0.000000,0.000000,0.000000,,0.3350,0.0000,0.6396,0.3350,0.0000,0.6396,-0.000365,0.998724,-0.007292,0.049978,0.0400,,0.3350,-0.0000,0.6396,0.0000,0.000000,0.0000,-0.7000,-0.0000,-2.2000,0.0000,1.6000,0.8000,0.0000,0.0000,0.0000,-0.0000,-0.0000,-0.0000,-0.0000,22.75,21.74
1.166,5,0,,0.000000,0.000000,0.000000,,0.3350,0.0000,0.6396,0.3350,0.0000,0.6396,-0.000365,0.998724,-0.007292,0.049978,0.0400,,0.3350,-0.0000,0.6396,0.0000,0.000000,0.0000,-0.7000,-0.0000,-2.2000,0.0000,1.6000,0.8000,0.0000,0.0000,0.0000,-0.0000,-0.0000,-0.0000,-0.0000,22.75,21.74
1.196,6,0,,0.000000,0.000000,0.000000,,0.3350,0.0000,0.6396,0.3350,0.0000,0.6396,-0.000365,0.998724,-0.007292,0.049978,0.0400,,0.3350,-0.0000,0.6396,0.0000,0.000000,0.0000,-0.7000,-0.0000,-2.2000,0.0000,1.6000,0.8000,0.0000,0.0000,0.0000,-0.0000,-0.0000,-0.0000,-0.0000,22.75,21.74
1.229,7,0,,0.000000,0.000000,0.000000,,0.3350,0.0000,0.6396,0.3350,0.0000,0.6396,-0.000365,0.998724,-0.007292,0.049978,0.0400,,0.3350,-0.0000,0.6396,0.0000,0.000000,0.0000,-0.7000,-0.0000,-2.2000,0.0000,1.6000,0.8000,0.0000,0.0000,0.0000,-0.0000,-0.0000,-0.0000,-0.0000,22.75,21.74
1.259,8,0,,0.000000,0.000000,0.000000,,0.3350,0.0000,0.6396,0.3350,0.0000,0.6396,-0.000365,0.998724,-0.007292,0.049978,0.0400,,0.3350,-0.0000,0.6396,0.0000,0.000000,0.0000,-0.7000,-0.0000,-2.2000,0.0000,1.6000,0.8000,0.0000,0.0000,0.0000,-0.0000,-0.0000,-0.0000,-0.0000,22.75,21.74
1.286,9,0,,0.000000,0.000000,0.000000,,0.3350,0.0000,0.6396,0.3350,0.0000,0.6396,-0.000365,0.998724,-0.007292,0.049978,0.0400,,0.3350,-0.0000,0.6396,0.0000,0.000000,0.0000,-0.7000,-0.0000,-2.2000,0.0000,1.6000,0.8000,0.0000,0.0000,0.0000,-0.0000,-0.0000,-0.0000,-0.0000,22.75,21.74
1.316,10,0,,0.000000,0.000000,0.000000,,0.3350,0.0000,0.6396,0.3350,0.0000,0.6396,-0.000365,0.998724,-0.007292,0.049978,0.0400,,0.3350,-0.0000,0.6396,0.0000,0.000000,0.0000,-0.7000,-0.0000,-2.2000,0.0000,1.6000,0.8000,0.0000,0.0000,0.0000,-0.0000,-0.0000,-0.0000,-0.0000,22.75,21.74
1.348,11,0,,0.000000,0.000000,0.000000,,0.3350,0.0000,0.6396,0.3350,0.0000,0.6396,-0.000365,0.998724,-0.007292,0.049978,0.0400,,0.3350,-0.0000,0.6396,0.0000,0.000000,0.0000,-0.7000,-0.0000,-2.2000,0.0000,1.6000,0.8000,0.0000,0.0000,0.0000,-0.0000,-0.0000,-0.0000,-0.0000,22.75,21.74
1.394,12,0,,0.000000,0.000000,0.000000,,0.3350,0.0000,0.6396,0.3350,0.0000,0.6396,-0.000365,0.998724,-0.007292,0.049978,0.0400,,0.3350,-0.0000,0.6396,0.0000,0.000000,0.0000,-0.7000,-0.0000,-2.2000,0.0000,1.6000,0.8000,0.0000,0.0000,0.0000,-0.0000,-0.0000,-0.0000,-0.0000,22.75,21.74
1.423,13,0,,0.000000,0.000000,0.000000,,0.3350,0.0000,0.6396,0.3350,0.0000,0.6396,-0.000365,0.998724,-0.007292,0.049978,0.0400,,0.3350,-0.0000,0.6396,0.0000,0.000000,0.0000,-0.7000,-0.0000,-2.2000,0.0000,1.6000,0.8000,-0.0000,0.0000,0.0000,-0.0000,-0.0000,-0.0000,-0.0000,22.75,21.74
1.455,14,0,,0.000000,0.000000,0.000000,,0.3350,0.0000,0.6396,0.3350,0.0000,0.6396,-0.000365,0.998724,-0.007292,0.049978,0.0400,,0.3350,-0.0000,0.6396,0.0000,0.000000,0.0000,-0.7000,-0.0000,-2.2000,0.0000,1.6000,0.8000,0.0000,0.0000,0.0000,-0.0000,-0.0000,-0.0000,-0.0000,22.75,21.74
1.488,15,0,,0.000000,0.000000,0.000000,,0.3350,0.0000,0.6396,0.3350,0.0000,0.6396,-0.000365,0.998724,-0.007292,0.049978,0.0400,,0.3350,-0.0000,0.6396,0.0000,0.000000,0.0000,-0.7000,-0.0000,-2.2000,0.0000,1.6000,0.8000,0.0000,0.0000,0.0000,-0.0000,-0.0000,-0.0000,-0.0000,22.75,21.74
1.514,16,0,,0.000000,0.000000,0.000000,,0.3350,0.0000,0.6396,0.3350,0.0000,0.6396,-0.000365,0.998724,-0.007292,0.049978,0.0400,,0.3350,-0.0000,0.6396,0.0000,0.000000,0.0000,-0.7000,-0.0000,-2.2000,0.0000,1.6000,0.8000,0.0000,0.0000,0.0000,-0.0000,-0.0000,-0.0000,-0.0000,22.75,21.74
1.551,17,0,,0.000000,0.000000,0.000000,,0.3350,0.0000,0.6396,0.3350,0.0000,0.6396,-0.000365,0.998724,-0.007292,0.049978,0.0400,,0.3350,-0.0000,0.6396,0.0000,0.000000,0.0000,-0.7000,-0.0000,-2.2000,0.0000,1.6000,0.8000,0.0000,0.0000,0.0000,-0.0000,-0.0000,-0.0000,-0.0000,22.75,21.74
1.584,18,0,,0.000000,0.000000,0.000000,,0.3350,0.0000,0.6396,0.3350,0.0000,0.6396,-0.000365,0.998724,-0.007292,0.049978,0.0400,,0.3350,-0.0000,0.6396,0.0000,0.000000,0.0000,-0.7000,-0.0000,-2.2000,0.0000,1.6000,0.8000,0.0000,0.0000,0.0000,-0.0000,-0.0000,-0.0000,-0.0000,22.75,21.74
1.612,19,0,,0.000000,0.000000,0.000000,,0.3350,0.0000,0.6396,0.3350,0.0000,0.6396,-0.000365,0.998724,-0.007292,0.049978,0.0400,,0.3350,-0.0000,0.6396,0.0000,0.000000,0.0000,-0.7000,-0.0000,-2.2000,0.0000,1.6000,0.8000,0.0000,0.0000,0.0000,-0.0000,-0.0000,-0.0000,-0.0000,22.75,21.74
1.648,20,0,,0.000000,0.000000,0.000000,,0.3350,0.0000,0.6396,0.3350,0.0000,0.6396,-0.000365,0.998724,-0.007292,0.049978,0.0400,,0.3350,-0.0000,0.6396,0.0000,0.000000,0.0000,-0.7000,-0.0000,-2.2000,0.0000,1.6000,0.8000,0.0000,0.0000,0.0000,-0.0000,-0.0000,-0.0000,-0.0000,22.75,21.74
1.677,21,0,,0.000000,0.000000,0.000000,,0.3350,0.0000,0.6396,0.3350,0.0000,0.6396,-0.000365,0.998724,-0.007292,0.049978,0.0400,,0.3350,0.0000,0.6396,0.0000,0.000000,0.0000,-0.7000,-0.0000,-2.2000,0.0000,1.6000,0.8000,0.0000,0.0000,0.0000,-0.0000,-0.0000,-0.0000,-0.0000,22.75,21.74
1.730,22,0,,0.000000,0.000000,0.000000,,0.3350,0.0000,0.6396,0.3350,0.0000,0.6396,-0.000365,0.998724,-0.007292,0.049978,0.0400,,0.3350,0.0000,0.6396,0.0000,0.000000,0.0000,-0.7000,-0.0000,-2.2000,0.0000,1.6000,0.8000,0.0000,0.0000,0.0000,-0.0000,-0.0000,-0.0000,-0.0000,22.75,21.74
1.759,23,0,,0.000000,0.000000,0.000000,,0.3350,0.0000,0.6396,0.3350,0.0000,0.6396,-0.000365,0.998724,-0.007292,0.049978,0.0400,,0.3350,0.0000,0.6396,0.0000,0.000000,0.0000,-0.7000,-0.0000,-2.2000,0.0000,1.6000,0.8000,0.0000,0.0000,0.0000,-0.0000,-0.0000,-0.0000,-0.0000,22.75,21.74
1.786,24,0,,0.000000,0.000000,0.000000,,0.3350,0.0000,0.6396,0.3350,0.0000,0.6396,-0.000365,0.998724,-0.007292,0.049978,0.0400,,0.3350,0.0000,0.6396,0.0000,0.000000,0.0000,-0.7000,-0.0000,-2.2000,0.0000,1.6000,0.8000,0.0000,0.0000,0.0000,-0.0000,-0.0000,-0.0000,-0.0000,22.75,21.74
1.814,25,0,,0.000000,0.000000,0.000000,,0.3350,0.0000,0.6396,0.3350,0.0000,0.6396,-0.000365,0.998724,-0.007292,0.049978,0.0400,,0.3350,0.0000,0.6396,0.0000,0.000000,0.0000,-0.7000,-0.0000,-2.2000,0.0000,1.6000,0.8000,0.0000,0.0000,0.0000,-0.0000,-0.0000,-0.0000,-0.0000,22.75,21.74
1.850,26,0,,0.000000,0.000000,0.000000,,0.3350,0.0000,0.6396,0.3350,0.0000,0.6396,-0.000365,0.998724,-0.007292,0.049978,0.0400,,0.3350,0.0000,0.6396,0.0000,0.000000,0.0000,-0.7000,-0.0000,-2.2000,0.0000,1.6000,0.8000,0.0000,0.0000,0.0000,-0.0000,-0.0000,-0.0000,-0.0000,22.75,21.74
1.888,27,0,,0.000000,0.000000,0.000000,,0.3350,0.0000,0.6396,0.3350,0.0000,0.6396,-0.000365,0.998724,-0.007292,0.049978,0.0400,,0.3350,0.0000,0.6396,0.0000,0.000000,0.0000,-0.7000,-0.0000,-2.2000,0.0000,1.6000,0.8000,0.0000,0.0000,0.0000,-0.0000,-0.0000,-0.0000,-0.0000,22.75,21.74
1.918,28,0,,0.000000,0.000000,0.000000,,0.3350,0.0000,0.6396,0.3350,0.0000,0.6396,-0.000365,0.998724,-0.007292,0.049978,0.0400,,0.3350,0.0000,0.6396,0.0000,0.000000,0.0000,-0.7000,-0.0000,-2.2000,0.0000,1.6000,0.8000,0.0000,0.0000,0.0000,-0.0000,-0.0000,-0.0000,-0.0000,22.75,21.74
1.951,29,0,,0.000000,0.000000,0.000000,,0.3350,0.0000,0.6396,0.3350,0.0000,0.6396,-0.000365,0.998724,-0.007292,0.049978,0.0400,,0.3350,0.0000,0.6396,0.0000,0.000000,0.0000,-0.7000,-0.0000,-2.2000,0.0000,1.6000,0.8000,0.0000,0.0000,0.0000,-0.0000,-0.0000,-0.0000,-0.0000,22.75,21.74
1.983,30,0,,0.000000,0.000000,0.000000,,0.3350,0.0000,0.6396,0.3350,0.0000,0.6396,-0.000365,0.998724,-0.007292,0.049978,0.0400,,0.3350,0.0000,0.6396,0.0000,0.000000,0.0000,-0.7000,-0.0000,-2.2000,0.0000,1.6000,0.8000,0.0000,0.0000,0.0000,-0.0000,-0.0000,-0.0000,-0.0000,22.75,21.74
2.018,31,0,,0.000000,0.000000,0.000000,,0.3350,0.0000,0.6396,0.3350,0.0000,0.6396,-0.000365,0.998724,-0.007292,0.049978,0.0400,,0.3350,0.0000,0.6396,0.0000,0.000000,0.0000,-0.7000,-0.0000,-2.2000,0.0000,1.6000,0.8000,0.0000,0.0000,0.0000,-0.0000,-0.0000,-0.0000,-0.0000,22.75,21.74
2.045,32,0,,0.000000,0.000000,0.000000,,0.3350,0.0000,0.6396,0.3350,0.0000,0.6396,-0.000365,0.998724,-0.007292,0.049978,0.0400,,0.3350,0.0000,0.6396,0.0000,0.000000,0.0000,-0.7000,-0.0000,-2.2000,0.0000,1.6000,0.8000,-0.0000,0.0000,0.0000,-0.0000,-0.0000,-0.0000,-0.0000,22.75,21.74
2.112,33,0,,0.000000,0.000000,0.000000,,0.3350,0.0000,0.6396,0.3350,0.0000,0.6396,-0.000365,0.998724,-0.007292,0.049978,0.0400,,0.3350,0.0000,0.6396,0.0000,0.000000,0.0000,-0.7000,-0.0000,-2.2000,0.0000,1.6000,0.8000,-0.0000,0.0000,0.0000,-0.0000,-0.0000,-0.0000,-0.0000,22.75,21.74
2.158,34,0,,0.000000,0.000000,0.000000,,0.3350,0.0000,0.6396,0.3350,0.0000,0.6396,-0.000365,0.998724,-0.007292,0.049978,0.0400,,0.3350,0.0000,0.6396,0.0000,0.000000,0.0000,-0.7000,-0.0000,-2.2000,0.0000,1.6000,0.8000,-0.0000,0.0000,0.0000,-0.0000,-0.0000,-0.0000,-0.0000,22.75,21.74
2.202,35,0,,0.000000,0.000000,0.000000,,0.3350,0.0000,0.6396,0.3350,0.0000,0.6396,-0.000365,0.998724,-0.007292,0.049978,0.0400,,0.3350,0.0000,0.6396,0.0000,0.000000,0.0000,-0.7000,-0.0000,-2.2000,0.0000,1.6000,0.8000,-0.0000,0.0000,0.0000,-0.0000,-0.0000,-0.0000,-0.0000,22.75,21.74
2.233,36,0,,0.000000,0.000000,0.000000,,0.3350,0.0000,0.6396,0.3350,0.0000,0.6396,-0.000365,0.998724,-0.007292,0.049978,0.0400,,0.3350,0.0000,0.6396,0.0000,0.000000,0.0000,-0.7000,-0.0000,-2.2000,0.0000,1.6000,0.8000,-0.0000,0.0000,0.0000,-0.0000,-0.0000,-0.0000,-0.0000,22.75,21.74
2.281,37,0,,0.000000,0.000000,0.000000,,0.3350,0.0000,0.6396,0.3350,0.0000,0.6396,-0.000365,0.998724,-0.007292,0.049978,0.0400,,0.3350,0.0000,0.6396,0.0000,0.000000,0.0000,-0.7000,-0.0000,-2.2000,0.0000,1.6000,0.8000,-0.0000,0.0000,0.0000,-0.0000,-0.0000,-0.0000,-0.0000,22.75,21.74
2.326,38,1,0.9945,0.300116,0.329321,-0.000000,0.2301,0.3350,0.0000,0.6396,0.3350,0.0000,0.6396,-0.127423,0.105076,-0.135437,0.976923,0.0000,,0.3337,-0.0007,0.6454,0.0060,2.812046,-0.0008,-0.7056,-0.0014,-2.1927,0.0016,1.6056,0.8019,-0.0065,-0.0498,-0.0118,0.0636,0.0134,0.0475,0.0160,54.24,44.00
2.373,39,1,0.9879,0.308803,0.326618,-0.000000,0.2525,0.3350,0.0157,0.6435,0.3350,0.0157,0.6435,-0.141144,0.104991,-0.020642,0.984190,0.0000,,0.3326,0.0010,0.6506,0.0165,2.796647,0.0008,-0.7105,0.0007,-2.1866,0.0045,1.6113,0.8022,0.0132,-0.0405,0.0182,0.0505,0.0245,0.0473,0.0027,48.67,39.35
2.400,40,1,0.9938,0.310173,0.326089,-0.000000,0.2135,0.3350,0.0210,0.6450,0.3350,0.0210,0.6450,-0.162929,0.087431,-0.074424,0.979934,0.0000,,0.3315,0.0027,0.6551,0.0211,2.816487,0.0022,-0.7148,0.0027,-2.1813,0.0078,1.6170,0.8034,0.0118,-0.0360,0.0171,0.0440,0.0277,0.0472,0.0096,45.72,37.02
2.425,41,1,0.9938,0.310674,0.329309,-0.000000,0.1609,0.3350,0.0228,0.6406,0.3350,0.0228,0.6406,-0.165482,0.085518,-0.163701,0.968764,0.0000,,0.3310,0.0041,0.6581,0.0259,2.809039,0.0031,-0.7178,0.0043,-2.1783,0.0111,1.6227,0.8057,0.0074,-0.0241,0.0127,0.0242,0.0273,0.0472,0.0196,37.28,30.02
2.451,42,1,0.9883,0.311227,0.331193,-0.000000,0.1901,0.3350,0.0242,0.6371,0.3350,0.0242,0.6371,-0.169100,0.046815,-0.134544,0.975249,0.0000,,0.3307,0.0056,0.6603,0.0300,2.876573,0.0041,-0.7201,0.0060,-2.1766,0.0145,1.6283,0.8077,0.0090,-0.0187,0.0145,0.0138,0.0279,0.0471,0.0165,33.39,26.38
2.475,43,1,0.9920,0.309729,0.328305,-0.000000,0.2009,0.3350,0.0217,0.6406,0.3350,0.0217,0.6406,-0.175620,0.059145,-0.083520,0.979124,0.0000,,0.3303,0.0069,0.6627,0.0270,2.841413,0.0051,-0.7225,0.0073,-2.1745,0.0176,1.6340,0.8090,0.0083,-0.0204,0.0112,0.0174,0.0260,0.0470,0.0105,34.33,27.60
2.504,44,1,0.9928,0.311307,0.326093,-0.000000,0.2038,0.3350,0.0241,0.6445,0.3350,0.0241,0.6445,-0.175693,0.076513,-0.075503,0.978559,0.0000,,0.3299,0.0083,0.6652,0.0265,2.796127,0.0063,-0.7250,0.0090,-2.1722,0.0207,1.6396,0.8101,0.0097,-0.0206,0.0137,0.0191,0.0262,0.0470,0.0095,34.95,28.17
2.531,45,1,0.9840,0.311738,0.327672,-0.000000,0.2497,0.3350,0.0253,0.6429,0.3350,0.0253,0.6429,-0.178920,0.080812,-0.052534,0.979131,0.0000,,0.3297,0.0099,0.6670,0.0291,2.778718,0.0075,-0.7268,0.0107,-2.1711,0.0239,1.6453,0.8109,0.0105,-0.0149,0.0144,0.0095,0.0260,0.0469,0.0069,31.24,24.80
2.557,46,1,0.9930,0.312631,0.322431,-0.000000,0.1799,0.3350,0.0271,0.6501,0.3350,0.0271,0.6501,-0.182641,0.032990,-0.136452,0.973106,0.0000,,0.3291,0.0110,0.6698,0.0261,2.864255,0.0083,-0.7295,0.0119,-2.1683,0.0270,1.6509,0.8130,0.0063,-0.0230,0.0098,0.0239,0.0266,0.0468,0.0167,36.49,29.81
2.585,47,1,0.9912,0.313466,0.335900,-0.000000,0.2607,0.3350,0.0290,0.6320,0.3350,0.0290,0.6320,-0.157168,0.057740,-0.052711,0.984472,0.0000,,0.3298,0.0127,0.6691,0.0408,2.810483,0.0096,-0.7292,0.0139,-2.1710,0.0299,1.6565,0.8137,0.0112,0.0039,0.0176,-0.0242,0.0234,0.0468,0.0064,20.15,12.93
2.611,48,1,0.9918,0.313619,0.321270,-0.000000,0.2522,0.3350,0.0296,0.6499,0.3350,0.0296,0.6499,-0.176358,0.059215,-0.061566,0.980613,0.0000,,0.3293,0.0141,0.6716,0.0272,2.797473,0.0108,-0.7317,0.0156,-2.1686,0.0328,1.6621,0.8147,0.0096,-0.0222,0.0137,0.0216,0.0249,0.0468,0.0078,35.74,29.01
2.639,49,1,0.9900,0.314295,0.336022,-0.000000,0.2047,0.3350,0.0309,0.6318,0.3350,0.0309,0.6318,-0.162207,0.045838,-0.071588,0.983088,0.0000,,0.3300,0.0156,0.6705,0.0420,2.822008,0.0119,-0.7312,0.0173,-2.1718,0.0356,1.6678,0.8157,0.0090,0.0060,0.0145,-0.0285,0.0226,0.0468,0.0087,18.54,12.00
2.665,50,1,0.9837,0.315794,0.329354,-0.000000,0.2484,0.3350,0.0338,0.6382,0.3350,0.0338,0.6382,-0.162100,0.036976,-0.006690,0.986059,0.0000,,0.3302,0.0175,0.6710,0.0370,2.833756,0.0135,-0.7320,0.0197,-2.1726,0.0384,1.6733,0.8159,0.0135,-0.0079,0.0200,-0.0058,0.0236,0.0467,0.0012,26.39,19.43
2.692,51,1,0.9906,0.313256,0.332163,-0.000000,0.1650,0.3350,0.0298,0.6353,0.3350,0.0298,0.6353,-0.161169,0.027586,-0.101607,0.981295,0.0000,,0.3306,0.0182,0.6708,0.0377,2.849453,0.0140,-0.7323,0.0204,-2.1744,0.0408,1.6790,0.8173,0.0035,-0.0021,0.0057,-0.0162,0.0197,0.0467,0.0122,21.43,15.80
2.718,52,1,0.9914,0.314607,0.325579,-0.000000,0.2318,0.3350,0.0315,0.6442,0.3350,0.0315,0.6442,-0.178370,0.032273,-0.074407,0.980615,0.0000,,0.3305,0.0192,0.6722,0.0309,2.831900,0.0147,-0.7339,0.0215,-2.1739,0.0435,1.6845,0.8184,0.0066,-0.0139,0.0091,0.0049,0.0225,0.0467,0.0089,29.17,23.20
2.765,53,1,0.9947,0.316483,0.337934,-0.000000,0.2235,0.3350,0.0352,0.6280,0.3350,0.0352,0.6280,-0.153500,0.031685,-0.073321,0.984915,0.0000,,0.3313,0.0206,0.6706,0.0451,2.832164,0.0157,-0.7330,0.0232,-2.1781,0.0459,1.6902,0.8194,0.0084,0.0087,0.0145,-0.0361,0.0203,0.0467,0.0084,16.69,12.00
2.798,54,1,0.9896,0.315631,0.336671,-0.000000,0.2605,0.3350,0.0343,0.6269,0.3350,0.0343,0.6269,-0.151120,0.046257,-0.058283,0.985711,0.0000,,0.3321,0.0217,0.6692,0.0442,2.801380,0.0166,-0.7325,0.0247,-2.1818,0.0481,1.6958,0.8202,0.0072,0.0044,0.0119,-0.0308,0.0185,0.0467,0.0066,17.59,12.00
2.827,55,1,0.9873,0.315684,0.330593,-0.000000,0.2301,0.3350,0.0343,0.6355,0.3350,0.0343,0.6355,-0.154569,0.038362,-0.079364,0.984042,0.0000,,0.3323,0.0226,0.6695,0.0360,2.812374,0.0172,-0.7333,0.0257,-2.1830,0.0503,1.7014,0.8212,0.0053,-0.0078,0.0087,-0.0093,0.0184,0.0466,0.0089,24.12,18.27
2.854,56,1,0.9960,0.314616,0.331477,-0.000000,0.1714,0.3350,0.0323,0.6358,0.3350,0.0323,0.6358,-0.164797,0.032094,-0.110430,0.979601,0.0000,,0.3326,0.0231,0.6697,0.0352,2.820537,0.0174,-0.7340,0.0261,-2.1845,0.0525,1.7069,0.8227,0.0016,-0.0061,0.0027,-0.0121,0.0180,0.0466,0.0125,22.99,17.30
2.880,57,1,0.9899,0.315359,0.330635,-0.000000,0.2762,0.3350,0.0333,0.6370,0.3350,0.0333,0.6370,-0.164386,0.069161,-0.012955,0.983883,0.0000,,0.3328,0.0240,0.6699,0.0343,2.739393,0.0183,-0.7349,0.0272,-2.1857,0.0546,1.7125,0.8229,0.0073,-0.0068,0.0096,-0.0106,0.0178,0.0466,0.0012,23.68,17.84
2.907,58,1,0.9922,0.315235,0.331697,-0.000000,0.1845,0.3350,0.0333,0.6357,0.3350,0.0333,0.6357,-0.163423,0.065322,-0.080204,0.981118,0.0000,,0.3331,0.0246,0.6699,0.0353,2.743471,0.0186,-0.7355,0.0277,-2.1875,0.0566,1.7181,0.8239,0.0027,-0.0048,0.0039,-0.0146,0.0169,0.0466,0.0088,22.06,16.45
2.934,59,1,0.9896,0.313725,0.330920,-0.000000,0.1965,0.3350,0.0305,0.6366,0.3350,0.0305,0.6366,-0.160862,0.078933,-0.052252,0.982427,0.0000,,0.3333,0.0249,0.6701,0.0340,2.710691,0.0189,-0.7362,0.0278,-2.1890,0.0584,1.7237,0.8246,0.0018,-0.0061,0.0013,-0.0128,0.0148,0.0465,0.0054,22.61,17.10
2.960,60,1,0.9936,0.314083,0.326774,-0.000000,0.2088,0.3350,0.0307,0.6427,0.3350,0.0307,0.6427,-0.162894,0.074003,-0.049030,0.982642,0.0000,,0.3332,0.0252,0.6712,0.0290,2.713290,0.0191,-0.7377,0.0280,-2.1890,0.0602,1.7293,0.8252,0.0019,-0.0135,0.0011,0.0004,0.0151,0.0465,0.0050,27.44,21.73
2.990,61,1,0.9939,0.313842,0.333757,-0.000000,0.1641,0.3350,0.0303,0.6338,0.3350,0.0303,0.6338,-0.154065,0.090304,-0.079563,0.980703,0.0000,,0.3338,0.0253,0.6705,0.0371,2.678132,0.0191,-0.7378,0.0279,-2.1919,0.0618,1.7349,0.8262,-0.0002,0.0006,-0.0005,-0.0247,0.0132,0.0465,0.0081,18.68,12.94
3.052,62,1,0.9885,0.314744,0.327703,-0.000000,0.1952,0.3350,0.0318,0.6409,0.3350,0.0318,0.6409,-0.174064,0.071642,-0.074411,0.979302,0.0000,,0.3338,0.0255,0.6713,0.0311,2.708791,0.0193,-0.7391,0.0280,-2.1924,0.0638,1.7404,0.8271,0.0015,-0.0118,0.0009,-0.0037,0.0166,0.0464,0.0077,26.10,20.32
3.087,63,1,0.9926,0.315922,0.328038,-0.000000,0.2362,0.3350,0.0342,0.6417,0.3350,0.0342,0.6417,-0.161564,0.068948,-0.064851,0.982312,0.0000,,0.3338,0.0261,0.6720,0.0314,2.707906,0.0197,-0.7403,0.0286,-2.1931,0.0657,1.7460,0.8279,0.0035,-0.0102,0.0049,-0.0061,0.0160,0.0464,0.0065,25.15,19.48
3.135,64,1,0.9908,0.316371,0.321909,-0.000000,0.2720,0.3350,0.0355,0.6507,0.3350,0.0355,0.6507,-0.175731,0.083980,-0.034825,0.980231,0.0000,,0.3334,0.0268,0.6740,0.0249,2.668011,0.0203,-0.7426,0.0294,-2.1918,0.0679,1.7516,0.8283,0.0054,-0.0197,0.0064,0.0119,0.0177,0.0464,0.0034,31.92,25.76
3.165,65,1,0.9913,0.316765,0.321502,-0.000000,0.2862,0.3350,0.0364,0.6529,0.3350,0.0364,0.6529,-0.172347,0.081574,-0.031077,0.981161,0.0000,,0.3329,0.0276,0.6760,0.0248,2.663845,0.0210,-0.7447,0.0302,-2.1906,0.0699,1.7571,0.8286,0.0055,-0.0179,0.0068,0.0100,0.0171,0.0463,0.0030,31.00,25.08
3.192,66,1,0.9917,0.315775,0.320360,-0.000000,0.2703,0.3350,0.0348,0.6549,0.3350,0.0348,0.6549,-0.173799,0.078989,-0.015720,0.981482,0.0000,,0.3325,0.0281,0.6779,0.0241,2.659892,0.0215,-0.7469,0.0306,-2.1894,0.0718,1.7627,0.8288,0.0042,-0.0178,0.0039,0.0102,0.0159,0.0463,0.0013,30.90,25.15
3.219,67,1,0.9910,0.317089,0.325253,-0.000000,0.2819,0.3350,0.0369,0.6482,0.3350,0.0369,0.6482,-0.165271,0.033122,0.007737,0.985661,0.0000,,0.3325,0.0290,0.6786,0.0314,2.745786,0.0223,-0.7480,0.0316,-2.1901,0.0737,1.7683,0.8286,0.0066,-0.0085,0.0083,-0.0071,0.0156,0.0463,-0.0015,24.58,19.06
3.248,68,1,0.9873,0.317692,0.318224,-0.000000,0.2864,0.3350,0.0383,0.6572,0.3350,0.0383,0.6572,-0.180538,0.065028,0.039801,0.980609,0.0000,,0.3320,0.0301,0.6806,0.0250,2.672823,0.0233,-0.7501,0.0328,-2.1888,0.0758,1.7738,0.8281,0.0086,-0.0185,0.0096,0.0117,0.0173,0.0462,-0.0046,31.68,25.64
3.272,69,1,0.9900,0.314061,0.321747,-0.000000,0.1956,0.3350,0.0321,0.6537,0.3350,0.0321,0.6537,-0.187256,0.043343,-0.092073,0.977026,0.0000,,0.3320,0.0296,0.6815,0.0281,2.711045,0.0229,-0.7514,0.0318,-2.1891,0.0775,1.7794,0.8293,-0.0039,-0.0103,-0.0086,-0.0029,0.0148,0.0462,0.0100,26.20,20.52
3.299,70,1,0.9951,0.312680,0.329889,-0.000000,0.1829,0.3350,0.0284,0.6413,0.3350,0.0284,0.6413,-0.175152,0.053162,-0.139916,0.973098,0.0000,,0.3329,0.0287,0.6803,0.0390,2.691221,0.0219,-0.7509,0.0303,-2.1928,0.0790,1.7849,0.8310,-0.0079,0.0051,-0.0127,-0.0321,0.0119,0.0462,0.0144,17.84,12.00
3.326,71,1,0.9915,0.312351,0.314427,-0.000000,0.2143,0.3350,0.0272,0.6614,0.3350,0.0272,0.6614,-0.188411,0.071138,-0.134566,0.970223,0.0000,,0.3323,0.0277,0.6827,0.0215,2.644232,0.0210,-0.7534,0.0286,-2.1909,0.0807,1.7904,0.8326,-0.0073,-0.0229,-0.0141,0.0182,0.0141,0.0462,0.0136,34.81,27.95
3.357,72,1,0.9973,0.310044,0.333501,-0.000000,0.1722,0.3350,0.0228,0.6375,0.3350,0.0228,0.6375,-0.170316,0.108764,-0.069760,0.976881,0.0000,,0.3336,0.0267,0.6804,0.0430,2.567328,0.0202,-0.7520,0.0270,-2.1963,0.0817,1.7960,0.8333,-0.0072,0.0142,-0.0133,-0.0482,0.0085,0.0462,0.0061,14.90,12.00
3.389,73,1,0.9816,0.314075,0.325095,-0.000000,0.2944,0.3350,0.0293,0.6453,0.3350,0.0293,0.6453,-0.167909,0.111958,0.021702,0.979184,0.0000,,0.3340,0.0269,0.6801,0.0348,2.557127,0.0205,-0.7524,0.0272,-2.1985,0.0831,1.8015,0.8329,0.0033,-0.0048,0.0021,-0.0167,0.0120,0.0462,-0.0036,21.20,15.76
3.466,74,1,0.9931,0.312770,0.324858,-0.000000,0.2137,0.3350,0.0281,0.6471,0.3350,0.0281,0.6471,-0.173902,0.083914,-0.071933,0.978541,0.0000,,0.3343,0.0266,0.6801,0.0330,2.608747,0.0202,-0.7531,0.0264,-2.2003,0.0846,1.8071,0.8337,-0.0031,-0.0055,-0.0068,-0.0153,0.0123,0.0461,0.0067,21.98,16.25
3.504,75,1,0.9907,0.312326,0.323203,-0.000000,0.1993,0.3350,0.0271,0.6498,0.3350,0.0271,0.6498,-0.171354,0.032651,-0.136450,0.975168,0.0000,,0.3343,0.0258,0.6807,0.0309,2.706881,0.0194,-0.7543,0.0252,-2.2013,0.0862,1.8126,0.8353,-0.0064,-0.0103,-0.0107,-0.0078,0.0130,0.0461,0.0135,25.19,18.90
3.531,76,1,0.9894,0.311471,0.325137,-0.000000,0.1897,0.3350,0.0254,0.6475,0.3350,0.0254,0.6475,-0.161389,0.083658,-0.098382,0.978405,0.0000,,0.3347,0.0251,0.6806,0.0331,2.599164,0.0188,-0.7549,0.0241,-2.2033,0.0874,1.8181,0.8364,-0.0050,-0.0046,-0.0088,-0.0173,0.0105,0.0461,0.0087,21.53,15.57
3.559,77,1,0.9760,0.310399,0.327280,-0.000000,0.2058,0.3350,0.0231,0.6440,0.3350,0.0231,0.6440,-0.175700,0.084309,-0.098626,0.975856,0.0000,,0.3352,0.0243,0.6799,0.0360,2.593973,0.0181,-0.7551,0.0227,-2.2062,0.0888,1.8237,0.8374,-0.0063,-0.0015,-0.0117,-0.0241,0.0112,0.0461,0.0089,19.81,13.22
3.586,78,1,0.9947,0.308077,0.317818,-0.000000,0.2230,0.3350,0.0185,0.6570,0.3350,0.0185,0.6570,-0.181294,0.067785,-0.088234,0.977114,0.0000,,0.3348,0.0230,0.6817,0.0251,2.617762,0.0170,-0.7573,0.0206,-2.2054,0.0901,1.8292,0.8384,-0.0087,-0.0196,-0.0177,0.0082,0.0110,0.0461,0.0079,31.62,24.51
3.613,79,1,0.9955,0.309782,0.322245,-0.000000,0.1795,0.3350,0.0208,0.6530,0.3350,0.0208,0.6530,-0.183089,0.075225,-0.160261,0.967024,0.0000,,0.3349,0.0218,0.6823,0.0293,2.597998,0.0160,-0.7584,0.0188,-2.2065,0.0917,1.8347,0.8402,-0.0090,-0.0084,-0.0153,-0.0103,0.0129,0.0461,0.0154,24.77,18.03
3.640,80,1,0.9915,0.311888,0.316403,-0.000000,0.2590,0.3350,0.0250,0.6607,0.3350,0.0250,0.6607,-0.191555,0.053967,-0.040918,0.979142,0.0000,,0.3344,0.0218,0.6842,0.0238,2.630012,0.0160,-0.7607,0.0185,-2.2054,0.0935,1.8402,0.8406,0.0010,-0.0201,-0.0019,0.0101,0.0158,0.0460,0.0028,31.22,25.18
3.665,81,1,0.9954,0.311126,0.330935,-0.000000,0.1988,0.3350,0.0244,0.6411,0.3350,0.0244,0.6411,-0.169689,0.064711,-0.139901,0.973368,0.0000,,0.3354,0.0212,0.6823,0.0414,2.608981,0.0154,-0.7598,0.0176,-2.2103,0.0950,1.8458,0.8421,-0.0052,0.0092,-0.0074,-0.0426,0.0123,0.0460,0.0131,14.99,12.00
3.693,82,1,0.9921,0.311433,0.316036,-0.000000,0.1977,0.3350,0.0248,0.6591,0.3350,0.0248,0.6591,-0.194938,0.054221,-0.154578,0.967039,0.0000,,0.3350,0.0207,0.6841,0.0254,2.620651,0.0149,-0.7620,0.0167,-2.2094,0.0971,1.8513,0.8439,-0.0043,-0.0203,-0.0079,0.0089,0.0171,0.0460,0.0149,31.36,24.80
3.726,83,1,0.9934,0.310738,0.325330,-0.000000,0.1591,0.3350,0.0236,0.6489,0.3350,0.0236,0.6489,-0.185959,0.030174,-0.158164,0.969275,0.0000,,0.3354,0.0201,0.6836,0.0349,2.664912,0.0143,-0.7624,0.0157,-2.2121,0.0989,1.8568,0.8457,-0.0054,-0.0017,-0.0084,-0.0236,0.0151,0.0460,0.0152,19.84,13.38
3.759,84,1,0.9929,0.309367,0.320310,-0.000000,0.2192,0.3350,0.0209,0.6543,0.3350,0.0209,0.6543,-0.182201,0.061795,-0.112932,0.974798,0.0000,,0.3354,0.0195,0.6843,0.0300,2.594623,0.0137,-0.7637,0.0146,-2.2131,0.1005,1.8623,0.8469,-0.0047,-0.0113,-0.0090,-0.0073,0.0134,0.0460,0.0098,25.19,19.13
3.807,85,1,0.9935,0.310347,0.327116,-0.000000,0.1858,0.3350,0.0222,0.6454,0.3350,0.0222,0.6454,-0.167180,0.062142,-0.129982,0.975343,0.0000,,0.3360,0.0190,0.6832,0.0379,2.592110,0.0132,-0.7635,0.0139,-2.2167,0.1020,1.8679,0.8483,-0.0042,0.0017,-0.0060,-0.0310,0.0122,0.0460,0.0112,17.36,12.00
3.837,86,1,0.9902,0.311034,0.313389,-0.000000,0.2403,0.3350,0.0237,0.6637,0.3350,0.0237,0.6637,-0.173365,0.055441,-0.116103,0.976417,0.0000,,0.3353,0.0187,0.6856,0.0225,2.595137,0.0130,-0.7663,0.0134,-2.2150,0.1037,1.8733,0.8494,-0.0020,-0.0244,-0.0037,0.0161,0.0147,0.0459,0.0098,33.84,27.32
3.868,87,1,0.9955,0.310546,0.328928,-0.000000,0.1997,0.3350,0.0231,0.6445,0.3350,0.0231,0.6445,-0.180067,0.080838,-0.080079,0.977051,0.0000,,0.3361,0.0187,0.6839,0.0397,2.543224,0.0129,-0.7657,0.0132,-2.2195,0.1053,1.8789,0.8502,-0.0007,0.0071,-0.0016,-0.0398,0.0130,0.0460,0.0061,14.83,12.00
3.903,88,1,0.9884,0.311718,0.333879,-0.000000,0.2092,0.3350,0.0251,0.6339,0.3350,0.0251,0.6339,-0.156415,0.092481,-0.018283,0.983182,0.0000,,0.3374,0.0191,0.6810,0.0475,2.524825,0.0133,-0.7643,0.0139,-2.2258,0.1065,1.8844,0.8501,0.0036,0.0122,0.0058,-0.0529,0.0102,0.0460,-0.0010,12.93,12.00
3.931,89,1,0.9889,0.316804,0.317828,-0.000000,0.3207,0.3350,0.0346,0.6552,0.3350,0.0346,0.6552,-0.161990,0.063187,0.029307,0.984331,0.0000,,0.3369,0.0208,0.6825,0.0307,2.578064,0.0148,-0.7664,0.0162,-2.2254,0.1084,1.8899,0.8494,0.0130,-0.0202,0.0200,0.0052,0.0156,0.0459,-0.0057,31.08,23.59
3.966,90,1,0.9930,0.315940,0.326491,-0.000000,0.2244,0.3350,0.0348,0.6465,0.3350,0.0348,0.6465,-0.166502,0.030996,-0.101560,0.980307,0.0000,,0.3372,0.0217,0.6820,0.0379,2.634976,0.0154,-0.7669,0.0174,-2.2283,0.1103,1.8954,0.8504,0.0047,-0.0027,0.0097,-0.0249,0.0160,0.0459,0.0086,19.32,13.06
3.999,91,1,0.9906,0.317434,0.324481,-0.000000,0.2992,0.3350,0.0375,0.6478,0.3350,0.0375,0.6478,-0.171982,0.043945,0.001603,0.984118,0.0000,,0.3372,0.0233,0.6819,0.0370,2.607086,0.0168,-0.7678,0.0197,-2.2303,0.1122,1.9009,0.8501,0.0118,-0.0079,0.0190,-0.0167,0.0161,0.0459,-0.0026,23.11,15.92
4.032,92,1,0.9915,0.315492,0.321657,-0.000000,0.2295,0.3350,0.0345,0.6522,0.3350,0.0345,0.6522,-0.181697,0.048876,-0.029371,0.981700,0.0000,,0.3371,0.0242,0.6825,0.0322,2.589804,0.0175,-0.7692,0.0208,-2.2314,0.1141,1.9064,0.8502,0.0061,-0.0121,0.0089,-0.0085,0.0155,0.0459,0.0011,24.86,18.82
4.060,93,1,0.9943,0.313663,0.333883,-0.000000,0.1995,0.3350,0.0306,0.6353,0.3350,0.0306,0.6353,-0.158542,0.030147,-0.103716,0.981427,0.0000,,0.3381,0.0242,0.6801,0.0454,2.628169,0.0174,-0.7682,0.0209,-2.2371,0.1154,1.9120,0.8512,-0.0011,0.0096,0.0004,-0.0492,0.0113,0.0459,0.0083,13.32,12.00
4.095,94,1,0.9576,0.314840,0.330198,-0.000000,0.2409,0.3350,0.0321,0.6376,0.3350,0.0321,0.6376,-0.177098,0.097364,0.006041,0.979347,0.0000,,0.3387,0.0250,0.6785,0.0417,2.494071,0.0182,-0.7680,0.0219,-2.2414,0.1169,1.9175,0.8508,0.0062,0.0014,0.0089,-0.0357,0.0122,0.0459,-0.0033,16.34,12.00
4.126,95,1,0.9905,0.314732,0.326951,-0.000000,0.2380,0.3350,0.0321,0.6427,0.3350,0.0321,0.6427,-0.164881,0.084832,-0.037785,0.981932,0.0000,,0.3390,0.0254,0.6781,0.0363,2.514715,0.0185,-0.7687,0.0225,-2.2441,0.1183,1.9230,0.8510,0.0030,-0.0064,0.0047,-0.0218,0.0115,0.0459,0.0012,20.26,14.26
4.175,96,1,0.9819,0.318316,0.323782,-0.000000,0.3035,0.3350,0.0386,0.6482,0.3350,0.0386,0.6482,-0.168600,0.051482,0.058293,0.982612,0.0000,,0.3387,0.0270,0.6788,0.0330,2.579880,0.0200,-0.7703,0.0246,-2.2451,0.1199,1.9285,0.8499,0.0126,-0.0139,0.0187,-0.0081,0.0135,0.0459,-0.0088,26.37,19.07
4.205,97,1,0.9906,0.317158,0.325345,-0.000000,0.2456,0.3350,0.0377,0.6469,0.3350,0.0377,0.6469,-0.178601,0.031959,-0.005723,0.983386,0.0000,,0.3386,0.0279,0.6791,0.0339,2.609991,0.0208,-0.7716,0.0259,-2.2468,0.1216,1.9340,0.8497,0.0068,-0.0105,0.0099,-0.0139,0.0142,0.0459,-0.0015,23.28,17.03
4.238,98,1,0.9938,0.315843,0.319905,-0.000000,0.2053,0.3350,0.0352,0.6545,0.3350,0.0352,0.6545,-0.181639,0.046408,-0.100145,0.977151,0.0000,,0.3382,0.0280,0.6806,0.0272,2.571778,0.0209,-0.7738,0.0259,-2.2466,0.1234,1.9395,0.8507,0.0001,-0.0187,0.0001,0.0019,0.0148,0.0458,0.0082,28.81,22.57
4.270,99,1,0.9914,0.315636,0.329516,-0.000000,0.2409,0.3350,0.0343,0.6420,0.3350,0.0343,0.6420,-0.172680,0.082341,-0.056280,0.979915,0.0000,,0.3387,0.0283,0.6794,0.0381,2.498329,0.0211,-0.7738,0.0263,-2.2505,0.1248,1.9450,0.8511,0.0019,0.0011,0.0035,-0.0335,0.0115,0.0458,0.0030,16.46,12.00
4.305,100,1,0.9915,0.316878,0.317508,-0.000000,0.2512,0.3350,0.0364,0.6571,0.3350,0.0364,0.6571,-0.186234,0.031929,-0.064090,0.979893,0.0000,,0.3380,0.0287,0.6815,0.0258,2.589530,0.0215,-0.7764,0.0268,-2.2494,0.1266,1.9505,0.8516,0.0030,-0.0238,0.0037,0.0103,0.0153,0.0458,0.0043,32.13,25.52
4.335,101,1,0.9898,0.314828,0.330708,-0.000000,0.1799,0.3350,0.0331,0.6408,0.3350,0.0331,0.6408,-0.175395,0.073871,-0.075430,0.978821,0.0000,,0.3387,0.0286,0.6799,0.0395,2.504902,0.0214,-0.7761,0.0267,-2.2540,0.1279,1.9560,0.8522,-0.0008,0.0046,-0.0006,-0.0397,0.0111,0.0458,0.0050,14.96,12.00
4.367,102,1,0.9884,0.316287,0.325744,-0.000000,0.2138,0.3350,0.0351,0.6450,0.3350,0.0351,0.6450,-0.185986,0.044751,-0.045372,0.980484,0.0000,,0.3388,0.0290,0.6797,0.0355,2.558945,0.0217,-0.7771,0.0271,-2.2563,0.1295,1.9615,0.8525,0.0027,-0.0086,0.0036,-0.0185,0.0134,0.0458,0.0021,21.45,15.46
4.397,103,1,0.9912,0.314490,0.325855,-0.000000,0.2041,0.3350,0.0323,0.6456,0.3350,0.0323,0.6456,-0.175550,0.037916,-0.097790,0.978868,0.0000,,0.3389,0.0286,0.6795,0.0344,2.568423,0.0214,-0.7780,0.0267,-2.2586,0.1309,1.9670,0.8533,-0.0028,-0.0077,-0.0042,-0.0197,0.0119,0.0458,0.0074,21.16,15.03
4.431,104,1,0.9894,0.313352,0.329667,-0.000000,0.2192,0.3350,0.0297,0.6402,0.3350,0.0297,0.6402,-0.166752,0.050983,-0.126309,0.976545,0.0000,,0.3395,0.0280,0.6784,0.0385,2.540672,0.0207,-0.7781,0.0258,-2.2625,0.1322,1.9725,0.8545,-0.0055,-0.0009,-0.0076,-0.0326,0.0102,0.0458,0.0097,17.55,12.00
4.464,105,1,0.9916,0.314573,0.323515,-0.000000,0.2195,0.3350,0.0314,0.6481,0.3350,0.0314,0.6481,-0.167757,0.047680,-0.071056,0.982108,0.0000,,0.3393,0.0278,0.6790,0.0314,2.541175,0.0206,-0.7797,0.0256,-2.2637,0.1335,1.9780,0.8550,-0.0008,-0.0139,-0.0013,-0.0094,0.0109,0.0458,0.0039,24.75,18.67
4.513,106,1,0.9889,0.312236,0.335801,-0.000000,0.2020,0.3350,0.0275,0.6318,0.3350,0.0275,0.6318,-0.147121,0.088213,-0.096101,0.980479,0.0000,,0.3404,0.0272,0.6763,0.0448,2.462303,0.0200,-0.7787,0.0248,-2.2699,0.1342,1.9835,0.8557,-0.0056,0.0104,-0.0069,-0.0535,0.0063,0.0458,0.0059,13.39,12.00
4.544,107,1,0.9923,0.315779,0.317725,-0.000000,0.2619,0.3350,0.0332,0.6549,0.3350,0.0332,0.6549,-0.165390,0.077034,0.003760,0.983208,0.0000,,0.3396,0.0277,0.6785,0.0246,2.476946,0.0205,-0.7816,0.0254,-2.2687,0.1355,1.9889,0.8552,0.0048,-0.0268,0.0062,0.0131,0.0105,0.0458,-0.0040,33.56,26.60
4.574,108,1,0.9946,0.314384,0.320952,-0.000000,0.2674,0.3350,0.0317,0.6545,0.3350,0.0317,0.6545,-0.181330,0.108252,0.024748,0.977133,0.0000,,0.3392,0.0280,0.6797,0.0259,2.407321,0.0209,-0.7835,0.0258,-2.2690,0.1367,1.9944,0.8546,0.0034,-0.0156,0.0028,-0.0035,0.0101,0.0458,-0.0052,26.62,20.78
4.607,109,1,0.9928,0.314250,0.331449,-0.000000,0.2175,0.3350,0.0312,0.6392,0.3350,0.0312,0.6392,-0.177476,0.063216,-0.065786,0.979887,0.0000,,0.3398,0.0278,0.6782,0.0395,2.493016,0.0208,-0.7834,0.0256,-2.2734,0.1380,2.0000,0.8550,-0.0013,0.0022,-0.0020,-0.0380,0.0106,0.0458,0.0038,15.53,12.00
4.640,110,1,0.9909,0.315025,0.320017,-0.000000,0.2998,0.3350,0.0325,0.6530,0.3350,0.0325,0.6530,-0.189508,0.039487,0.030067,0.980624,0.0000,,0.3392,0.0282,0.6798,0.0275,2.535967,0.0213,-0.7857,0.0261,-2.2732,0.1394,2.0054,0.8543,0.0048,-0.0210,0.0043,0.0031,0.0119,0.0458,-0.0059,29.58,23.12
4.673,111,1,0.9891,0.315941,0.326886,-0.000000,0.2957,0.3350,0.0344,0.6455,0.3350,0.0344,0.6455,-0.163624,0.072103,-0.011470,0.983817,0.0000,,0.3394,0.0286,0.6793,0.0346,2.466441,0.0217,-0.7864,0.0267,-2.2761,0.1405,2.0109,0.8541,0.0033,-0.0047,0.0053,-0.0246,0.0092,0.0458,-0.0021,19.22,13.39
4.702,112,1,0.9911,0.316981,0.318232,-0.000000,0.2633,0.3350,0.0366,0.6567,0.3350,0.0366,0.6567,-0.172447,0.070313,-0.087971,0.978560,0.0000,,0.3388,0.0289,0.6810,0.0258,2.459450,0.0219,-0.7888,0.0271,-2.2756,0.1421,2.0164,0.8547,0.0016,-0.0209,0.0031,0.0051,0.0129,0.0457,0.0057,30.02,23.82
4.733,113,1,0.9933,0.314402,0.328438,-0.000000,0.2130,0.3350,0.0324,0.6440,0.3350,0.0324,0.6440,-0.158537,0.038331,-0.146816,0.975624,0.0000,,0.3392,0.0284,0.6801,0.0366,2.522416,0.0213,-0.7890,0.0265,-2.2792,0.1433,2.0219,0.8561,-0.0051,-0.0008,-0.0055,-0.0316,0.0104,0.0457,0.0114,17.60,12.00
4.770,114,1,0.9934,0.313652,0.328945,-0.000000,0.2060,0.3350,0.0302,0.6409,0.3350,0.0302,0.6409,-0.152202,0.044998,-0.082539,0.983868,0.0000,,0.3397,0.0280,0.6790,0.0384,2.506643,0.0210,-0.7893,0.0261,-2.2830,0.1443,2.0274,0.8566,-0.0030,-0.0023,-0.0033,-0.0313,0.0080,0.0457,0.0042,17.45,12.00
4.802,115,1,0.9905,0.314762,0.333562,-0.000000,0.2179,0.3350,0.0319,0.6337,0.3350,0.0319,0.6337,-0.158686,0.079727,-0.000025,0.984105,0.0000,,0.3405,0.0283,0.6767,0.0435,2.439885,0.0212,-0.7887,0.0265,-2.2885,0.1451,2.0329,0.8562,0.0024,0.0058,0.0043,-0.0465,0.0070,0.0458,-0.0039,13.62,12.00
4.832,116,1,0.9884,0.314980,0.332763,-0.000000,0.2338,0.3350,0.0325,0.6336,0.3350,0.0325,0.6336,-0.152021,0.099033,-0.071872,0.980773,0.0000,,0.3411,0.0282,0.6748,0.0419,2.398657,0.0212,-0.7884,0.0267,-2.2934,0.1461,2.0384,0.8565,-0.0008,0.0022,0.0008,-0.0410,0.0078,0.0458,0.0032,14.82,12.00
4.880,117,1,0.9925,0.312533,0.335257,-0.000000,0.1511,0.3350,0.0283,0.6300,0.3350,0.0283,0.6300,-0.147984,0.097423,-0.122580,0.976516,0.0000,,0.3419,0.0275,0.6726,0.0432,2.402035,0.0204,-0.7879,0.0258,-2.2989,0.1469,2.0439,0.8575,-0.0063,0.0045,-0.0076,-0.0463,0.0071,0.0458,0.0079,14.60,12.00
4.910,118,1,0.9922,0.313316,0.334033,-0.000000,0.1915,0.3350,0.0289,0.6311,0.3350,0.0289,0.6311,-0.152329,0.090698,-0.100550,0.979009,0.0000,,0.3425,0.0271,0.6710,0.0407,2.413766,0.0200,-0.7880,0.0253,-2.3034,0.1478,2.0494,0.8582,-0.0037,-0.0011,-0.0040,-0.0373,0.0079,0.0458,0.0056,16.26,12.00
4.941,119,1,0.9845,0.313651,0.327490,-0.000000,0.2716,0.3350,0.0296,0.6407,0.3350,0.0296,0.6407,-0.153348,0.082288,-0.038779,0.983976,0.0000,,0.3422,0.0270,0.6715,0.0317,2.426427,0.0199,-0.7897,0.0252,-2.3049,0.1488,2.0548,0.8581,-0.0002,-0.0152,-0.0002,-0.0115,0.0076,0.0457,-0.0004,24.50,18.20
4.974,120,1,0.9885,0.313410,0.324297,-0.000000,0.2414,0.3350,0.0293,0.6471,0.3350,0.0293,0.6471,-0.153730,0.057438,-0.109412,0.980355,0.0000,,0.3417,0.0265,0.6730,0.0269,2.466674,0.0195,-0.7921,0.0246,-2.3051,0.1499,2.0603,0.8589,-0.0039,-0.0202,-0.0052,-0.0009,0.0096,0.0457,0.0069,28.55,21.89
5.007,121,1,0.9904,0.313552,0.320311,-0.000000,0.2852,0.3350,0.0295,0.6540,0.3350,0.0295,0.6540,-0.145641,0.057102,-0.015899,0.987560,0.0000,,0.3408,0.0265,0.6754,0.0224,2.461077,0.0196,-0.7951,0.0247,-2.3038,0.1508,2.0658,0.8586,0.0009,-0.0261,0.0010,0.0111,0.0071,0.0457,-0.0029,32.78,26.09
5.039,122,1,0.9913,0.311126,0.315185,-0.000000,0.2521,0.3350,0.0252,0.6626,0.3350,0.0252,0.6626,-0.170199,0.087684,-0.095115,0.976881,0.0000,,0.3398,0.0256,0.6786,0.0167,2.383274,0.0189,-0.7987,0.0234,-2.3013,0.1520,2.0713,0.8593,-0.0062,-0.0301,-0.0112,0.0215,0.0100,0.0457,0.0058,36.96,29.69
5.071,123,1,0.9931,0.312529,0.318176,-0.000000,0.2526,0.3350,0.0269,0.6598,0.3350,0.0269,0.6598,-0.164765,0.067809,0.001172,0.983998,0.0000,,0.3390,0.0255,0.6807,0.0213,2.418237,0.0189,-0.8014,0.0233,-2.3003,0.1529,2.0768,0.8588,0.0006,-0.0219,-0.0009,0.0076,0.0079,0.0457,-0.0041,30.83,24.81
5.105,124,1,0.9887,0.307533,0.308364,-0.000000,0.2356,0.3350,0.0182,0.6735,0.3350,0.0182,0.6735,-0.198141,0.048761,-0.109080,0.972864,0.0000,,0.3375,0.0238,0.6850,0.0130,2.435803,0.0176,-0.8056,0.0207,-2.2962,0.1544,2.0822,0.8598,-0.0115,-0.0361,-0.0226,0.0354,0.0122,0.0457,0.0082,42.94,34.48
5.131,125,1,0.9918,0.308345,0.314897,-0.000000,0.2313,0.3350,0.0181,0.6665,0.3350,0.0181,0.6665,-0.191808,0.093332,-0.074825,0.974115,0.0000,,0.3370,0.0225,0.6868,0.0209,2.338425,0.0166,-0.8078,0.0188,-2.2956,0.1556,2.0878,0.8602,-0.0077,-0.0172,-0.0152,0.0036,0.0100,0.0457,0.0039,29.51,23.30
5.166,126,1,0.9929,0.311199,0.318628,-0.000000,0.2368,0.3350,0.0233,0.6599,0.3350,0.0233,0.6599,-0.186501,0.075133,-0.060399,0.977714,0.0000,,0.3369,0.0220,0.6873,0.0275,2.370030,0.0163,-0.8090,0.0182,-2.2969,0.1569,2.0933,0.8605,-0.0023,-0.0097,-0.0049,-0.0112,0.0107,0.0457,0.0024,23.43,18.12
5.214,127,1,0.9912,0.309707,0.324425,-0.000000,0.2390,0.3350,0.0215,0.6503,0.3350,0.0215,0.6503,-0.176865,0.057224,-0.013350,0.982480,0.0000,,0.3374,0.0216,0.6862,0.0360,2.407146,0.0161,-0.8090,0.0176,-2.3006,0.1578,2.0988,0.8602,-0.0020,0.0004,-0.0048,-0.0318,0.0079,0.0457,-0.0024,16.93,12.00
5.246,128,1,0.9928,0.309312,0.310515,-0.000000,0.2783,0.3350,0.0205,0.6687,0.3350,0.0205,0.6687,-0.164736,0.057969,-0.026075,0.984287,0.0000,,0.3365,0.0210,0.6887,0.0201,2.395715,0.0157,-0.8118,0.0168,-2.2989,0.1588,2.1042,0.8601,-0.0032,-0.0253,-0.0071,0.0161,0.0080,0.0457,-0.0015,33.87,27.71
5.278,129,1,0.9906,0.312898,0.313510,-0.000000,0.3421,0.3350,0.0267,0.6677,0.3350,0.0267,0.6677,-0.149696,0.084458,0.052364,0.983726,0.0000,,0.3360,0.0216,0.6902,0.0231,2.343478,0.0164,-0.8137,0.0177,-2.2987,0.1595,2.1097,0.8589,0.0057,-0.0152,0.0085,0.0007,0.0059,0.0457,-0.0096,27.54,22.29
5.310,130,1,0.9924,0.310108,0.309105,-0.000000,0.2755,0.3350,0.0228,0.6738,0.3350,0.0228,0.6738,-0.181712,0.029374,-0.020084,0.982708,0.0000,,0.3351,0.0212,0.6927,0.0189,2.434585,0.0162,-0.8164,0.0172,-2.2970,0.1607,2.1152,0.8588,-0.0016,-0.0232,-0.0052,0.0153,0.0104,0.0457,-0.0011,33.06,27.38
5.340,131,1,0.9910,0.311954,0.328265,-0.000000,0.1904,0.3350,0.0255,0.6473,0.3350,0.0255,0.6473,-0.175720,0.068740,-0.085645,0.978296,0.0000,,0.3363,0.0211,0.6896,0.0426,2.355680,0.0161,-0.8148,0.0171,-2.3035,0.1619,2.1203,0.8593,-0.0013,0.0161,-0.0007,-0.0571,0.0099,0.0421,0.0047,12.55,11.28
5.373,132,1,0.9927,0.311644,0.313785,-0.000000,0.2770,0.3350,0.0254,0.6634,0.3350,0.0254,0.6634,-0.174155,0.064781,0.002257,0.982582,0.0000,,0.3360,0.0212,0.6906,0.0275,2.362182,0.0163,-0.8164,0.0174,-2.3039,0.1630,2.1257,0.8589,0.0025,-0.0155,0.0027,-0.0016,0.0090,0.0457,-0.0041,26.75,21.48
5.407,133,1,0.9886,0.311343,0.320753,-0.000000,0.2020,0.3350,0.0248,0.6563,0.3350,0.0248,0.6563,-0.188352,0.071062,-0.117972,0.972397,0.0000,,0.3364,0.0208,0.6896,0.0337,2.340673,0.0160,-0.8164,0.0168,-2.3074,0.1645,2.1312,0.8598,-0.0033,0.0009,-0.0049,-0.0297,0.0124,0.0457,0.0082,17.59,12.00
5.439,134,1,0.9952,0.309222,0.324165,-0.000000,0.1703,0.3350,0.0209,0.6501,0.3350,0.0209,0.6501,-0.171399,0.088097,-0.140650,0.971122,0.0000,,0.3372,0.0199,0.6878,0.0379,2.306672,0.0152,-0.8159,0.0157,-2.3120,0.1657,2.1367,0.8609,-0.0068,0.0050,-0.0097,-0.0392,0.0100,0.0457,0.0093,15.93,12.00
5.470,135,1,0.9914,0.311540,0.324900,-0.000000,0.2721,0.3350,0.0244,0.6479,0.3350,0.0244,0.6479,-0.182756,0.112480,-0.037823,0.975970,0.0000,,0.3379,0.0200,0.6860,0.0385,2.259414,0.0153,-0.8154,0.0159,-2.3167,0.1668,2.1422,0.8609,0.0017,0.0041,0.0026,-0.0388,0.0094,0.0457,-0.0004,15.02,12.00
5.504,136,1,0.9907,0.312310,0.315827,-0.000000,0.2250,0.3350,0.0264,0.6606,0.3350,0.0264,0.6606,-0.186618,0.046380,-0.065206,0.979168,0.0000,,0.3375,0.0201,0.6871,0.0274,2.383415,0.0155,-0.8172,0.0161,-2.3171,0.1683,2.1477,0.8612,0.0012,-0.0162,0.0016,-0.0021,0.0124,0.0457,0.0028,26.88,21.39
5.550,137,1,0.9913,0.312877,0.321686,-0.000000,0.2643,0.3350,0.0278,0.6544,0.3350,0.0278,0.6544,-0.178850,0.060787,0.028607,0.981580,0.0000,,0.3377,0.0208,0.6866,0.0331,2.359240,0.0162,-0.8177,0.0172,-2.3199,0.1694,2.1532,0.8605,0.0062,-0.0037,0.0092,-0.0240,0.0087,0.0457,-0.0065,19.40,13.72
5.580,138,1,0.9923,0.309944,0.323943,-0.000000,0.2081,0.3350,0.0227,0.6500,0.3350,0.0227,0.6500,-0.163897,0.074672,-0.048456,0.982453,0.0000,,0.3381,0.0205,0.6855,0.0357,2.324195,0.0160,-0.8178,0.0168,-2.3236,0.1703,2.1587,0.8605,-0.0023,-0.0003,-0.0035,-0.0314,0.0076,0.0457,0.0005,17.03,12.00
5.611,139,1,0.9918,0.311949,0.324365,-0.000000,0.2139,0.3350,0.0254,0.6486,0.3350,0.0254,0.6486,-0.185892,0.047644,-0.074910,0.978551,0.0000,,0.3385,0.0204,0.6844,0.0363,2.373051,0.0160,-0.8180,0.0169,-2.3272,0.1717,2.1642,0.8609,0.0000,-0.0016,0.0003,-0.0303,0.0115,0.0457,0.0036,17.43,12.00
5.647,140,1,0.9928,0.312232,0.319571,-0.000000,0.2741,0.3350,0.0264,0.6553,0.3350,0.0264,0.6553,-0.192612,0.053675,-0.007338,0.979778,0.0000,,0.3383,0.0207,0.6848,0.0302,2.359706,0.0164,-0.8193,0.0174,-2.3288,0.1729,2.1696,0.8606,0.0037,-0.0114,0.0045,-0.0121,0.0108,0.0457,-0.0028,23.40,17.97
5.679,141,1,0.9941,0.311289,0.332479,-0.000000,0.1626,0.3350,0.0249,0.6379,0.3350,0.0249,0.6379,-0.182656,0.048379,-0.103206,0.976547,0.0000,,0.3394,0.0204,0.6817,0.0442,2.368122,0.0161,-0.8180,0.0171,-2.3354,0.1743,2.1747,0.8614,-0.0023,0.0125,-0.0025,-0.0570,0.0111,0.0416,0.0063,12.24,11.18
5.706,142,1,0.9921,0.312978,0.319595,-0.000000,0.2220,0.3350,0.0277,0.6533,0.3350,0.0277,0.6533,-0.201889,0.066316,-0.084926,0.973463,0.0000,,0.3392,0.0206,0.6822,0.0301,2.325655,0.0163,-0.8195,0.0174,-2.3366,0.1759,2.1801,0.8619,0.0019,-0.0145,0.0026,-0.0079,0.0139,0.0457,0.0047,25.14,19.47
5.740,143,1,0.9924,0.311807,0.326804,-0.000000,0.1734,0.3350,0.0261,0.6457,0.3350,0.0261,0.6457,-0.178425,0.078430,-0.131555,0.971960,0.0000,,0.3396,0.0203,0.6809,0.0360,2.300139,0.0161,-0.8195,0.0172,-2.3406,0.1774,2.1856,0.8629,-0.0022,0.0009,-0.0017,-0.0349,0.0117,0.0457,0.0084,16.37,12.00
5.771,144,1,0.9916,0.311796,0.314468,-0.000000,0.2471,0.3350,0.0258,0.6621,0.3350,0.0258,0.6621,-0.200860,0.035438,-0.063187,0.976938,0.0000,,0.3387,0.0203,0.6833,0.0221,2.377116,0.0162,-0.8223,0.0172,-2.3393,0.1790,2.1911,0.8633,0.0011,-0.0255,0.0002,0.0130,0.0135,0.0458,0.0027,33.01,26.80
5.807,145,1,0.9920,0.311491,0.326006,-0.000000,0.1860,0.3350,0.0252,0.6485,0.3350,0.0252,0.6485,-0.181042,0.073531,-0.122075,0.973095,0.0000,,0.3391,0.0200,0.6821,0.0343,2.297960,0.0159,-0.8224,0.0170,-2.3431,0.1804,2.1966,0.8642,-0.0023,0.0010,-0.0022,-0.0337,0.0116,0.0458,0.0075,16.60,12.00
5.838,146,1,0.9894,0.310315,0.318063,-0.000000,0.2393,0.3350,0.0229,0.6575,0.3350,0.0229,0.6575,-0.193923,0.061150,-0.074272,0.976288,0.0000,,0.3387,0.0196,0.6832,0.0263,2.316351,0.0158,-0.8243,0.0166,-2.3436,0.1818,2.2021,0.8646,-0.0015,-0.0166,-0.0034,-0.0027,0.0118,0.0458,0.0032,26.95,21.33
5.865,147,1,0.9923,0.312281,0.320241,-0.000000,0.2118,0.3350,0.0261,0.6559,0.3350,0.0261,0.6559,-0.173244,0.062744,-0.027209,0.982502,0.0000,,0.3385,0.0199,0.6837,0.0286,2.312739,0.0161,-0.8256,0.0171,-2.3451,0.1828,2.2076,0.8643,0.0030,-0.0105,0.0051,-0.0127,0.0088,0.0458,-0.0019,23.04,17.82
5.919,148,1,0.9883,0.310555,0.319961,-0.000000,0.2000,0.3350,0.0235,0.6561,0.3350,0.0235,0.6561,-0.194369,0.031907,-0.096922,0.975607,0.0000,,0.3383,0.0195,0.6841,0.0286,2.362855,0.0158,-0.8269,0.0167,-2.3465,0.1844,2.2131,0.8650,-0.0025,-0.0112,-0.0045,-0.0117,0.0128,0.0458,0.0058,23.63,18.16
5.948,149,1,0.9921,0.309382,0.319104,-0.000000,0.1679,0.3350,0.0209,0.6573,0.3350,0.0209,0.6573,-0.192225,0.044561,-0.152781,0.968360,0.0000,,0.3381,0.0187,0.6846,0.0276,2.330743,0.0151,-0.8282,0.0155,-2.3478,0.1860,2.2186,0.8663,-0.0061,-0.0108,-0.0096,-0.0115,0.0136,0.0458,0.0107,24.10,18.23
5.985,150,1,0.9905,0.309998,0.314438,-0.000000,0.1933,0.3350,0.0216,0.6643,0.3350,0.0216,0.6643,-0.195887,0.047132,-0.040634,0.978650,0.0000,,0.3374,0.0184,0.6864,0.0224,2.321405,0.0151,-0.8304,0.0153,-2.3473,0.1873,2.2240,0.8663,0.0001,-0.0193,-0.0014,0.0048,0.0110,0.0458,-0.0001,29.36,23.92
6.011,151,1,0.9922,0.312655,0.313552,-0.000000,0.2171,0.3350,0.0265,0.6668,0.3350,0.0265,0.6668,-0.179142,0.046571,0.007891,0.982689,0.0000,,0.3367,0.0190,0.6881,0.0227,2.320554,0.0157,-0.8326,0.0163,-2.3468,0.1884,2.2295,0.8657,0.0055,-0.0183,0.0085,0.0047,0.0088,0.0458,-0.0050,29.25,23.89
6.047,152,1,0.9875,0.312321,0.313391,-0.000000,0.2194,0.3350,0.0268,0.6675,0.3350,0.0268,0.6675,-0.197577,0.016460,-0.050345,0.978855,0.0000,,0.3361,0.0193,0.6897,0.0235,2.365920,0.0160,-0.8346,0.0167,-2.3465,0.1899,2.2350,0.8659,0.0025,-0.0168,0.0034,0.0026,0.0126,0.0458,0.0015,28.24,23.13
6.078,153,1,0.9943,0.312642,0.322112,-0.000000,0.1989,0.3350,0.0274,0.6550,0.3350,0.0274,0.6550,-0.200805,0.032691,-0.070849,0.976519,0.0000,,0.3365,0.0195,0.6886,0.0345,2.329867,0.0163,-0.8346,0.0172,-2.3501,0.1914,2.2406,0.8663,0.0023,0.0015,0.0042,-0.0315,0.0126,0.0458,0.0033,16.88,12.00
6.110,154,1,0.9875,0.313995,0.323248,-0.000000,0.2363,0.3350,0.0300,0.6512,0.3350,0.0300,0.6512,-0.182050,0.032908,-0.042776,0.981807,0.0000,,0.3370,0.0201,0.6873,0.0375,2.331515,0.0169,-0.8345,0.0184,-2.3541,0.1926,2.2461,0.8662,0.0051,0.0012,0.0099,-0.0332,0.0101,0.0458,-0.0002,16.74,12.00
6.146,155,1,0.9857,0.315541,0.320344,-0.000000,0.2223,0.3350,0.0332,0.6546,0.3350,0.0332,0.6546,-0.195412,0.041320,-0.024146,0.979553,0.0000,,0.3371,0.0212,0.6868,0.0344,2.312057,0.0179,-0.8350,0.0200,-2.3567,0.1940,2.2516,0.8661,0.0081,-0.0048,0.0139,-0.0218,0.0113,0.0458,-0.0014,20.48,14.63
6.173,156,1,0.9914,0.314617,0.320120,-0.000000,0.1759,0.3350,0.0321,0.6556,0.3350,0.0321,0.6556,-0.191373,0.002243,-0.146838,0.970469,0.0000,,0.3371,0.0213,0.6865,0.0328,2.381138,0.0180,-0.8357,0.0205,-2.3591,0.1957,2.2571,0.8673,0.0008,-0.0060,0.0037,-0.0196,0.0149,0.0458,0.0105,20.70,15.39
6.206,157,1,0.9918,0.312797,0.327754,-0.000000,0.2072,0.3350,0.0287,0.6448,0.3350,0.0287,0.6448,-0.170870,0.034732,-0.087590,0.980778,0.0000,,0.3379,0.0215,0.6843,0.0403,2.319630,0.0181,-0.8349,0.0210,-2.3644,0.1969,2.2625,0.8678,0.0006,0.0075,0.0036,-0.0457,0.0094,0.0454,0.0034,13.72,11.91
6.253,158,1,0.9844,0.316609,0.319269,-0.000000,0.2744,0.3350,0.0349,0.6550,0.3350,0.0349,0.6550,-0.165146,0.041867,-0.025312,0.985055,0.0000,,0.3377,0.0225,0.6845,0.0321,2.305577,0.0190,-0.8361,0.0228,-2.3660,0.1979,2.2680,0.8674,0.0082,-0.0109,0.0158,-0.0120,0.0082,0.0458,-0.0027,23.92,18.12
6.286,159,1,0.9852,0.313054,0.310276,-0.000000,0.2459,0.3350,0.0296,0.6699,0.3350,0.0296,0.6699,-0.205800,0.014567,-0.029907,0.978029,0.0000,,0.3366,0.0228,0.6873,0.0188,2.345754,0.0194,-0.8391,0.0232,-2.3639,0.1993,2.2735,0.8674,0.0027,-0.0261,0.0026,0.0187,0.0122,0.0459,-0.0002,34.61,28.85
6.318,160,1,0.9937,0.313964,0.318014,-0.000000,0.2266,0.3350,0.0303,0.6614,0.3350,0.0303,0.6614,-0.200636,0.023266,-0.094145,0.974854,0.0000,,0.3364,0.0228,0.6877,0.0274,2.319466,0.0195,-0.8401,0.0234,-2.3654,0.2009,2.2790,0.8681,0.0009,-0.0077,0.0020,-0.0136,0.0130,0.0459,0.0054,22.39,17.53
6.351,161,1,0.9799,0.311890,0.317214,-0.000000,0.2207,0.3350,0.0267,0.6610,0.3350,0.0267,0.6610,-0.193612,0.003174,-0.120315,0.973668,0.0000,,0.3362,0.0223,0.6882,0.0276,2.353696,0.0191,-0.8413,0.0229,-2.3667,0.2024,2.2845,0.8690,-0.0033,-0.0100,-0.0048,-0.0107,0.0129,0.0459,0.0076,23.70,18.54
6.381,162,1,0.9911,0.307997,0.326359,-0.000000,0.2546,0.3350,0.0190,0.6477,0.3350,0.0190,0.6477,-0.187080,0.062368,-0.004970,0.980350,0.0000,,0.3370,0.0216,0.6860,0.0384,2.243894,0.0186,-0.8405,0.0219,-2.3720,0.2032,2.2898,0.8685,-0.0040,0.0082,-0.0078,-0.0453,0.0063,0.0440,-0.0040,14.10,11.63
6.418,163,1,0.9872,0.312564,0.313004,-0.000000,0.2348,0.3350,0.0259,0.6646,0.3350,0.0259,0.6646,-0.179161,0.031240,-0.046564,0.982221,0.0000,,0.3364,0.0215,0.6876,0.0234,2.294857,0.0187,-0.8426,0.0220,-2.3715,0.2043,2.2953,0.8684,0.0005,-0.0195,0.0008,0.0059,0.0091,0.0459,-0.0003,29.61,24.39
6.447,164,1,0.9860,0.311938,0.324519,-0.000000,0.2562,0.3350,0.0260,0.6510,0.3350,0.0260,0.6510,-0.179039,0.044802,0.016648,0.982680,0.0000,,0.3369,0.0217,0.6861,0.0353,2.273469,0.0190,-0.8423,0.0225,-2.3758,0.2050,2.3008,0.8677,0.0027,0.0043,0.0046,-0.0374,0.0062,0.0459,-0.0060,15.36,12.00
6.478,165,1,0.9891,0.312680,0.310065,-0.000000,0.2329,0.3350,0.0273,0.6695,0.3350,0.0273,0.6695,-0.185028,0.052534,-0.043854,0.980348,0.0000,,0.3360,0.0217,0.6884,0.0198,2.241533,0.0191,-0.8449,0.0228,-2.3742,0.2062,2.3063,0.8677,0.0012,-0.0235,0.0018,0.0148,0.0095,0.0459,-0.0002,32.89,27.52
6.511,166,1,0.9875,0.307640,0.319429,-0.000000,0.1929,0.3350,0.0185,0.6593,0.3350,0.0185,0.6593,-0.188748,0.066235,-0.147940,0.968556,0.0000,,0.3362,0.0203,0.6879,0.0288,2.205455,0.0180,-0.8452,0.0209,-2.3770,0.2076,2.3119,0.8688,-0.0101,-0.0013,-0.0162,-0.0243,0.0116,0.0459,0.0094,20.54,13.79
6.546,167,1,0.9904,0.306979,0.314462,-0.000000,0.1961,0.3350,0.0157,0.6646,0.3350,0.0157,0.6646,-0.206740,0.043548,-0.100123,0.972285,0.0000,,0.3359,0.0190,0.6889,0.0245,2.243315,0.0170,-0.8467,0.0191,-2.3775,0.2090,2.3173,0.8695,-0.0081,-0.0132,-0.0152,-0.0038,0.0120,0.0460,0.0053,26.84,20.99
6.592,168,1,0.9887,0.306263,0.318939,-0.000000,0.2160,0.3350,0.0139,0.6591,0.3350,0.0139,0.6591,-0.195252,0.043301,-0.078439,0.976652,0.0000,,0.3360,0.0177,0.6885,0.0297,2.241746,0.0160,-0.8472,0.0174,-2.3801,0.2102,2.3229,0.8698,-0.0079,-0.0034,-0.0144,-0.0218,0.0099,0.0460,0.0029,20.78,14.67
6.624,169,1,0.9910,0.305406,0.310448,-0.000000,0.2302,0.3350,0.0120,0.6704,0.3350,0.0120,0.6704,-0.192703,0.061058,-0.106261,0.973574,0.0000,,0.3353,0.0162,0.6903,0.0204,2.196038,0.0149,-0.8492,0.0153,-2.3794,0.2115,2.3284,0.8704,-0.0095,-0.0182,-0.0171,0.0070,0.0108,0.0460,0.0052,30.76,24.75
6.652,170,1,0.9895,0.302771,0.309361,-0.000000,0.2221,0.3350,0.0070,0.6740,0.3350,0.0070,0.6740,-0.206259,0.074643,-0.016326,0.975510,0.0000,,0.3346,0.0146,0.6922,0.0198,2.166686,0.0139,-0.8513,0.0132,-2.3785,0.2125,2.3339,0.8701,-0.0085,-0.0173,-0.0181,0.0073,0.0084,0.0460,-0.0026,30.62,24.85
6.685,171,1,0.9952,0.305536,0.315965,-0.000000,0.2310,0.3350,0.0110,0.6651,0.3350,0.0110,0.6651,-0.150304,0.081998,-0.089366,0.981172,0.0000,,0.3348,0.0135,0.6920,0.0271,2.146265,0.0130,-0.8517,0.0118,-2.3807,0.2132,2.3394,0.8703,-0.0077,-0.0028,-0.0114,-0.0194,0.0060,0.0460,0.0018,20.88,15.49
6.720,172,1,0.9931,0.305993,0.309081,-0.000000,0.1996,0.3350,0.0126,0.6734,0.3350,0.0126,0.6734,-0.192077,0.061805,-0.141093,0.969216,0.0000,,0.3342,0.0123,0.6936,0.0202,2.171562,0.0121,-0.8535,0.0104,-2.3803,0.2147,2.3449,0.8713,-0.0071,-0.0154,-0.0118,0.0044,0.0125,0.0461,0.0082,29.06,23.81
6.748,173,1,0.9943,0.305088,0.314266,-0.000000,0.2350,0.3350,0.0112,0.6674,0.3350,0.0112,0.6674,-0.190219,0.077549,-0.053042,0.977236,0.0000,,0.3342,0.0116,0.6936,0.0262,2.141335,0.0116,-0.8540,0.0095,-2.3822,0.2158,2.3505,0.8713,-0.0038,-0.0039,-0.0073,-0.0166,0.0087,0.0461,-0.0000,21.23,16.46
6.786,174,1,0.9923,0.304866,0.309737,-0.000000,0.2405,0.3350,0.0106,0.6729,0.3350,0.0106,0.6729,-0.196198,0.029980,-0.132647,0.971088,0.0000,,0.3338,0.0105,0.6948,0.0219,2.222794,0.0108,-0.8555,0.0080,-2.3822,0.2173,2.3560,0.8723,-0.0072,-0.0131,-0.0125,0.0002,0.0130,0.0461,0.0079,27.56,22.34
6.813,175,1,0.9921,0.306763,0.313791,-0.000000,0.2779,0.3350,0.0139,0.6680,0.3350,0.0139,0.6680,-0.190539,0.070780,0.005615,0.979109,0.0000,,0.3338,0.0105,0.6947,0.0269,2.151520,0.0110,-0.8560,0.0082,-2.3842,0.2182,2.3616,0.8716,0.0022,-0.0035,0.0027,-0.0170,0.0070,0.0461,-0.0053,20.74,16.30
6.846,176,1,0.9938,0.306446,0.319226,-0.000000,0.1846,0.3350,0.0139,0.6593,0.3350,0.0139,0.6593,-0.186121,0.051316,-0.103431,0.975719,0.0000,,0.3344,0.0100,0.6931,0.0340,2.177179,0.0107,-0.8554,0.0078,-2.3883,0.2194,2.3671,0.8722,-0.0030,0.0055,-0.0042,-0.0355,0.0107,0.0461,0.0047,15.99,12.00
6.878,177,1,0.9945,0.306742,0.311447,-0.000000,0.1441,0.3350,0.0145,0.6690,0.3350,0.0145,0.6690,-0.189932,0.048820,-0.157991,0.967771,0.0000,,0.3342,0.0094,0.6937,0.0252,2.173520,0.0102,-0.8565,0.0072,-2.3893,0.2210,2.3726,0.8733,-0.0038,-0.0096,-0.0050,-0.0070,0.0133,0.0462,0.0095,24.60,19.86
6.905,178,1,0.9903,0.310076,0.307963,-0.000000,0.2681,0.3350,0.0206,0.6757,0.3350,0.0206,0.6757,-0.203273,-0.006729,-0.002034,0.979097,0.0000,,0.3334,0.0102,0.6955,0.0224,2.288967,0.0111,-0.8585,0.0086,-2.3884,0.2222,2.3782,0.8729,0.0078,-0.0174,0.0124,0.0080,0.0100,0.0462,-0.0037,30.13,25.09
6.958,179,1,0.9858,0.311855,0.316162,-0.000000,0.2273,0.3350,0.0249,0.6651,0.3350,0.0249,0.6651,-0.183042,0.036246,-0.045861,0.981366,0.0000,,0.3337,0.0112,0.6948,0.0327,2.196710,0.0120,-0.8584,0.0104,-2.3914,0.2233,2.3837,0.8728,0.0077,0.0016,0.0151,-0.0262,0.0091,0.0462,-0.0004,18.85,13.09
6.990,180,1,0.9878,0.310662,0.318878,-0.000000,0.2369,0.3350,0.0235,0.6593,0.3350,0.0235,0.6593,-0.178123,0.056556,-0.018618,0.982205,0.0000,,0.3343,0.0121,0.6932,0.0358,2.159615,0.0128,-0.8579,0.0120,-2.3955,0.2242,2.3892,0.8725,0.0068,0.0048,0.0131,-0.0342,0.0071,0.0452,-0.0032,16.54,11.81
7.015,181,1,0.9946,0.308598,0.317667,-0.000000,0.1930,0.3350,0.0195,0.6600,0.3350,0.0195,0.6600,-0.199922,0.079994,-0.066763,0.974256,0.0000,,0.3347,0.0122,0.6920,0.0329,2.102979,0.0130,-0.8576,0.0124,-2.3990,0.2254,2.3947,0.8727,0.0016,0.0021,0.0031,-0.0294,0.0103,0.0462,0.0018,17.26,12.03
7.055,182,1,0.9932,0.310312,0.312162,-0.000000,0.1916,0.3350,0.0219,0.6680,0.3350,0.0219,0.6680,-0.198074,0.045542,-0.069117,0.976686,0.0000,,0.3344,0.0126,0.6927,0.0263,2.166255,0.0135,-0.8587,0.0132,-2.3999,0.2267,2.4002,0.8729,0.0036,-0.0102,0.0068,-0.0064,0.0108,0.0462,0.0019,24.63,20.09
7.087,183,1,0.9931,0.311126,0.317002,-0.000000,0.2255,0.3350,0.0238,0.6625,0.3350,0.0238,0.6625,-0.195548,0.030713,-0.045155,0.979173,0.0000,,0.3346,0.0133,0.6921,0.0314,2.195766,0.0141,-0.8589,0.0144,-2.4026,0.2279,2.4058,0.8729,0.0055,-0.0010,0.0102,-0.0234,0.0097,0.0462,-0.0001,19.25,14.13
7.118,184,1,0.9916,0.310396,0.313414,-0.000000,0.2095,0.3350,0.0228,0.6667,0.3350,0.0228,0.6667,-0.196177,0.035040,-0.100966,0.974727,0.0000,,0.3344,0.0135,0.6924,0.0274,2.176910,0.0143,-0.8598,0.0150,-2.4040,0.2293,2.4113,0.8735,0.0019,-0.0077,0.0045,-0.0107,0.0118,0.0462,0.0049,23.09,18.60
7.149,185,1,0.9941,0.309073,0.316311,-0.000000,0.2135,0.3350,0.0203,0.6633,0.3350,0.0203,0.6633,-0.190267,0.045869,-0.112655,0.974168,0.0000,,0.3345,0.0133,0.6919,0.0294,2.151688,0.0143,-0.8600,0.0151,-2.4066,0.2306,2.4169,0.8741,-0.0006,-0.0014,0.0006,-0.0221,0.0112,0.0463,0.0054,19.35,14.60
7.182,186,1,0.9930,0.309908,0.318634,-0.000000,0.2260,0.3350,0.0213,0.6593,0.3350,0.0213,0.6593,-0.175983,0.075359,-0.089996,0.977370,0.0000,,0.3350,0.0135,0.6907,0.0324,2.093915,0.0144,-0.8598,0.0156,-2.4101,0.2317,2.4224,0.8744,0.0013,0.0024,0.0048,-0.0298,0.0086,0.0463,0.0024,17.15,12.00
7.214,187,1,0.9928,0.309009,0.306838,-0.000000,0.2388,0.3350,0.0199,0.6756,0.3350,0.0199,0.6756,-0.197662,0.005916,-0.122623,0.972552,0.0000,,0.3340,0.0132,0.6931,0.0187,2.218889,0.0143,-0.8622,0.0155,-2.4085,0.2332,2.4279,0.8752,-0.0013,-0.0217,-0.0015,0.0154,0.0130,0.0463,0.0069,32.75,27.77
7.246,188,1,0.9936,0.309375,0.314270,-0.000000,0.2076,0.3350,0.0203,0.6678,0.3350,0.0203,0.6678,-0.205686,0.041822,-0.090823,0.973496,0.0000,,0.3339,0.0132,0.6931,0.0263,2.143966,0.0144,-0.8627,0.0157,-2.4103,0.2346,2.4335,0.8757,0.0010,-0.0033,0.0023,-0.0165,0.0116,0.0463,0.0040,20.99,16.57
7.292,189,1,0.9928,0.307712,0.305833,-0.000000,0.2067,0.3350,0.0174,0.6786,0.3350,0.0174,0.6786,-0.208852,0.036427,-0.066758,0.974986,0.0000,,0.3330,0.0129,0.6953,0.0174,2.147487,0.0143,-0.8649,0.0155,-2.4088,0.2359,2.4391,0.8760,-0.0006,-0.0194,-0.0018,0.0138,0.0110,0.0463,0.0020,31.79,27.18
7.327,190,1,0.9904,0.307734,0.304083,-0.000000,0.1966,0.3350,0.0169,0.6831,0.3350,0.0169,0.6831,-0.203252,0.006267,-0.094578,0.974528,0.0000,,0.3320,0.0124,0.6978,0.0157,2.195810,0.0141,-0.8672,0.0151,-2.4069,0.2374,2.4446,0.8765,-0.0020,-0.0191,-0.0034,0.0155,0.0120,0.0464,0.0045,32.26,27.76
7.353,191,1,0.9915,0.308920,0.310694,-0.000000,0.2229,0.3350,0.0189,0.6743,0.3350,0.0189,0.6743,-0.203824,0.043147,0.000597,0.978056,0.0000,,0.3319,0.0127,0.6980,0.0247,2.129329,0.0146,-0.8678,0.0158,-2.4083,0.2383,2.4502,0.8760,0.0040,-0.0038,0.0062,-0.0125,0.0075,0.0464,-0.0042,22.10,17.93
7.380,192,1,0.9909,0.310402,0.312373,-0.000000,0.2190,0.3350,0.0220,0.6703,0.3350,0.0220,0.6703,-0.202240,0.047830,-0.016191,0.978033,0.0000,,0.3320,0.0133,0.6977,0.0288,2.114071,0.0152,-0.8679,0.0169,-2.4106,0.2393,2.4558,0.8757,0.0051,-0.0007,0.0088,-0.0193,0.0081,0.0464,-0.0026,20.14,15.54
7.407,193,1,0.9944,0.308622,0.307604,-0.000000,0.2088,0.3350,0.0193,0.6765,0.3350,0.0193,0.6765,-0.197197,0.038615,-0.049327,0.978360,0.0000,,0.3317,0.0133,0.6985,0.0231,2.122180,0.0153,-0.8689,0.0171,-2.4110,0.2403,2.4614,0.8757,0.0010,-0.0093,0.0019,-0.0028,0.0090,0.0464,0.0001,25.34,21.33
7.454,194,1,0.9943,0.312384,0.322199,-0.000000,0.2119,0.3350,0.0256,0.6565,0.3350,0.0256,0.6565,-0.184392,0.071499,0.011440,0.980182,0.0000,,0.3329,0.0144,0.6951,0.0402,2.071696,0.0163,-0.8670,0.0190,-2.4174,0.2409,2.4653,0.8750,0.0086,0.0182,0.0166,-0.0555,0.0049,0.0322,-0.0059,13.12,9.14
7.485,195,1,0.9894,0.309142,0.310142,-0.000000,0.2153,0.3350,0.0209,0.6703,0.3350,0.0209,0.6703,-0.199630,0.045491,-0.079621,0.975571,0.0000,,0.3327,0.0143,0.6955,0.0262,2.104284,0.0163,-0.8678,0.0192,-2.4184,0.2422,2.4708,0.8753,-0.0000,-0.0089,0.0005,-0.0065,0.0104,0.0464,0.0029,24.29,20.07
7.518,196,1,0.9933,0.307763,0.303592,-0.000000,0.2287,0.3350,0.0176,0.6823,0.3350,0.0176,0.6823,-0.208218,0.002180,-0.087406,0.974167,0.0000,,0.3317,0.0138,0.6979,0.0164,2.179767,0.0161,-0.8700,0.0187,-2.4167,0.2436,2.4763,0.8758,-0.0022,-0.0191,-0.0043,0.0154,0.0118,0.0465,0.0041,32.24,27.72
7.547,197,1,0.9938,0.308627,0.309542,-0.000000,0.2308,0.3350,0.0185,0.6758,0.3350,0.0185,0.6758,-0.181236,0.014294,-0.055970,0.981742,0.0000,,0.3315,0.0136,0.6984,0.0234,2.155844,0.0160,-0.8708,0.0188,-2.4176,0.2445,2.4820,0.8758,-0.0002,-0.0054,0.0010,-0.0090,0.0078,0.0465,-0.0001,23.12,19.16
7.578,198,1,0.9937,0.307450,0.310036,-0.000000,0.2091,0.3350,0.0166,0.6740,0.3350,0.0166,0.6740,-0.214652,0.002770,-0.109701,0.970506,0.0000,,0.3314,0.0130,0.6986,0.0252,2.165855,0.0156,-0.8713,0.0181,-2.4191,0.2461,2.4875,0.8766,-0.0032,-0.0042,-0.0058,-0.0120,0.0133,0.0465,0.0063,22.56,18.12
7.630,199,1,0.9928,0.308092,0.316215,-0.000000,0.2152,0.3350,0.0174,0.6647,0.3350,0.0174,0.6647,-0.185239,-0.002176,-0.130419,0.973998,0.0000,,0.3321,0.0125,0.6971,0.0329,2.175855,0.0153,-0.8705,0.0177,-2.4231,0.2475,2.4932,0.8774,-0.0032,0.0069,-0.0031,-0.0341,0.0115,0.0465,0.0066,16.37,12.00
7.661,200,1,0.9914,0.307593,0.324194,-0.000000,0.2419,0.3350,0.0166,0.6515,0.3350,0.0166,0.6515,-0.174866,0.057756,-0.124325,0.975002,0.0000,,0.3335,0.0121,0.6931,0.0419,2.062547,0.0149,-0.8682,0.0175,-2.4303,0.2487,2.4971,0.8780,-0.0030,0.0201,-0.0021,-0.0613,0.0096,0.0325,0.0049,12.03,9.18
7.689,201,1,0.9924,0.309375,0.309704,0.000000,0.2845,0.3350,0.0197,0.6701,0.3350,0.0197,0.6701,-0.210797,0.096146,0.007191,0.972764,0.0000,,0.3332,0.0126,0.6938,0.0248,1.993477,0.0155,-0.8693,0.0185,-2.4310,0.2494,2.5026,0.8774,0.0056,-0.0105,0.0088,-0.0035,0.0064,0.0466,-0.0050,25.58,21.19
7.714,202,1,0.9905,0.308229,0.323709,-0.000000,0.1930,0.3350,0.0182,0.6532,0.3350,0.0182,0.6532,-0.182579,0.061411,-0.096848,0.976480,0.0000,,0.3343,0.0124,0.6907,0.0379,2.054049,0.0154,-0.8676,0.0185,-2.4371,0.2505,2.5069,0.8778,-0.0013,0.0158,0.0001,-0.0531,0.0093,0.0353,0.0033,11.85,9.73
7.745,203,1,0.9911,0.309893,0.315796,-0.000000,0.1935,0.3350,0.0209,0.6616,0.3350,0.0209,0.6616,-0.186386,0.061254,-0.183539,0.963235,0.0000,,0.3345,0.0122,0.6901,0.0298,2.046700,0.0152,-0.8678,0.0186,-2.4396,0.2521,2.5124,0.8790,-0.0015,-0.0028,0.0008,-0.0195,0.0129,0.0466,0.0105,20.35,15.63
7.772,204,1,0.9899,0.308761,0.315346,-0.000000,0.1907,0.3350,0.0194,0.6637,0.3350,0.0194,0.6637,-0.190168,0.037770,-0.149410,0.969580,0.0000,,0.3344,0.0119,0.6900,0.0273,2.089427,0.0151,-0.8683,0.0187,-2.4416,0.2535,2.5180,0.8800,-0.0014,-0.0041,0.0001,-0.0164,0.0120,0.0466,0.0079,21.22,16.71
7.799,205,1,0.9932,0.310583,0.312183,-0.000000,0.2013,0.3350,0.0224,0.6687,0.3350,0.0224,0.6687,-0.205536,0.074921,-0.063760,0.973692,0.0000,,0.3341,0.0124,0.6907,0.0242,2.014966,0.0157,-0.8694,0.0197,-2.4423,0.2546,2.5236,0.8801,0.0050,-0.0093,0.0095,-0.0053,0.0087,0.0466,0.0009,24.98,20.60
7.852,206,1,0.9936,0.311754,0.321073,-0.000000,0.1943,0.3350,0.0250,0.6568,0.3350,0.0250,0.6568,-0.195674,0.066939,-0.031741,0.977867,0.0000,,0.3346,0.0133,0.6890,0.0343,2.036786,0.0165,-0.8687,0.0214,-2.4465,0.2554,2.5285,0.8798,0.0071,0.0067,0.0139,-0.0365,0.0068,0.0402,-0.0020,15.44,10.70
7.884,207,1,0.9835,0.312429,0.312205,-0.000000,0.2688,0.3350,0.0267,0.6674,0.3350,0.0267,0.6674,-0.197053,0.030338,0.039184,0.979140,0.0000,,0.3340,0.0145,0.6900,0.0257,2.117027,0.0177,-0.8701,0.0235,-2.4467,0.2559,2.5340,0.8789,0.0102,-0.0133,0.0176,-0.0000,0.0040,0.0466,-0.0077,27.67,22.46
7.918,208,1,0.9920,0.314772,0.319498,-0.000000,0.2110,0.3350,0.0312,0.6588,0.3350,0.0312,0.6588,-0.179426,0.052126,-0.071151,0.979809,0.0000,,0.3343,0.0157,0.6888,0.0338,2.055406,0.0187,-0.8698,0.0256,-2.4502,0.2567,2.5393,0.8790,0.0082,0.0040,0.0177,-0.0305,0.0071,0.0434,0.0011,17.65,11.77
7.967,209,1,0.9879,0.312628,0.316639,-0.000000,0.1969,0.3350,0.0282,0.6614,0.3350,0.0282,0.6614,-0.191793,0.029342,-0.133191,0.971913,0.0000,,0.3343,0.0161,0.6886,0.0298,2.090831,0.0190,-0.8702,0.0266,-2.4523,0.2581,2.5448,0.8799,0.0027,-0.0039,0.0077,-0.0170,0.0113,0.0466,0.0070,21.10,16.53
8.004,210,1,0.9876,0.312091,0.313737,-0.000000,0.2236,0.3350,0.0267,0.6660,0.3350,0.0267,0.6660,-0.190743,0.050645,-0.079693,0.977088,0.0000,,0.3340,0.0165,0.6891,0.0252,2.047041,0.0195,-0.8711,0.0276,-2.4532,0.2590,2.5504,0.8801,0.0037,-0.0082,0.0086,-0.0076,0.0081,0.0467,0.0019,24.11,19.82
8.032,211,1,0.9924,0.309752,0.314156,-0.000000,0.1940,0.3350,0.0222,0.6663,0.3350,0.0222,0.6663,-0.200670,0.070989,-0.078296,0.973941,0.0000,,0.3338,0.0164,0.6894,0.0239,2.000393,0.0195,-0.8718,0.0277,-2.4545,0.2601,2.5560,0.8804,-0.0000,-0.0060,0.0010,-0.0109,0.0090,0.0467,0.0022,22.82,18.68
8.061,212,1,0.9856,0.310129,0.303405,-0.000000,0.2489,0.3350,0.0221,0.6818,0.3350,0.0221,0.6818,-0.204275,0.004286,-0.052422,0.977500,0.0000,,0.3323,0.0163,0.6928,0.0127,2.124686,0.0196,-0.8749,0.0279,-2.4512,0.2611,2.5616,0.8804,0.0010,-0.0268,0.0016,0.0291,0.0085,0.0468,0.0006,37.58,32.67
8.088,213,1,0.9917,0.312124,0.310210,-0.000000,0.1932,0.3350,0.0256,0.6748,0.3350,0.0256,0.6748,-0.205021,0.011799,-0.129685,0.970056,0.0000,,0.3319,0.0164,0.6939,0.0214,2.096030,0.0197,-0.8760,0.0283,-2.4515,0.2626,2.5672,0.8813,0.0010,-0.0079,0.0036,-0.0032,0.0120,0.0468,0.0073,25.24,21.30
8.114,214,1,0.9932,0.309741,0.307867,-0.000000,0.2599,0.3350,0.0220,0.6769,0.3350,0.0220,0.6769,-0.207281,0.005477,-0.068796,0.975844,0.0000,,0.3312,0.0162,0.6953,0.0197,2.105911,0.0198,-0.8774,0.0285,-2.4510,0.2637,2.5728,0.8815,0.0003,-0.0124,0.0008,0.0045,0.0095,0.0468,0.0020,27.96,24.01
8.143,215,1,0.9925,0.312456,0.315593,-0.000000,0.2377,0.3350,0.0262,0.6661,0.3350,0.0262,0.6661,-0.206759,0.032500,-0.033279,0.977285,0.0000,,0.3315,0.0168,0.6944,0.0300,2.055009,0.0204,-0.8770,0.0297,-2.4540,0.2646,2.5783,0.8814,0.0053,0.0044,0.0103,-0.0269,0.0074,0.0455,-0.0012,17.94,13.00
8.172,216,1,0.9878,0.311761,0.310265,-0.000000,0.2512,0.3350,0.0257,0.6719,0.3350,0.0257,0.6719,-0.208493,0.014681,-0.034037,0.977321,0.0000,,0.3312,0.0172,0.6949,0.0249,2.084887,0.0209,-0.8778,0.0305,-2.4548,0.2655,2.5839,0.8813,0.0040,-0.0073,0.0074,-0.0057,0.0077,0.0469,-0.0008,24.43,20.42
8.199,217,1,0.9916,0.313454,0.318070,-0.000000,0.2519,0.3350,0.0287,0.6617,0.3350,0.0287,0.6617,-0.198760,0.045104,-0.087697,0.975074,0.0000,,0.3319,0.0177,0.6931,0.0334,2.018656,0.0214,-0.8768,0.0317,-2.4591,0.2666,2.5889,0.8817,0.0041,0.0094,0.0099,-0.0365,0.0090,0.0406,0.0030,15.10,10.75
8.253,218,1,0.9908,0.313694,0.313403,-0.000000,0.2320,0.3350,0.0297,0.6666,0.3350,0.0297,0.6666,-0.206324,0.002988,-0.117752,0.971368,0.0000,,0.3318,0.0181,0.6929,0.0290,2.095799,0.0218,-0.8771,0.0327,-2.4609,0.2680,2.5944,0.8824,0.0033,-0.0033,0.0080,-0.0143,0.0113,0.0469,0.0062,21.74,17.43
8.288,219,1,0.9920,0.310074,0.317783,-0.000000,0.2259,0.3350,0.0233,0.6611,0.3350,0.0233,0.6611,-0.194916,0.044419,-0.118571,0.972613,0.0000,,0.3324,0.0177,0.6914,0.0309,2.012876,0.0215,-0.8764,0.0326,-2.4647,0.2692,2.5997,0.8831,-0.0021,0.0065,-0.0012,-0.0323,0.0105,0.0440,0.0053,16.30,11.41
8.335,220,1,0.9937,0.310368,0.306800,-0.000000,0.2579,0.3350,0.0227,0.6760,0.3350,0.0227,0.6760,-0.198634,0.036830,-0.068300,0.976997,0.0000,,0.3316,0.0175,0.6932,0.0183,2.024158,0.0215,-0.8781,0.0327,-2.4636,0.2701,2.6053,0.8832,0.0000,-0.0159,0.0010,0.0104,0.0077,0.0469,0.0011,30.21,26.13
8.363,221,1,0.9933,0.312424,0.312921,-0.000000,0.2402,0.3350,0.0263,0.6698,0.3350,0.0263,0.6698,-0.196606,0.036747,-0.062194,0.977818,0.0000,,0.3315,0.0178,0.6933,0.0251,2.021064,0.0219,-0.8784,0.0335,-2.4653,0.2710,2.6110,0.8833,0.0030,-0.0016,0.0072,-0.0147,0.0073,0.0470,0.0007,21.38,17.30
8.392,222,1,0.9876,0.315804,0.321402,-0.000000,0.2153,0.3350,0.0330,0.6565,0.3350,0.0330,0.6565,-0.199723,0.051148,0.059059,0.976733,0.0000,,0.3323,0.0194,0.6908,0.0370,2.018361,0.0234,-0.8771,0.0362,-2.4703,0.2712,2.6152,0.8822,0.0126,0.0120,0.0233,-0.0426,0.0014,0.0350,-0.0091,15.69,9.61
8.420,223,1,0.9915,0.314065,0.318625,-0.000000,0.1946,0.3350,0.0311,0.6581,0.3350,0.0311,0.6581,-0.185297,0.037889,-0.110010,0.975770,0.0000,,0.3327,0.0198,0.6894,0.0333,2.016806,0.0237,-0.8765,0.0372,-2.4739,0.2723,2.6206,0.8827,0.0024,0.0044,0.0078,-0.0298,0.0090,0.0446,0.0045,16.95,12.06
8.448,224,1,0.9899,0.313214,0.323546,-0.000000,0.1851,0.3350,0.0292,0.6513,0.3350,0.0292,0.6513,-0.175020,0.041748,-0.109411,0.977576,0.0000,,0.3335,0.0200,0.6868,0.0367,2.012366,0.0239,-0.8752,0.0380,-2.4792,0.2732,2.6251,0.8832,0.0013,0.0118,0.0065,-0.0448,0.0081,0.0378,0.0036,12.91,10.17
8.474,225,1,0.9906,0.311677,0.319297,-0.000000,0.2261,0.3350,0.0261,0.6562,0.3350,0.0261,0.6562,-0.175934,0.042365,-0.087494,0.979590,0.0000,,0.3337,0.0199,0.6859,0.0303,2.010483,0.0238,-0.8751,0.0383,-2.4822,0.2741,2.6307,0.8834,-0.0005,0.0003,0.0024,-0.0242,0.0071,0.0470,0.0017,18.68,14.07
8.501,226,1,0.9885,0.309645,0.302117,-0.000000,0.2316,0.3350,0.0219,0.6819,0.3350,0.0219,0.6819,-0.195319,-0.012326,-0.133162,0.971579,0.0000,,0.3321,0.0191,0.6899,0.0090,2.100688,0.0232,-0.8786,0.0374,-2.4779,0.2754,2.6363,0.8842,-0.0052,-0.0312,-0.0080,0.0380,0.0111,0.0470,0.0071,41.39,35.84
8.532,227,1,0.9933,0.309636,0.313695,-0.000000,0.1710,0.3350,0.0211,0.6698,0.3350,0.0211,0.6698,-0.190460,-0.003506,-0.112348,0.975239,0.0000,,0.3318,0.0184,0.6905,0.0211,2.078904,0.0227,-0.8793,0.0368,-2.4789,0.2766,2.6420,0.8848,-0.0041,-0.0044,-0.0051,-0.0099,0.0101,0.0471,0.0048,23.24,19.04
8.561,228,1,0.9936,0.309107,0.308417,-0.000000,0.2061,0.3350,0.0200,0.6752,0.3350,0.0200,0.6752,-0.202708,0.006960,-0.168919,0.964535,0.0000,,0.3311,0.0174,0.6921,0.0175,2.045960,0.0220,-0.8808,0.0357,-2.4781,0.2783,2.6476,0.8860,-0.0061,-0.0131,-0.0091,0.0068,0.0136,0.0471,0.0100,29.35,24.87
8.591,229,1,0.9907,0.310681,0.321584,-0.000000,0.1770,0.3350,0.0227,0.6572,0.3350,0.0227,0.6572,-0.185140,0.021164,-0.136561,0.972947,0.0000,,0.3319,0.0170,0.6898,0.0332,2.021244,0.0217,-0.8794,0.0357,-2.4831,0.2795,2.6524,0.8867,-0.0022,0.0127,-0.0003,-0.0427,0.0106,0.0394,0.0061,13.79,10.45
8.653,230,1,0.9930,0.309869,0.312413,-0.000000,0.2188,0.3350,0.0217,0.6672,0.3350,0.0217,0.6672,-0.191880,0.031156,-0.122469,0.973248,0.0000,,0.3317,0.0166,0.6902,0.0238,1.995931,0.0214,-0.8801,0.0355,-2.4840,0.2807,2.6580,0.8873,-0.0023,-0.0071,-0.0017,-0.0065,0.0098,0.0471,0.0052,24.28,20.25
8.706,231,1,0.9956,0.308650,0.314697,-0.000000,0.2115,0.3350,0.0193,0.6657,0.3350,0.0193,0.6657,-0.193129,0.031164,-0.136468,0.971137,0.0000,,0.3317,0.0159,0.6900,0.0248,1.990517,0.0209,-0.8803,0.0349,-2.4859,0.2820,2.6637,0.8881,-0.0043,-0.0009,-0.0052,-0.0167,0.0110,0.0472,0.0064,21.14,16.66
8.729,232,1,0.9936,0.307124,0.305322,-0.000000,0.2365,0.3350,0.0161,0.6789,0.3350,0.0161,0.6789,-0.214240,0.023163,-0.057330,0.974822,0.0000,,0.3306,0.0152,0.6924,0.0142,2.003143,0.0206,-0.8824,0.0342,-2.4839,0.2830,2.6693,0.8882,-0.0029,-0.0189,-0.0056,0.0181,0.0083,0.0472,0.0009,33.13,28.86
8.758,233,1,0.9906,0.306340,0.307590,-0.000000,0.2222,0.3350,0.0141,0.6781,0.3350,0.0141,0.6781,-0.214480,0.037018,-0.024242,0.975726,0.0000,,0.3300,0.0145,0.6939,0.0167,1.973689,0.0202,-0.8837,0.0335,-2.4833,0.2839,2.6750,0.8880,-0.0028,-0.0103,-0.0058,0.0046,0.0070,0.0473,-0.0017,27.91,24.08
8.784,234,1,0.9915,0.305387,0.310643,-0.000000,0.2579,0.3350,0.0121,0.6735,0.3350,0.0121,0.6735,-0.184714,0.066339,-0.111615,0.974178,0.0000,,0.3299,0.0133,0.6942,0.0213,1.900100,0.0193,-0.8840,0.0322,-2.4845,0.2850,2.6807,0.8884,-0.0075,-0.0019,-0.0113,-0.0108,0.0092,0.0473,0.0036,23.27,18.69
8.811,235,1,0.9951,0.304761,0.305717,-0.000000,0.2304,0.3350,0.0105,0.6798,0.3350,0.0105,0.6798,-0.201042,0.027605,-0.092910,0.974776,0.0000,,0.3292,0.0122,0.6957,0.0171,1.969551,0.0185,-0.8853,0.0308,-2.4837,0.2861,2.6863,0.8888,-0.0066,-0.0117,-0.0111,0.0076,0.0096,0.0474,0.0031,29.35,25.12
8.835,236,1,0.9927,0.303656,0.311997,-0.000000,0.2062,0.3350,0.0083,0.6718,0.3350,0.0083,0.6718,-0.210049,0.028403,-0.072523,0.974584,0.0000,,0.3293,0.0110,0.6954,0.0244,1.965827,0.0178,-0.8852,0.0294,-2.4858,0.2873,2.6921,0.8890,-0.0066,0.0019,-0.0118,-0.0179,0.0101,0.0474,0.0019,21.14,16.19
8.866,237,1,0.9930,0.305072,0.308356,-0.000000,0.2439,0.3350,0.0104,0.6757,0.3350,0.0104,0.6757,-0.190085,0.100768,-0.064291,0.974464,0.0000,,0.3291,0.0103,0.6958,0.0209,1.819540,0.0173,-0.8855,0.0288,-2.4867,0.2881,2.6977,0.8890,-0.0036,-0.0029,-0.0051,-0.0076,0.0062,0.0474,-0.0005,23.61,19.81
8.894,238,1,0.9921,0.306163,0.302507,-0.000000,0.2655,0.3350,0.0128,0.6848,0.3350,0.0128,0.6848,-0.191745,0.001927,0.011109,0.981380,0.0000,,0.3281,0.0102,0.6981,0.0152,2.022880,0.0174,-0.8874,0.0289,-2.4848,0.2884,2.7034,0.8883,0.0007,-0.0162,0.0016,0.0172,0.0028,0.0475,-0.0054,32.17,28.46
8.925,239,1,0.9951,0.309093,0.307940,-0.000000,0.2265,0.3350,0.0185,0.6786,0.3350,0.0185,0.6786,-0.188397,0.045277,-0.048538,0.979847,0.0000,,0.3280,0.0105,0.6984,0.0225,1.919325,0.0177,-0.8875,0.0298,-2.4858,0.2890,2.7091,0.8882,0.0031,-0.0005,0.0075,-0.0095,0.0048,0.0475,-0.0009,22.75,19.08
8.959,240,1,0.9934,0.308976,0.316227,-0.000000,0.2147,0.3350,0.0193,0.6655,0.3350,0.0193,0.6655,-0.191081,0.034947,-0.093828,0.976454,0.0000,,0.3288,0.0106,0.6962,0.0325,1.933727,0.0180,-0.8861,0.0305,-2.4902,0.2900,2.7138,0.8886,0.0017,0.0131,0.0057,-0.0379,0.0083,0.0383,0.0029,14.49,10.14
8.987,241,1,0.9923,0.312212,0.309723,-0.000000,0.2392,0.3350,0.0253,0.6726,0.3350,0.0253,0.6726,-0.181856,0.011149,-0.069801,0.980781,0.0000,,0.3287,0.0116,0.6963,0.0281,1.981659,0.0188,-0.8862,0.0324,-2.4915,0.2905,2.7194,0.8886,0.0070,-0.0022,0.0158,-0.0101,0.0046,0.0475,0.0006,23.24,18.89
9.067,242,1,0.9917,0.313742,0.312617,-0.000000,0.2495,0.3350,0.0291,0.6697,0.3350,0.0291,0.6697,-0.187836,0.025304,-0.055503,0.980305,0.0000,,0.3289,0.0129,0.6955,0.0311,1.953276,0.0199,-0.8857,0.0348,-2.4941,0.2910,2.7247,0.8886,0.0095,0.0045,0.0203,-0.0217,0.0041,0.0439,-0.0002,20.10,14.84
9.097,243,1,0.9921,0.311185,0.323158,-0.000000,0.2550,0.3350,0.0252,0.6539,0.3350,0.0252,0.6539,-0.194052,0.050144,-0.024091,0.979413,0.0000,,0.3302,0.0138,0.6917,0.0398,1.914850,0.0207,-0.8833,0.0365,-2.5007,0.2916,2.7282,0.8883,0.0065,0.0214,0.0139,-0.0565,0.0047,0.0283,-0.0025,12.65,8.13
9.124,244,1,0.9850,0.308537,0.312390,-0.000000,0.2176,0.3350,0.0197,0.6666,0.3350,0.0197,0.6666,-0.207808,0.023814,-0.101903,0.972556,0.0000,,0.3302,0.0135,0.6916,0.0262,1.949196,0.0206,-0.8835,0.0365,-2.5023,0.2928,2.7338,0.8889,-0.0008,-0.0032,-0.0001,-0.0115,0.0100,0.0475,0.0046,22.42,18.48
9.151,245,1,0.9928,0.307574,0.320463,-0.000000,0.2010,0.3350,0.0170,0.6573,0.3350,0.0170,0.6573,-0.202517,0.066407,-0.002535,0.977021,0.0000,,0.3310,0.0135,0.6892,0.0324,1.884509,0.0208,-0.8821,0.0369,-2.5071,0.2933,2.7381,0.8884,0.0014,0.0129,0.0032,-0.0411,0.0047,0.0352,-0.0042,13.21,9.52
9.177,246,1,0.9875,0.311965,0.309614,-0.000000,0.2237,0.3350,0.0244,0.6712,0.3350,0.0244,0.6712,-0.206759,0.056219,-0.002387,0.976773,0.0000,,0.3304,0.0144,0.6903,0.0221,1.897894,0.0216,-0.8832,0.0385,-2.5069,0.2936,2.7437,0.8879,0.0073,-0.0105,0.0136,0.0033,0.0024,0.0476,-0.0037,27.81,23.69
9.206,247,1,0.9937,0.309184,0.323913,-0.000000,0.1888,0.3350,0.0208,0.6531,0.3350,0.0208,0.6531,-0.201634,0.096437,-0.016807,0.974557,0.0000,,0.3315,0.0146,0.6871,0.0347,1.819210,0.0220,-0.8812,0.0392,-2.5128,0.2942,2.7472,0.8876,0.0027,0.0186,0.0061,-0.0514,0.0051,0.0284,-0.0029,11.56,8.15
9.231,248,1,0.9826,0.311102,0.310097,-0.000000,0.2208,0.3350,0.0236,0.6698,0.3350,0.0236,0.6698,-0.197867,0.033711,-0.040720,0.978802,0.0000,,0.3308,0.0151,0.6885,0.0210,1.932389,0.0225,-0.8825,0.0402,-2.5122,0.2948,2.7528,0.8875,0.0040,-0.0134,0.0084,0.0072,0.0043,0.0476,-0.0009,29.04,25.09
9.262,249,1,0.9937,0.309505,0.318353,-0.000000,0.1885,0.3350,0.0212,0.6609,0.3350,0.0212,0.6609,-0.190144,0.044377,-0.086910,0.976894,0.0000,,0.3311,0.0150,0.6874,0.0275,1.902917,0.0224,-0.8819,0.0405,-2.5153,0.2957,2.7579,0.8877,-0.0001,0.0060,0.0022,-0.0274,0.0077,0.0424,0.0024,17.08,12.94
9.289,250,1,0.9864,0.311240,0.317123,-0.000000,0.2263,0.3350,0.0239,0.6610,0.3350,0.0239,0.6610,-0.188051,0.031375,0.021193,0.981429,0.0000,,0.3311,0.0156,0.6869,0.0274,1.947700,0.0232,-0.8819,0.0420,-2.5175,0.2958,2.7635,0.8870,0.0061,-0.0003,0.0124,-0.0175,0.0008,0.0464,-0.0063,20.79,16.43
9.325,251,1,0.9875,0.309269,0.312468,-0.000000,0.2272,0.3350,0.0208,0.6678,0.3350,0.0208,0.6678,-0.197381,0.015465,-0.012080,0.980130,0.0000,,0.3306,0.0157,0.6878,0.0211,1.963956,0.0234,-0.8829,0.0424,-2.5178,0.2963,2.7692,0.8866,0.0015,-0.0081,0.0035,-0.0017,0.0041,0.0476,-0.0028,25.65,21.95
9.374,252,1,0.9955,0.308046,0.315908,-0.000000,0.2082,0.3350,0.0181,0.6640,0.3350,0.0181,0.6640,-0.186380,0.023172,-0.099911,0.977110,0.0000,,0.3306,0.0151,0.6876,0.0241,1.930845,0.0230,-0.8829,0.0420,-2.5197,0.2973,2.7749,0.8871,-0.0036,0.0003,-0.0040,-0.0166,0.0088,0.0477,0.0034,20.98,16.73
9.408,253,1,0.9924,0.308525,0.315509,-0.000000,0.2131,0.3350,0.0184,0.6639,0.3350,0.0184,0.6639,-0.196377,0.036160,-0.055193,0.978306,0.0000,,0.3305,0.0148,0.6874,0.0242,1.906291,0.0229,-0.8830,0.0420,-2.5214,0.2981,2.7807,0.8871,-0.0005,-0.0011,0.0005,-0.0143,0.0063,0.0477,0.0001,21.46,17.55
9.435,254,1,0.9935,0.310512,0.310342,-0.000000,0.2742,0.3350,0.0221,0.6714,0.3350,0.0221,0.6714,-0.184912,0.032146,0.008842,0.982189,0.0000,,0.3298,0.0153,0.6887,0.0193,1.922349,0.0234,-0.8842,0.0431,-2.5210,0.2981,2.7864,0.8864,0.0044,-0.0103,0.0092,0.0044,0.0005,0.0477,-0.0054,27.83,24.08
9.468,255,1,0.9920,0.311235,0.307104,-0.000000,0.2369,0.3350,0.0240,0.6774,0.3350,0.0240,0.6774,-0.194575,0.042777,-0.004941,0.979942,0.0000,,0.3289,0.0158,0.6907,0.0168,1.888390,0.0240,-0.8857,0.0442,-2.5196,0.2983,2.7921,0.8860,0.0049,-0.0128,0.0098,0.0121,0.0014,0.0478,-0.0035,30.47,26.78
9.502,256,1,0.9926,0.311462,0.317557,-0.000000,0.2195,0.3350,0.0248,0.6634,0.3350,0.0248,0.6634,-0.196543,0.046270,-0.054601,0.977880,0.0000,,0.3293,0.0162,0.6894,0.0280,1.870156,0.0244,-0.8848,0.0452,-2.5228,0.2990,2.7969,0.8860,0.0033,0.0083,0.0080,-0.0281,0.0057,0.0400,0.0004,16.74,12.68
9.534,257,1,0.9928,0.312419,0.321214,-0.000000,0.2258,0.3350,0.0267,0.6556,0.3350,0.0267,0.6556,-0.182654,0.066237,-0.007192,0.980917,0.0000,,0.3300,0.0170,0.6871,0.0333,1.843682,0.0251,-0.8834,0.0468,-2.5273,0.2992,2.8011,0.8855,0.0061,0.0123,0.0136,-0.0382,0.0016,0.0345,-0.0043,14.34,9.33
9.568,258,1,0.9827,0.314449,0.316068,-0.000000,0.2516,0.3350,0.0307,0.6616,0.3350,0.0307,0.6616,-0.188624,0.019646,-0.031830,0.981337,0.0000,,0.3300,0.0180,0.6868,0.0287,1.926922,0.0260,-0.8834,0.0487,-2.5292,0.2995,2.8067,0.8854,0.0075,-0.0007,0.0159,-0.0147,0.0025,0.0472,-0.0015,21.91,17.42
9.598,259,1,0.9921,0.314417,0.317767,-0.000000,0.2282,0.3350,0.0313,0.6603,0.3350,0.0313,0.6603,-0.190185,0.020310,-0.098658,0.976567,0.0000,,0.3301,0.0186,0.6860,0.0291,1.913055,0.0266,-0.8830,0.0502,-2.5317,0.3003,2.8120,0.8858,0.0050,0.0037,0.0120,-0.0216,0.0067,0.0442,0.0038,19.18,14.99
9.629,260,1,0.9931,0.312069,0.318148,-0.000000,0.1886,0.3350,0.0272,0.6595,0.3350,0.0272,0.6595,-0.178620,-0.001731,-0.162250,0.970447,0.0000,,0.3302,0.0184,0.6853,0.0277,1.950996,0.0265,-0.8827,0.0504,-2.5342,0.3016,2.8177,0.8868,-0.0012,0.0026,0.0019,-0.0207,0.0108,0.0473,0.0084,19.64,15.33
9.662,261,1,0.9924,0.305896,0.315504,-0.000000,0.2290,0.3350,0.0153,0.6631,0.3350,0.0153,0.6631,-0.191346,0.009622,-0.143208,0.970972,0.0000,,0.3301,0.0170,0.6854,0.0229,1.922307,0.0254,-0.8829,0.0488,-2.5356,0.3031,2.8234,0.8877,-0.0090,-0.0025,-0.0141,-0.0113,0.0127,0.0479,0.0071,23.76,18.63
9.694,262,1,0.9907,0.308839,0.313050,-0.000000,0.2311,0.3350,0.0185,0.6673,0.3350,0.0185,0.6673,-0.187578,0.004136,-0.148927,0.970885,0.0000,,0.3297,0.0161,0.6862,0.0197,1.926741,0.0248,-0.8837,0.0480,-2.5359,0.3044,2.8292,0.8885,-0.0049,-0.0064,-0.0062,-0.0024,0.0109,0.0479,0.0072,25.73,21.72
9.740,263,1,0.9808,0.307274,0.308667,-0.000000,0.2143,0.3350,0.0162,0.6744,0.3350,0.0162,0.6744,-0.231296,0.054325,-0.068693,0.968934,0.0000,,0.3289,0.0155,0.6879,0.0148,1.823563,0.0245,-0.8850,0.0474,-2.5348,0.3054,2.8349,0.8889,-0.0024,-0.0115,-0.0052,0.0099,0.0086,0.0480,0.0028,29.74,26.03
9.773,264,1,0.9903,0.308352,0.318055,-0.000000,0.2437,0.3350,0.0178,0.6621,0.3350,0.0178,0.6621,-0.205421,0.050704,-0.041544,0.976476,0.0000,,0.3292,0.0152,0.6869,0.0256,1.835910,0.0245,-0.8844,0.0474,-2.5376,0.3062,2.8399,0.8888,-0.0005,0.0066,-0.0000,-0.0249,0.0063,0.0413,-0.0005,17.58,13.82
9.800,265,1,0.9842,0.310359,0.318671,-0.000000,0.1776,0.3350,0.0217,0.6590,0.3350,0.0217,0.6590,-0.202355,0.047854,-0.037841,0.977410,0.0000,,0.3295,0.0154,0.6858,0.0280,1.841447,0.0248,-0.8837,0.0481,-2.5406,0.3068,2.8449,0.8887,0.0027,0.0056,0.0062,-0.0246,0.0049,0.0412,-0.0008,17.65,13.93
9.835,266,1,0.9891,0.310768,0.314981,-0.000000,0.1982,0.3350,0.0231,0.6638,0.3350,0.0231,0.6638,-0.193815,0.068631,-0.068187,0.976256,0.0000,,0.3294,0.0156,0.6857,0.0238,1.791160,0.0251,-0.8837,0.0489,-2.5421,0.3073,2.8503,0.8888,0.0023,-0.0006,0.0062,-0.0118,0.0049,0.0457,0.0010,21.92,18.44
9.869,267,1,0.9869,0.311581,0.312878,-0.000000,0.2483,0.3350,0.0248,0.6677,0.3350,0.0248,0.6677,-0.191460,0.075774,-0.023547,0.978288,0.0000,,0.3290,0.0162,0.6863,0.0214,1.780926,0.0256,-0.8842,0.0501,-2.5426,0.3075,2.8560,0.8885,0.0050,-0.0041,0.0108,-0.0039,0.0012,0.0476,-0.0026,24.82,21.19
9.904,268,1,0.9918,0.313187,0.320851,-0.000000,0.2126,0.3350,0.0281,0.6569,0.3350,0.0281,0.6569,-0.193078,0.066780,-0.044605,0.977891,0.0000,,0.3295,0.0170,0.6845,0.0303,1.794761,0.0264,-0.8830,0.0517,-2.5463,0.3079,2.8603,0.8885,0.0062,0.0105,0.0135,-0.0321,0.0033,0.0355,-0.0006,15.70,11.32
9.934,269,1,0.9894,0.313064,0.310665,-0.000000,0.2291,0.3350,0.0284,0.6696,0.3350,0.0284,0.6696,-0.190331,0.022935,-0.086324,0.977648,0.0000,,0.3288,0.0175,0.6860,0.0206,1.868081,0.0269,-0.8842,0.0529,-2.5455,0.3084,2.8660,0.8888,0.0041,-0.0110,0.0098,0.0082,0.0044,0.0481,0.0028,29.09,25.44
9.965,270,1,0.9911,0.310391,0.315483,-0.000000,0.1822,0.3350,0.0236,0.6650,0.3350,0.0236,0.6650,-0.201895,0.036262,-0.089971,0.974592,0.0000,,0.3287,0.0173,0.6859,0.0227,1.835897,0.0269,-0.8841,0.0532,-2.5470,0.3093,2.8716,0.8892,0.0002,0.0013,0.0021,-0.0134,0.0076,0.0462,0.0035,21.42,17.86
9.995,271,1,0.9887,0.312732,0.320741,-0.000000,0.2214,0.3350,0.0270,0.6566,0.3350,0.0270,0.6566,-0.173910,0.097546,-0.061266,0.978001,0.0000,,0.3292,0.0179,0.6840,0.0295,1.722071,0.0274,-0.8828,0.0545,-2.5508,0.3096,2.8757,0.8891,0.0040,0.0112,0.0109,-0.0326,0.0027,0.0340,-0.0008,15.12,11.16
10.026,272,1,0.9868,0.313225,0.316018,-0.000000,0.1946,0.3350,0.0285,0.6619,0.3350,0.0285,0.6619,-0.170787,0.040301,-0.133546,0.975384,0.0000,,0.3291,0.0181,0.6840,0.0251,1.823513,0.0276,-0.8829,0.0553,-2.5522,0.3104,2.8814,0.8897,0.0017,-0.0010,0.0072,-0.0107,0.0064,0.0475,0.0052,22.48,18.82
10.078,273,1,0.9921,0.311136,0.331727,-0.000000,0.1869,0.3350,0.0250,0.6401,0.3350,0.0250,0.6401,-0.165137,0.038557,-0.093481,0.981073,0.0000,,0.3306,0.0181,0.6795,0.0402,1.839039,0.0276,-0.8799,0.0559,-2.5598,0.3113,2.8844,0.8899,0.0000,0.0264,0.0048,-0.0653,0.0073,0.0245,0.0017,12.41,9.93
10.106,274,1,0.9888,0.312586,0.306202,0.000000,0.2226,0.3350,0.0270,0.6731,0.3350,0.0270,0.6731,-0.193458,0.051348,-0.093230,0.975318,0.0000,,0.3292,0.0184,0.6827,0.0141,1.799323,0.0279,-0.8825,0.0567,-2.5564,0.3117,2.8901,0.8903,0.0026,-0.0241,0.0065,0.0318,0.0036,0.0482,0.0030,38.08,33.77
10.144,275,1,0.9891,0.312053,0.322232,-0.000000,0.2072,0.3350,0.0264,0.6559,0.3350,0.0264,0.6559,-0.197620,0.049137,-0.009194,0.979003,0.0000,,0.3296,0.0189,0.6813,0.0270,1.819410,0.0284,-0.8815,0.0578,-2.5597,0.3120,2.8946,0.8900,0.0044,0.0097,0.0097,-0.0299,0.0023,0.0369,-0.0029,16.00,12.11
10.171,276,1,0.9899,0.312596,0.334341,-0.000000,0.1977,0.3350,0.0273,0.6353,0.3350,0.0273,0.6353,-0.173737,0.055248,-0.042090,0.982340,0.0000,,0.3311,0.0193,0.6765,0.0421,1.810410,0.0288,-0.8784,0.0590,-2.5676,0.3125,2.8973,0.8898,0.0031,0.0268,0.0094,-0.0675,0.0045,0.0222,-0.0017,12.46,10.06
10.208,277,1,0.9710,0.313909,0.315280,-0.000000,0.2465,0.3350,0.0298,0.6591,0.3350,0.0298,0.6591,-0.206601,0.051325,0.020209,0.976869,0.0000,,0.3304,0.0202,0.6778,0.0215,1.823694,0.0297,-0.8797,0.0607,-2.5671,0.3124,2.9030,0.8892,0.0078,-0.0126,0.0144,0.0074,-0.0014,0.0482,-0.0046,29.43,25.24
10.235,278,1,0.9925,0.314288,0.314240,-0.000000,0.2172,0.3350,0.0309,0.6649,0.3350,0.0309,0.6649,-0.204511,0.038573,-0.121034,0.970587,0.0000,,0.3297,0.0205,0.6793,0.0186,1.814729,0.0301,-0.8808,0.0615,-2.5664,0.3132,2.9088,0.8900,0.0028,-0.0094,0.0068,0.0061,0.0072,0.0482,0.0063,28.31,24.75
10.267,279,1,0.9908,0.314169,0.318100,-0.000000,0.2541,0.3350,0.0309,0.6604,0.3350,0.0309,0.6604,-0.189894,0.016034,-0.011108,0.981611,0.0000,,0.3292,0.0212,0.6798,0.0225,1.873848,0.0308,-0.8813,0.0630,-2.5670,0.3132,2.9146,0.8896,0.0061,-0.0034,0.0129,-0.0060,0.0000,0.0483,-0.0029,24.38,20.52
10.302,280,1,0.9869,0.316168,0.316325,-0.000000,0.2910,0.3350,0.0345,0.6621,0.3350,0.0345,0.6621,-0.187818,0.024849,0.050890,0.980570,0.0000,,0.3287,0.0225,0.6806,0.0229,1.868167,0.0320,-0.8819,0.0654,-2.5672,0.3127,2.9204,0.8887,0.0101,-0.0053,0.0198,-0.0015,-0.0049,0.0483,-0.0074,26.53,22.08
10.333,281,1,0.9833,0.312621,0.323207,-0.000000,0.1802,0.3350,0.0288,0.6525,0.3350,0.0288,0.6525,-0.183350,0.030997,-0.144941,0.971810,0.0000,,0.3291,0.0222,0.6791,0.0280,1.819030,0.0317,-0.8808,0.0654,-2.5707,0.3139,2.9251,0.8896,-0.0025,0.0096,-0.0008,-0.0300,0.0107,0.0394,0.0073,16.35,12.08
10.370,282,1,0.9801,0.314586,0.315304,-0.000000,0.2511,0.3350,0.0313,0.6622,0.3350,0.0313,0.6622,-0.181381,0.059648,-0.054758,0.980074,0.0000,,0.3286,0.0227,0.6800,0.0208,1.766474,0.0322,-0.8815,0.0665,-2.5707,0.3141,2.9309,0.8895,0.0040,-0.0065,0.0100,0.0009,0.0011,0.0484,-0.0005,26.47,22.93
10.415,283,1,0.9921,0.312084,0.324838,-0.000000,0.1903,0.3350,0.0272,0.6501,0.3350,0.0272,0.6501,-0.195081,0.081931,-0.078606,0.974193,0.0000,,0.3292,0.0225,0.6779,0.0287,1.717964,0.0321,-0.8801,0.0667,-2.5749,0.3149,2.9349,0.8898,-0.0006,0.0131,0.0015,-0.0359,0.0071,0.0334,0.0022,14.16,10.02
10.446,284,1,0.9888,0.312236,0.331702,-0.000000,0.1763,0.3350,0.0268,0.6381,0.3350,0.0268,0.6381,-0.170520,0.105526,-0.079158,0.976484,0.0000,,0.3305,0.0224,0.6741,0.0365,1.679063,0.0321,-0.8775,0.0671,-2.5814,0.3156,2.9380,0.8899,-0.0007,0.0216,0.0029,-0.0552,0.0061,0.0250,0.0005,11.19,7.68
10.488,285,1,0.9886,0.311924,0.302065,-0.000000,0.1971,0.3350,0.0261,0.6787,0.3350,0.0261,0.6787,-0.206074,0.035909,-0.129757,0.969230,0.0000,,0.3284,0.0219,0.6791,0.0078,1.793805,0.0318,-0.8815,0.0667,-2.5751,0.3164,2.9436,0.8907,-0.0022,-0.0360,-0.0035,0.0562,0.0067,0.0484,0.0069,47.71,42.31
10.518,286,1,0.9954,0.313333,0.323029,-0.000000,0.2127,0.3350,0.0285,0.6557,0.3350,0.0285,0.6557,-0.180247,0.063343,-0.058749,0.979820,0.0000,,0.3287,0.0221,0.6780,0.0241,1.749451,0.0320,-0.8806,0.0674,-2.5780,0.3168,2.9481,0.8907,0.0018,0.0098,0.0065,-0.0269,0.0034,0.0367,-0.0001,16.56,13.16
10.546,287,1,0.9894,0.314093,0.320567,-0.000000,0.2371,0.3350,0.0304,0.6551,0.3350,0.0304,0.6551,-0.180910,0.050074,-0.020103,0.982018,0.0000,,0.3286,0.0226,0.6778,0.0247,1.780751,0.0325,-0.8804,0.0686,-2.5796,0.3169,2.9534,0.8904,0.0040,0.0008,0.0099,-0.0131,0.0003,0.0442,-0.0027,21.41,18.01
10.577,288,1,0.9850,0.315201,0.323581,-0.000000,0.2052,0.3350,0.0327,0.6507,0.3350,0.0327,0.6507,-0.188159,0.061968,-0.030895,0.979695,0.0000,,0.3289,0.0232,0.6765,0.0281,1.753452,0.0331,-0.8795,0.0700,-2.5827,0.3171,2.9579,0.8902,0.0052,0.0078,0.0120,-0.0258,0.0015,0.0373,-0.0014,17.17,13.57
10.605,289,1,0.9792,0.314415,0.325708,-0.000000,0.2089,0.3350,0.0317,0.6468,0.3350,0.0317,0.6468,-0.181803,0.047438,-0.042732,0.981260,0.0000,,0.3292,0.0236,0.6748,0.0297,1.780684,0.0335,-0.8785,0.0711,-2.5862,0.3174,2.9624,0.8901,0.0032,0.0089,0.0089,-0.0295,0.0028,0.0375,-0.0008,16.00,12.29
10.642,290,1,0.9811,0.314817,0.319908,-0.000000,0.1674,0.3350,0.0322,0.6545,0.3350,0.0322,0.6545,-0.190441,0.046372,-0.118792,0.973381,0.0000,,0.3290,0.0237,0.6750,0.0230,1.766251,0.0336,-0.8787,0.0717,-2.5872,0.3182,2.9680,0.8907,0.0013,-0.0021,0.0051,-0.0076,0.0067,0.0470,0.0053,23.40,19.95
10.669,291,1,0.9927,0.313447,0.313144,-0.000000,0.2317,0.3350,0.0298,0.6656,0.3350,0.0298,0.6656,-0.192255,0.028705,-0.126093,0.972787,0.0000,,0.3281,0.0235,0.6771,0.0148,1.791795,0.0336,-0.8802,0.0718,-2.5854,0.3190,2.9738,0.8914,-0.0008,-0.0133,0.0008,0.0157,0.0067,0.0486,0.0060,31.66,28.10
10.702,292,1,0.9913,0.313907,0.318956,-0.000000,0.2341,0.3350,0.0303,0.6593,0.3350,0.0303,0.6593,-0.195519,0.031159,-0.053459,0.978746,0.0000,,0.3277,0.0237,0.6775,0.0207,1.791340,0.0338,-0.8804,0.0725,-2.5862,0.3194,2.9795,0.8915,0.0022,-0.0008,0.0060,-0.0072,0.0032,0.0467,0.0007,23.34,20.08
10.733,293,1,0.9920,0.312131,0.328185,-0.000000,0.1756,0.3350,0.0271,0.6448,0.3350,0.0271,0.6448,-0.186748,0.050534,-0.054626,0.979585,0.0000,,0.3285,0.0235,0.6750,0.0311,1.755658,0.0337,-0.8786,0.0727,-2.5909,0.3201,2.9834,0.8916,-0.0008,0.0157,0.0015,-0.0406,0.0059,0.0326,0.0003,13.26,8.79
10.784,294,1,0.9864,0.312570,0.314145,-0.000000,0.1782,0.3350,0.0273,0.6624,0.3350,0.0273,0.6624,-0.194560,0.007157,-0.109464,0.974737,0.0000,,0.3277,0.0231,0.6768,0.0166,1.825094,0.0335,-0.8800,0.0726,-2.5895,0.3209,2.9892,0.8922,-0.0019,-0.0130,-0.0016,0.0135,0.0069,0.0487,0.0051,31.00,27.35
10.812,295,1,0.9919,0.312760,0.312611,-0.000000,0.2079,0.3350,0.0277,0.6678,0.3350,0.0277,0.6678,-0.192374,0.005767,-0.139099,0.971396,0.0000,,0.3268,0.0226,0.6788,0.0146,1.816653,0.0332,-0.8813,0.0723,-2.5879,0.3219,2.9950,0.8931,-0.0023,-0.0110,-0.0018,0.0138,0.0082,0.0487,0.0072,30.88,27.42
10.850,296,1,0.9928,0.312075,0.317150,-0.000000,0.2267,0.3350,0.0266,0.6623,0.3350,0.0266,0.6623,-0.207565,0.021928,-0.056393,0.976348,0.0000,,0.3264,0.0225,0.6793,0.0195,1.788143,0.0332,-0.8815,0.0725,-2.5883,0.3225,3.0008,0.8933,0.0002,-0.0013,0.0016,-0.0042,0.0049,0.0479,0.0017,24.33,21.07
10.881,297,1,0.9899,0.315452,0.323467,-0.000000,0.2477,0.3350,0.0324,0.6521,0.3350,0.0324,0.6521,-0.186452,0.020007,0.037420,0.981547,0.0000,,0.3267,0.0234,0.6780,0.0286,1.817508,0.0341,-0.8804,0.0744,-2.5913,0.3221,3.0053,0.8925,0.0073,0.0096,0.0157,-0.0260,-0.0032,0.0374,-0.0062,17.59,13.44
10.912,298,1,0.9888,0.316798,0.322686,-0.000000,0.1903,0.3350,0.0359,0.6514,0.3350,0.0359,0.6514,-0.188419,0.038310,-0.058243,0.979611,0.0000,,0.3270,0.0242,0.6768,0.0291,1.755771,0.0348,-0.8795,0.0760,-2.5941,0.3223,3.0099,0.8926,0.0058,0.0079,0.0135,-0.0229,0.0021,0.0384,0.0011,18.16,14.55
10.946,299,1,0.9914,0.313764,0.325822,-0.000000,0.1828,0.3350,0.0311,0.6468,0.3350,0.0311,0.6468,-0.182083,0.021776,-0.149364,0.971628,0.0000,,0.3275,0.0239,0.6749,0.0300,1.779383,0.0346,-0.8780,0.0762,-2.5979,0.3236,3.0144,0.8935,-0.0016,0.0121,0.0010,-0.0321,0.0103,0.0372,0.0074,15.56,11.31
10.973,300,1,0.9878,0.314087,0.313249,-0.000000,0.2242,0.3350,0.0308,0.6641,0.3350,0.0308,0.6641,-0.173814,-0.013256,-0.115126,0.977936,0.0000,,0.3266,0.0238,0.6769,0.0168,1.843805,0.0346,-0.8795,0.0765,-2.5961,0.3241,3.0202,0.8941,-0.0003,-0.0134,0.0029,0.0168,0.0044,0.0489,0.0045,31.93,28.45
11.008,301,1,0.9914,0.313437,0.326265,-0.000000,0.2280,0.3350,0.0296,0.6484,0.3350,0.0296,0.6484,-0.179876,0.037283,-0.019276,0.982794,0.0000,,0.3271,0.0241,0.6751,0.0283,1.760149,0.0348,-0.8780,0.0773,-2.5999,0.3243,3.0244,0.8938,0.0020,0.0138,0.0069,-0.0335,0.0016,0.0342,-0.0025,14.80,10.82
11.041,302,1,0.9877,0.312899,0.321419,-0.000000,0.1938,0.3350,0.0284,0.6526,0.3350,0.0284,0.6526,-0.180144,0.054649,-0.071732,0.979498,0.0000,,0.3271,0.0239,0.6747,0.0238,1.711536,0.0347,-0.8776,0.0775,-2.6016,0.3248,3.0295,0.8939,-0.0007,0.0025,0.0017,-0.0134,0.0043,0.0432,0.0013,20.98,17.87
11.070,303,1,0.9869,0.311263,0.313405,-0.000000,0.1943,0.3350,0.0252,0.6649,0.3350,0.0252,0.6649,-0.188301,0.010632,-0.116973,0.975063,0.0000,,0.3262,0.0232,0.6766,0.0147,1.783685,0.0342,-0.8790,0.0769,-2.5999,0.3257,3.0354,0.8946,-0.0043,-0.0117,-0.0056,0.0149,0.0075,0.0489,0.0054,31.44,27.79
11.123,304,1,0.9945,0.310064,0.312949,-0.000000,0.2232,0.3350,0.0225,0.6678,0.3350,0.0225,0.6678,-0.192060,0.022198,-0.065810,0.978922,0.0000,,0.3254,0.0225,0.6785,0.0143,1.758836,0.0338,-0.8801,0.0762,-2.5984,0.3263,3.0412,0.8948,-0.0039,-0.0094,-0.0054,0.0128,0.0047,0.0490,0.0016,30.47,27.03
11.150,305,1,0.9849,0.312341,0.321513,-0.000000,0.2285,0.3350,0.0261,0.6560,0.3350,0.0261,0.6560,-0.191978,0.011008,-0.017784,0.981176,0.0000,,0.3255,0.0225,0.6778,0.0241,1.789372,0.0338,-0.8794,0.0766,-2.6005,0.3265,3.0463,0.8946,0.0009,0.0068,0.0038,-0.0184,0.0022,0.0414,-0.0016,19.25,16.09
11.182,306,1,0.9906,0.311878,0.326299,-0.000000,0.2081,0.3350,0.0259,0.6469,0.3350,0.0259,0.6469,-0.182018,0.053740,-0.034292,0.981227,0.0000,,0.3262,0.0224,0.6755,0.0301,1.703398,0.0338,-0.8776,0.0770,-2.6047,0.3270,3.0502,0.8944,-0.0001,0.0154,0.0028,-0.0360,0.0036,0.0325,-0.0013,14.13,9.92
11.214,307,1,0.9896,0.313885,0.313646,-0.000000,0.1751,0.3350,0.0295,0.6636,0.3350,0.0295,0.6636,-0.178887,0.021378,-0.118613,0.976460,0.0000,,0.3255,0.0224,0.6771,0.0180,1.746128,0.0338,-0.8785,0.0774,-2.6034,0.3275,3.0560,0.8950,0.0001,-0.0094,0.0032,0.0121,0.0046,0.0491,0.0049,30.04,26.80
11.248,308,1,0.9925,0.312422,0.321072,-0.000000,0.2317,0.3350,0.0275,0.6558,0.3350,0.0275,0.6558,-0.182877,0.031175,-0.056661,0.981006,0.0000,,0.3256,0.0223,0.6766,0.0234,1.733156,0.0339,-0.8779,0.0778,-2.6053,0.3279,3.0609,0.8951,0.0005,0.0065,0.0038,-0.0167,0.0032,0.0408,0.0006,19.66,16.68
11.280,309,1,0.9925,0.316430,0.322192,-0.000000,0.2597,0.3350,0.0344,0.6528,0.3350,0.0344,0.6528,-0.159085,0.021911,0.014952,0.986908,0.0000,,0.3256,0.0234,0.6759,0.0272,1.770501,0.0348,-0.8772,0.0799,-2.6074,0.3272,3.0658,0.8944,0.0075,0.0060,0.0179,-0.0169,-0.0056,0.0402,-0.0057,20.40,16.61
11.314,310,1,0.9895,0.314594,0.311298,-0.000000,0.1915,0.3350,0.0323,0.6680,0.3350,0.0323,0.6680,-0.187928,-0.009034,-0.096688,0.977370,0.0000,,0.3246,0.0236,0.6781,0.0169,1.795363,0.0350,-0.8786,0.0805,-2.6051,0.3276,3.0716,0.8949,0.0014,-0.0129,0.0049,0.0205,0.0033,0.0492,0.0046,32.99,29.72
11.344,311,1,0.9941,0.312476,0.320550,-0.000000,0.2053,0.3350,0.0281,0.6574,0.3350,0.0281,0.6574,-0.190976,0.043659,-0.041863,0.979729,0.0000,,0.3247,0.0236,0.6775,0.0230,1.697808,0.0350,-0.8777,0.0809,-2.6070,0.3280,3.0763,0.8949,0.0005,0.0080,0.0033,-0.0174,0.0029,0.0389,-0.0000,19.26,16.40
11.373,312,1,0.9898,0.314659,0.325830,-0.000000,0.2109,0.3350,0.0313,0.6479,0.3350,0.0313,0.6479,-0.182139,0.043301,-0.050490,0.981021,0.0000,,0.3253,0.0239,0.6754,0.0301,1.699076,0.0354,-0.8760,0.0819,-2.6109,0.3283,3.0803,0.8950,0.0027,0.0149,0.0083,-0.0329,0.0027,0.0328,0.0001,14.91,10.99
11.410,313,1,0.9865,0.313885,0.316152,-0.000000,0.2117,0.3350,0.0305,0.6601,0.3350,0.0305,0.6601,-0.184839,0.029446,-0.103300,0.976881,0.0000,,0.3249,0.0239,0.6763,0.0202,1.711446,0.0354,-0.8764,0.0823,-2.6106,0.3288,3.0861,0.8955,0.0000,-0.0039,0.0028,0.0031,0.0046,0.0493,0.0042,26.79,23.62
11.440,314,1,0.9905,0.310735,0.321610,-0.000000,0.1737,0.3350,0.0246,0.6544,0.3350,0.0246,0.6544,-0.180153,0.045563,-0.123282,0.974818,0.0000,,0.3251,0.0231,0.6755,0.0233,1.675341,0.0348,-0.8755,0.0816,-2.6128,0.3299,3.0909,0.8961,-0.0050,0.0082,-0.0058,-0.0190,0.0092,0.0396,0.0051,19.45,15.85
11.486,315,1,0.9884,0.310384,0.312898,-0.000000,0.1983,0.3350,0.0230,0.6660,0.3350,0.0230,0.6660,-0.203216,0.036061,-0.037392,0.977755,0.0000,,0.3243,0.0226,0.6773,0.0156,1.698655,0.0345,-0.8765,0.0813,-2.6112,0.3303,3.0968,0.8961,-0.0020,-0.0096,-0.0028,0.0147,0.0026,0.0494,0.0003,30.94,27.68
11.520,316,1,0.9937,0.310630,0.321909,-0.000000,0.1771,0.3350,0.0231,0.6551,0.3350,0.0231,0.6551,-0.189113,0.031893,-0.081067,0.978083,0.0000,,0.3245,0.0220,0.6763,0.0237,1.697367,0.0341,-0.8755,0.0808,-2.6135,0.3311,3.1015,0.8965,-0.0036,0.0095,-0.0040,-0.0206,0.0072,0.0388,0.0028,18.72,15.28
11.551,317,1,0.9870,0.310028,0.322139,-0.000000,0.1814,0.3350,0.0220,0.6528,0.3350,0.0220,0.6528,-0.192291,0.025133,-0.083527,0.977454,0.0000,,0.3247,0.0213,0.6755,0.0249,1.708322,0.0337,-0.8746,0.0803,-2.6158,0.3320,3.1064,0.8968,-0.0037,0.0074,-0.0045,-0.0186,0.0076,0.0407,0.0031,19.46,15.99
11.581,318,1,0.9840,0.308050,0.318346,-0.000000,0.1728,0.3350,0.0183,0.6578,0.3350,0.0183,0.6578,-0.185827,0.070006,-0.129008,0.971558,0.0000,,0.3246,0.0202,0.6754,0.0205,1.608810,0.0328,-0.8742,0.0790,-2.6167,0.3332,3.1116,0.8975,-0.0073,0.0025,-0.0109,-0.0077,0.0101,0.0432,0.0055,23.53,19.80
11.613,319,1,0.9888,0.305363,0.307881,-0.000000,0.2435,0.3350,0.0128,0.6738,0.3350,0.0128,0.6738,-0.201936,0.077232,-0.061090,0.974436,0.0000,,0.3235,0.0189,0.6783,0.0138,1.593221,0.0318,-0.8760,0.0773,-2.6134,0.3339,3.1175,0.8977,-0.0080,-0.0156,-0.0140,0.0286,0.0053,0.0495,0.0015,36.58,32.52
11.645,320,1,0.9897,0.307313,0.312451,-0.000000,0.2093,0.3350,0.0153,0.6701,0.3350,0.0153,0.6701,-0.197957,0.087410,-0.026862,0.975936,0.0000,,0.3229,0.0181,0.6797,0.0157,1.574898,0.0313,-0.8764,0.0765,-2.6124,0.3342,3.1230,0.8975,-0.0040,-0.0031,-0.0062,0.0078,0.0025,0.0460,-0.0011,28.13,25.21
11.680,321,1,0.9866,0.307503,0.320361,-0.000000,0.1884,0.3350,0.0161,0.6580,0.3350,0.0161,0.6580,-0.194105,0.082505,-0.037681,0.976778,0.0000,,0.3232,0.0175,0.6786,0.0237,1.581234,0.0309,-0.8752,0.0760,-2.6148,0.3347,3.1272,0.8975,-0.0035,0.0113,-0.0048,-0.0209,0.0049,0.0347,-0.0004,18.25,15.12
11.709,322,1,0.9844,0.311675,0.311877,-0.000000,0.2280,0.3350,0.0237,0.6681,0.3350,0.0237,0.6681,-0.177980,0.056991,-0.059412,0.980584,0.0000,,0.3226,0.0177,0.6800,0.0182,1.620743,0.0311,-0.8757,0.0767,-2.6137,0.3347,3.1329,0.8975,0.0019,-0.0051,0.0061,0.0108,-0.0005,0.0482,0.0004,29.06,26.24
11.743,323,1,0.9930,0.310145,0.315080,-0.000000,0.2176,0.3350,0.0224,0.6653,0.3350,0.0224,0.6653,-0.208288,0.059975,-0.028814,0.975802,0.0000,,0.3224,0.0178,0.6802,0.0200,1.616573,0.0313,-0.8753,0.0772,-2.6140,0.3348,3.1379,0.8976,0.0018,0.0033,0.0041,-0.0037,0.0014,0.0409,0.0002,23.50,21.14
11.774,324,1,0.9913,0.315245,0.330643,-0.000000,0.1734,0.3350,0.0313,0.6423,0.3350,0.0313,0.6423,-0.175522,0.083510,-0.041377,0.980054,0.0000,,0.3239,0.0189,0.6761,0.0376,1.576334,0.0323,-0.8719,0.0793,-2.6206,0.3349,3.1400,0.8974,0.0077,0.0302,0.0180,-0.0567,0.0000,0.0172,-0.0011,14.34,11.60
11.822,325,1,0.9917,0.316543,0.315032,-0.000000,0.2226,0.3350,0.0353,0.6607,0.3350,0.0353,0.6607,-0.182864,0.025759,-0.085356,0.979087,0.0000,,0.3234,0.0201,0.6770,0.0251,1.675438,0.0332,-0.8722,0.0814,-2.6201,0.3347,3.1456,0.8978,0.0081,-0.0040,0.0177,0.0065,-0.0016,0.0474,0.0032,28.20,24.74
11.854,326,1,0.9880,0.315713,0.325804,-0.000000,0.2001,0.3350,0.0345,0.6485,0.3350,0.0345,0.6485,-0.169092,0.044919,-0.122131,0.976972,0.0000,,0.3241,0.0208,0.6747,0.0315,1.635881,0.0338,-0.8701,0.0830,-2.6241,0.3351,3.1491,0.8984,0.0051,0.0187,0.0137,-0.0349,0.0039,0.0287,0.0047,14.91,10.23
11.885,327,1,0.9842,0.317115,0.328855,-0.000000,0.1936,0.3350,0.0369,0.6419,0.3350,0.0369,0.6419,-0.168383,0.082626,-0.082345,0.978795,0.0000,,0.3250,0.0220,0.6718,0.0349,1.570884,0.0348,-0.8677,0.0853,-2.6289,0.3351,3.1521,0.8985,0.0081,0.0201,0.0192,-0.0398,0.0000,0.0251,0.0014,14.46,8.53
11.918,328,1,0.9820,0.315577,0.318480,-0.000000,0.2771,0.3350,0.0345,0.6557,0.3350,0.0345,0.6557,-0.179679,0.059806,0.029319,0.981468,0.0000,,0.3245,0.0232,0.6725,0.0228,1.641007,0.0358,-0.8678,0.0875,-2.6288,0.3342,3.1573,0.8979,0.0086,-0.0024,0.0181,0.0020,-0.0080,0.0437,-0.0051,26.57,23.20
11.947,329,1,0.9851,0.315712,0.327105,-0.000000,0.2048,0.3350,0.0343,0.6457,0.3350,0.0343,0.6457,-0.173571,0.030300,-0.075083,0.981487,0.0000,,0.3250,0.0238,0.6708,0.0290,1.672233,0.0363,-0.8663,0.0888,-2.6321,0.3344,3.1613,0.8982,0.0038,0.0140,0.0108,-0.0286,0.0023,0.0331,0.0021,15.95,12.45
11.982,330,1,0.9882,0.318182,0.315620,-0.000000,0.2356,0.3350,0.0388,0.6605,0.3350,0.0388,0.6605,-0.187916,0.018458,-0.032293,0.981481,0.0000,,0.3241,0.0251,0.6725,0.0213,1.695916,0.0374,-0.8672,0.0910,-2.6304,0.3338,3.1672,0.8982,0.0090,-0.0091,0.0186,0.0158,-0.0055,0.0497,-0.0001,31.75,28.00
12.014,331,1,0.9884,0.316601,0.310776,-0.000000,0.2470,0.3350,0.0367,0.6701,0.3350,0.0367,0.6701,-0.190555,0.014277,-0.061071,0.979671,0.0000,,0.3229,0.0258,0.6754,0.0171,1.687282,0.0380,-0.8687,0.0923,-2.6272,0.3335,3.1732,0.8985,0.0049,-0.0132,0.0110,0.0271,-0.0023,0.0498,0.0023,35.20,31.95
12.046,332,1,0.9869,0.316997,0.327523,-0.000000,0.1607,0.3350,0.0371,0.6477,0.3350,0.0371,0.6477,-0.199635,0.036771,-0.123945,0.971304,0.0000,,0.3236,0.0262,0.6731,0.0299,1.635440,0.0384,-0.8666,0.0934,-2.6312,0.3344,3.1766,0.8993,0.0034,0.0198,0.0091,-0.0354,0.0070,0.0281,0.0068,14.58,10.03
12.080,333,1,0.9827,0.317728,0.315206,-0.000000,0.2426,0.3350,0.0384,0.6614,0.3350,0.0384,0.6614,-0.201519,0.036373,-0.029061,0.978378,0.0000,,0.3229,0.0272,0.6745,0.0211,1.645646,0.0393,-0.8671,0.0952,-2.6300,0.3339,3.1823,0.8993,0.0073,-0.0060,0.0150,0.0120,-0.0040,0.0479,0.0003,29.85,26.64
12.111,334,1,0.9854,0.318350,0.311568,-0.000000,0.2450,0.3350,0.0398,0.6692,0.3350,0.0398,0.6692,-0.201640,0.040809,-0.049631,0.977350,0.0000,,0.3219,0.0281,0.6766,0.0191,1.623217,0.0400,-0.8680,0.0968,-2.6277,0.3335,3.1882,0.8995,0.0065,-0.0077,0.0135,0.0193,-0.0030,0.0492,0.0019,32.26,29.19
12.159,335,1,0.9858,0.319150,0.321518,-0.000000,0.1845,0.3350,0.0415,0.6562,0.3350,0.0415,0.6562,-0.191900,0.078855,-0.107912,0.972271,0.0000,,0.3222,0.0288,0.6755,0.0264,1.537896,0.0407,-0.8666,0.0984,-2.6298,0.3338,3.1920,0.9001,0.0053,0.0133,0.0130,-0.0194,0.0025,0.0310,0.0048,18.42,15.59
12.188,336,1,0.9858,0.316695,0.320325,-0.000000,0.2219,0.3350,0.0374,0.6556,0.3350,0.0374,0.6556,-0.181284,0.057432,-0.089104,0.977700,0.0000,,0.3223,0.0291,0.6749,0.0245,1.582038,0.0409,-0.8656,0.0992,-2.6313,0.3341,3.1964,0.9005,0.0018,0.0077,0.0068,-0.0120,0.0025,0.0374,0.0031,20.59,18.19
12.218,337,1,0.9905,0.315590,0.327775,-0.000000,0.1761,0.3350,0.0346,0.6447,0.3350,0.0346,0.6447,-0.171993,0.067953,-0.082500,0.979283,0.0000,,0.3232,0.0291,0.6723,0.0305,1.566203,0.0409,-0.8633,0.0997,-2.6357,0.3347,3.1997,0.9007,-0.0003,0.0206,0.0039,-0.0378,0.0047,0.0269,0.0020,13.77,9.16
12.255,338,1,0.9905,0.315984,0.324564,-0.000000,0.1721,0.3350,0.0349,0.6474,0.3350,0.0349,0.6474,-0.171885,0.023560,-0.121452,0.977318,0.0000,,0.3235,0.0289,0.6711,0.0270,1.649209,0.0408,-0.8620,0.1000,-2.6382,0.3354,3.2042,0.9013,-0.0011,0.0099,0.0020,-0.0199,0.0064,0.0376,0.0051,18.38,15.43
12.284,339,1,0.9822,0.315401,0.325175,-0.000000,0.1460,0.3350,0.0338,0.6470,0.3350,0.0338,0.6470,-0.183522,0.026268,-0.190356,0.964051,0.0000,,0.3239,0.0283,0.6698,0.0260,1.639926,0.0404,-0.8607,0.0997,-2.6408,0.3369,3.2086,0.9026,-0.0033,0.0111,-0.0025,-0.0216,0.0123,0.0364,0.0104,18.29,14.86
