Ovmem/robot-control-retargeting-framework/results/dynamics/joint_pd_only.csv
t,mode,err_norm,tau_norm,q1,q2,q3,q4,q5,q6,q7,qd1,qd2,qd3,qd4,qd5,qd6,qd7,tau1,tau2,tau3,tau4,tau5,tau6,tau7
0.0,pd_only,0.34861892023035096,23.749947368362736,3.92226350830356e-05,-0.6995655518053716,1.8948491240741064e-05,-2.199339506458158,-3.202340351493238e-06,1.5991520877972345,0.7996153740449371,0.0196113175415178,0.21722409731419742,0.009474245620370532,0.33024677092128013,-0.001601170175746619,-0.42395610138281575,-0.19231297753149576,16.0,-12.000000000000002,10.5,-6.000000000000005,3.0,-2.500000000000002,1.5999999999999992
0.002,pd_only,0.34902714396140455,26.16167258786583,9.35033580845285e-05,-0.6987199799600017,5.6384476748379755e-05,-2.198061727986602,-3.4482209757556006e-06,1.5975512177226112,0.7988811582528654,0.027140361500746453,0.42278592268499193,0.018717992753819346,0.6388892357779012,-0.00012294031213118135,-0.8004350373116842,-0.36710789603583394,15.722303743612109,-15.075893217969034,10.384982658168703,-9.342097321723351,3.009703091265025,-0.3590216880167838,2.3769444292272413
0.004,pd_only,0.3496723565681413,29.178886147008708,0.00015496673243809155,-0.6974850234069709,0.00010709176505279555,-2.1962064219538227,-6.285967609948896e-07,1.5952832325573778,0.797830111160211,0.030731687176781514,0.6174782765153628,0.0253536441522079,0.927653016389722,0.0014098121073803556,-1.1339925826166977,-0.525523546327234,15.612554670342789,-18.02140452078975,10.27143717358178,-12.505188678582899,3.0008410885020598,1.563394743493141,3.090808419086027
0.006,pd_only,0.3505796442730168,32.4738382847157,0.00022019184346302355,-0.6958810853570638,0.00016638314748881888,-2.193810335848837,4.6387253580272304e-06,1.592425820261675,0.7964924354223882,0.032612555512465995,0.8019690249535588,0.02964569121801166,1.1980430524929546,0.00263366105951106,-1.4287061478514356,-0.6688378689113677,15.557359040930011,-20.845893998657402,10.188259846619808,-15.504144846667877,2.9915599852585477,3.2878820991490425,3.7454919621047167
0.008,pd_only,0.3517754004197742,35.869069459153344,0.0002872965743185926,-0.6939273893443352,0.00023080867614418065,-2.190907518670956,1.1816977229067165e-05,1.5890492877161175,0.7948958514833094,0.03355236542778453,0.976848006364319,0.03221276432768088,1.4514085889403048,0.0035891259355199674,-1.688266272778771,-0.7982919695393862,15.525808875348433,-23.557079520784715,10.132604885059642,-18.351810373999356,2.9840588718821928,4.832885232715303,4.345502767197706
0.01,pd_only,0.3532860606350891,39.26618073061011,0.0003551093268917395,-0.6916420978509353,0.0002979710628131594,-2.1875295828630854,2.0510433471485525e-05,1.5852172447353785,0.7930657503569805,0.03390637628657347,1.142645746699949,0.03358119333448938,1.6889679039354235,0.00434672812120918,-1.9160214903694843,-0.9150505631644674,15.50728315806553,-26.161680941553648,10.097290220737737,-21.059634769145696,2.978110735070008,6.215099170990917,4.895250848491356
0.012,pd_only,0.35513698860688636,42.610334686726034,0.000422866615671607,-0.6890424091632803,0.00036624277538560264,-2.1837059339032576,3.0429412775492446e-05,1.5809872211247553,0.7910253613689362,0.033878644389933744,1.2998443438274956,0.034135856286221615,1.9118244799139483,0.004959489652003461,-2.115011805311604,-1.0201944940221355,15.496901985836635,-28.665672625724454,10.076167705589206,-23.637904067569124,2.9733043182686005,7.449676333462959,5.39888724551826
0.014,pd_only,0.35735157102797604,45.87135302732417,0.0004900662302555496,-0.6861446386769149,0.0004345348788958888,-2.1794639736181063,4.135757433823617e-05,1.5764112258634513,0.7887959180591653,0.033599807291971276,1.4488852431827075,0.034146051755143056,2.120980142575639,0.005464080781371861,-2.2879976306520264,-1.114721654885491,15.491869649287198,-31.074428080522516,10.064732730288346,-26.095888764944043,2.9693301797047145,8.550378498439137,5.860270748709818
0.016,pd_only,0.3599505203487052,49.03331982791458,0.0005563803746789351,-0.6829642881982163,0.0005021294460033059,-2.1748292810812413,5.312951861766582e-05,1.5715362544909317,0.7863968169745639,0.033157072211692735,1.5901752393492783,0.03379728355370857,2.3173462684324044,0.0058859721397148245,-2.437485686259805,-1.1995505423006811,15.49039739949196,-33.39282231040471,10.059829937415572,-28.44196300867003,2.965974788081622,9.52970750667385,6.282968258358659
0.018000000000000002,pd_only,0.36295136988062876,52.08871101424526,0.0006215992660060761,-0.6795161057117253,0.0005685623502679449,-2.1698257741625926,6.561584765980391e-05,1.5664047497491655,0.7838457673750483,0.03260944566357053,1.7240912432455104,0.03321645213231945,2.5017534593242434,0.006243164521069043,-2.565752370883069,-1.275524799757809,15.491290559061989,-35.62531029503259,10.059283536135267,-30.68370581944958,2.9630902816031814,10.399022069025733,6.670265829711447
0.02,pd_only,0.3663681429523234,55.03499583140443,0.000685593190622031,-0.6758141374654959,0.0006335423210164569,-2.1644758542594533,7.871304830851171e-05,1.5610550199188435,0.7811589311064199,0.031996962307977474,1.8509841231146706,0.03248998537425602,2.6749599515696145,0.006548600324353902,-2.674864915161001,-1.3434181343142033,15.493739819429527,-37.77598894849912,10.06160320989341,-32.82798814348689,2.9605725374437917,11.168643110686205,7.0251838515302705
0.022,pd_only,0.37021117724811015,57.87262283813385,0.0007482866620914614,-0.6718717738039123,0.0006968953127116808,-2.158800536314608,9.233650797372312e-05,1.5555216188044496,0.7783510524886431,0.03134673573471517,1.9711818307918196,0.03167649584761194,2.8376589724227053,0.006811729832605706,-2.7667005571969976,-1.4039393088884067,15.497195072438553,-39.848646726365715,10.065772213037777,-34.88104826012896,2.958347006604621,11.847949077833917,7.350493915128416
0.024,pd_only,0.3744864540111821,60.513892721425925,0.0008096531260289127,-0.6677012594753399,0.0007585466241477215,-2.15281758876555,0.00010636294726800648,1.5498228330557366,0.7754354163525118,0.030683231968725622,2.085257164286191,0.030825655718020345,2.99147377452916,0.0070132196471416755,-2.8493928743565373,-1.4578180680656527,15.501282766746673,-41.84680372677249,10.071099377938838,-36.84855754535058,2.9563595257651545,12.0,7.6487361857807645
0.026000000000000002,pd_only,0.37919717919522977,63.048919062550524,0.0008696860156635698,-0.6633142007035023,0.0008184697620113747,-2.1465433795237177,0.00012071718946232168,1.5439718590260783,0.7724241093458197,0.03001644481732856,2.193529385918781,0.029961568931826606,3.137104620916019,0.007177121097157597,-2.9254870148291845,-1.5056535033460456,15.505662502355529,-43.77749954197948,10.076993867693416,-38.74568241935862,2.95472979369911,12.0,7.922563945212375
0.028,pd_only,0.38434418440026347,65.51171557168844,0.0009283895688242701,-0.6587217763705672,0.0008766635393077876,-2.1399936290984507,0.00013535856430399644,1.5379813090505383,0.7693281765069134,0.029351776580350136,2.2962121664675594,0.02909688864820646,3.2748752126333707,0.00732068742083738,-2.9952749877699874,-1.5479664194531588,15.510194891304316,-45.644275346582745,10.083168289477282,-40.57844343773715,2.9533157577331846,12.0,8.174131826467788
0.03,pd_only,0.38992593753482524,67.90249261834491,0.0009857761869120913,-0.6539347532989803,0.0009331439860046852,-2.1331834469951003,0.0001502567631126721,1.5318632392786178,0.7661577083926089,0.028693309043910577,2.393511535793417,0.02824022334844877,3.4050910516751185,0.007449099404337831,-3.059034885960319,-1.5852340571522976,15.514803962369157,-47.44922822090046,10.089470888469977,-42.349134380426676,2.952015118545856,12.0,8.405302147674366
0.032,pd_only,0.3959386100568977,70.22188770080756,0.0010418636590383504,-0.6489635008443273,0.0009879385932323934,-2.1261273655669113,0.00016538555584089007,1.5256291757083384,0.7629219209815478,0.02804373606312958,2.485626227326493,0.027397303613854087,3.5280407140945167,0.007564396364108989,-3.1170317851396248,-1.6178937055305729,15.519431578432284,-49.19438123718941,10.095797240798285,-44.059903697045186,2.9507977006805928,12.0,8.617782060757012
0.034,pd_only,0.4023761940512066,72.47083919967257,0.001096673208721401,-0.6438180048178482,0.0010410822780230447,-2.118839371231506,0.00018072098814241017,1.5192901383676467,0.7596292290137914,0.027404774841525373,2.5727480132395484,0.026571842395325614,3.6439971677027994,0.007667716150760059,-3.16951867034583,-1.646345983878171,15.524038602393118,-50.88168711502472,10.102076655107483,-45.712765206930506,2.9496520551401195,12.0,8.813136402491336
0.036000000000000004,pd_only,0.40923065963842903,74.65049582969479,0.0011502281711086519,-0.6385078807962683,0.0010926145821842195,-2.1113329332197193,0.00019624070512615612,1.5128566637623047,0.7562873132840244,0.02677748119362534,2.6550620107899463,0.02576615208058737,3.7532190058932615,0.00775985849187297,-3.216737302670999,-1.6709578648834822,15.528599295520934,-52.51303179992582,10.10826213179448,-47.30960940313766,2.948572073451168,12.0,8.992799355236857
0.038,pd_only,0.41649214246093447,76.76215125038335,0.0012025531036681258,-0.6330423868723598,0.001142577748581217,-2.103621030064728,0.00021192361704024432,1.5063388257346106,0.7529031823644835,0.026162466279736996,2.7327469619542737,0.024981583198498768,3.8559515774956523,0.007841455957044099,-3.2589190138470188,-1.6920654597704734,15.533097009600553,-54.09023768735778,10.114323154280056,-48.85221406574947,2.9475536278949774,12.0,9.15808519385344
0.04,pd_only,0.4241491512588667,78.80719635509965,0.0012536731888568972,-0.6274304358908129,0.001191015409839076,-2.0957161740289787,0.00022774969682575207,1.4997462548715537,0.7494832292014587,0.02556004259438565,2.8059754907734513,0.02421883062892942,3.952428017874553,0.007913039892753864,-3.29628543152853,-1.7099765815124033,15.537521223790232,-55.615066517571044,10.12024055921733,-50.34225397107286,2.9465935557465284,12.0,9.310198191792225
0.042,pd_only,0.4321887863444546,80.7870842486669,0.0013036138343030612,-0.6216806072058068,0.0012379717004150608,-2.0876304336477283,0.00024369984383350958,1.493088156589817,0.7460332829989361,0.02497032272308201,2.874914342503097,0.02347814528799242,4.0428701906252655,0.00797507350387875,-3.329049140868295,-1.7249731012613063,15.541865548570051,-57.08922199956328,10.126002953764111,-51.78130973700682,2.9456892697387045,12.0,9.450241742020438
0.044,pd_only,0.44059696090772843,82.70330445084208,0.0013524004072410767,-0.6158011579900874,0.0012834906600537124,-2.079375454549694,0.00025975578740029424,1.4863733280138414,0.742558656773308,0.02439328646900779,2.939724607859705,0.0227594798193258,4.127489549017132,0.008027971783392335,-3.3574142879878113,-1.7373131128140609,15.546126375132609,-58.514352218578814,10.131604237515035,-53.17087588738897,2.9448385636617225,12.0,9.579226745066503
0.046,pd_only,0.44935861840201863,84.55736387956927,0.0014000580603761603,-0.609800034120257,0.0013276158373772774,-2.0709624786990672,0.0002759000167011043,1.4796101737529572,0.7390641909343765,0.02382882656754178,3.000561934915193,0.022062588661782515,4.206487925313453,0.008072114650405032,-3.3815771304421105,-1.7472329194657625,15.550301956854605,-59.89205187082887,10.13704189596433,-54.51236821718969,2.9440394956776372,12.0,9.698079315790084
0.048,pd_only,0.45845794064396966,86.3507728609052,0.0014466116199811456,-0.6036848806590597,0.0013703900307808427,-2.0624023621889607,0.0002921157285786792,1.472806720674461,0.7355542932204864,0.023276779802492684,3.057576730598637,0.021387096701782682,4.280058255053307,0.008107855938787429,-3.4017265392480582,-1.7549488569450304,15.554391783224323,-61.22386435919214,10.1423158274422,-55.80713053119051,2.9432903115965368,12.0,9.807647859175521
0.05,pd_only,0.46787854262269696,88.08503489393213,0.0014920855162503836,-0.5974630519524596,0.001411855123425612,-2.053705591704028,0.0003083867878555579,1.4659706317613002,0.7320329752897785,0.022736948134618937,3.1109143533000285,0.02073254632238462,4.348385242466334,0.008135529638439358,-3.4180444565804238,-1.760658965353946,15.558396153166612,-62.511283775656146,10.147427537423948,-57.056440819195444,2.942589392509915,12.0,9.908709563370394
0.052000000000000005,pd_only,0.477603651272297,89.76163923838979,0.0015365037422250113,-0.5911416213570395,0.0014520519826231335,-2.0448822997591973,0.0003246976963693428,1.459109219135613,0.7285038862453602,0.022209112987313838,3.1607152977100514,0.020098429598760705,4.411645972415205,0.008155454256892476,-3.430706312843569,-1.7645445222091467,15.562315884815305,-63.75575679000363,10.152379585491591,-58.261516922421684,2.9419352185336978,12.0,10.001976355620213
0.054,pd_only,0.48761626657176765,91.38205563497999,0.0015798898319110263,-0.5847273906115413,0.0014910204031777425,-2.035942278811992,0.00034103356812559884,1.4522294563226386,0.7249703433496757,0.021693044843007443,3.2071153727490715,0.019484210277304525,4.470010473602673,0.008167935878128014,-3.4398814064872454,-1.76677144784224,15.566152118799607,-64.95868445937757,10.157175206031253,-59.42352173860023,2.941326343567565,12.0,10.088100363929382
0.056,pd_only,0.4978993042696678,92.94773064302056,0.0016222668511666335,-0.5782268988651017,0.0015287990806255776,-2.0268949943375527,0.00035738010875254616,1.4453379898233565,0.7214353601624877,0.021188509627803647,3.250245873219805,0.018889338723917563,4.523642237219746,0.00817327031347366,-3.4457332496410875,-1.7674915935940345,15.569906185645015,-66.1214239695637,10.161818048449902,-60.54356800730722,2.9407613776874646,12.0,10.167678924375446
0.058,pd_only,0.5084357202796044,94.46008520739724,0.0016636573969647606,-0.5716464313738058,0.0015654256046869813,-2.01774959694809,0.00037372359798863025,1.438441150058587,0.7179016723175986,0.020695272899063484,3.290233745647943,0.01831326203070187,4.572698694731393,0.008171744618042055,-3.4484198823847505,-1.7668439224445134,15.573579517117421,-67.24529031586914,10.166311999669198,-61.62272271194431,2.9402389748565816,12.0,10.241259171126385
0.06,pd_only,0.5192086173633438,95.92051316032205,0.0017040836020311648,-0.5649920278765197,0.001600936466260219,-2.008514933631925,0.0003900508743148264,1.4315449617421023,0.7143717611356617,0.020213102533202108,3.327201748643038,0.017755430786618856,4.617331658082366,0.008163638163098065,-3.448094158242351,-1.7649555909684278,15.577173587655931,-68.33155792916673,10.170661063303488,-62.66201113042855,2.9397578243520894,12.0,10.309342243426082
0.062,pd_only,0.5302013351272086,97.33038043278155,0.0017435671428171243,-0.558269490660499,0.001635367073357045,-1.9991995581814301,0.00040634932110941545,1.4246551537355308,0.7108478752540623,0.0197417703929798,3.3612686080103122,0.01721530354841294,4.6576877252474755,0.008149223397294514,-3.4449040032858393,-1.7619429407996854,15.580689876372677,-69.38146225088096,10.174869277922358,-63.66242056290817,2.9393166447919667,12.0,10.372387141160477
0.064,pd_only,0.5413975246263129,98.6910248024198,0.00178212924942462,-0.5514843923269656,0.0016687517728087044,-1.9898117408739513,0.00042260685388900135,1.4177771684334342,0.7073320504398061,0.019281053303747842,3.392549166766708,0.01669234972582967,4.6939086537394665,0.008128766389792957,-3.438992651048301,-1.7579124071281633,15.584129843072914,-70.39620125930445,10.17894066228405,-64.62490376158897,2.938914179982951,12.0,10.430814258117495
0.066,pd_only,0.5527812090242956,100.00375604367926,0.001819790716554745,-0.5446420832666524,0.0017011238755560685,-1.9803594774651183,0.00043881190832990955,1.4109161707228701,0.703826127737526,0.018830733565062496,3.4211545301565853,0.016186051373682103,4.726131704416493,0.008102527220454106,-3.430498855281991,-1.752961351140064,15.587494913793561,-71.37693694857667,10.182879179193433,-65.5503820849576,2.938549196044572,12.0,10.485008619716531
0.068,pd_only,0.5643368318175692,101.26985637568741,0.0018565719148610491,-0.5377476988552117,0.0017325156840180475,-1.9708504975497287,0.00045495342885557103,1.4040770565579803,0.7003317700920337,0.01839059915315208,3.4471922057203765,0.015695904230989436,4.75448995769478,0.008070760262830734,-3.419557082444881,-1.747178822746127,15.590786472764746,-72.32479676086,10.18668871222689,-66.43974839625784,2.9382204794273785,12.0,10.535322849809736
0.07,pd_only,0.5760492941249478,102.4905811260648,0.0018924928023027901,-0.5308061663783316,0.0017629585205031354,-1.9612922723415975,0.00047102085763970687,1.3972644611866567,0.696850477573196,0.017960443720870484,3.4707662384400653,0.015221418242543944,4.779112604065565,0.00803371439206793,-3.40629768566176,-1.7406462594188767,15.594005858666987,-73.24087497166833,10.190373051346862,-67.2938697239641,2.9379268355573487,12.0,10.582079889143833
0.07200000000000001,pd_only,0.5879039824853542,103.66715954630361,0.001927572935239003,-0.523822211696399,0.0017924827559551244,-1.951692021920327,0.00048700412392019835,1.3904827670630966,0.6933836013202396,0.017540066468106408,3.4919773409662844,0.014762117725994499,4.800125210635201,0.007991633140245752,-3.3908470617800184,-1.7334381264781662,15.59715436372359,-74.12623402789438,10.193935884654254,-68.11358970015982,2.9376670879184013,12.0,10.625575486211588
0.074,pd_only,0.5998867885145054,104.80079572792236,0.001961831479103826,-0.5168003656585568,0.0018211178385504788,-1.9420567219898268,0.0005028936335501266,1.383736111477047,0.6899323563127977,0.017129271932411476,3.510923018921071,0.014317541297677183,4.8176499652501,0.007944754814964093,-3.373327793024827,-1.7256225037209627,15.60023323462739,-74.98190583781607,10.197380794371208,-68.8997307911324,2.93744007744092,12.0,10.666080479507873
0.076,pd_only,0.6119841216591875,105.89266957919334,0.0019952872185710533,-0.5097449702760242,0.0018488923218224456,-1.9323931101905643,0.000518680258734567,1.377028393927742,0.6864978330670298,0.016727869733613676,3.5276976912662903,0.013887241635983476,4.831805899631238,0.007893312592220219,-3.353858774652507,-1.7172616228839352,15.603243674617934,-75.80889301221045,10.200711255729338,-69.65309633311139,2.9372446621037116,12.0,10.703842888627896
0.078,pd_only,0.6241829161652257,106.94393783057421,0.0020279585671613733,-0.5026601846645659,0.001875833892096911,-1.9227076920049164,0.0005343553279171184,1.370363283267935,0.6830810083469232,0.016335674295159888,3.542392805729128,0.013470785137232665,4.842709092823942,0.007837534591275725,-3.332555329903426,-1.7084123600533176,15.606186846243725,-76.60817005564613,10.203930637840626,-70.37447238487854,2.937079716684642,12.0,10.739089830195145
0.08,pd_only,0.6364706332501171,107.95573504358413,0.002059863576276062,-0.4955499907660024,0.0019019693951019296,-1.9130067462925855,0.0005499106157907978,1.3637442246410032,0.6796827549733367,0.01595250455734438,3.555096949281715,0.013067751502509273,4.850472856165452,0.0077776439368396994,-3.309529313465992,-1.6991266867932184,15.609063874494852,-77.38068450704252,10.207042205906422,-71.06462940794444,2.936944132614832,12.0,10.772029273274807
0.082,pd_only,0.6488352593489793,108.92917460314459,0.0020910199436607988,-0.48841819885864046,0.0019273248616668668,-1.9032963304908181,0.0005653383334152409,1.3571744462318422,0.6763038508064395,0.01557818369236849,3.5658959536809895,0.012677733282468621,4.855207900883646,0.007713858812221521,-3.2848892045804514,-1.6894520834486084,15.611875850095096,-78.1273580286638,10.210049124312754,-71.72432378409941,2.936836817905238,12.0,10.802851647706138
0.084,pd_only,0.6612653011866307,109.86534967765704,0.002121445021316014,-0.4812684528664674,0.001951925532465151,-1.8935822855120912,0.0005806311184270965,1.350656965850173,0.6729449869708587,0.01521253882760775,3.5748729960865266,0.012300335399142067,4.857022489363479,0.007646392505927805,-3.258740190834565,-1.6794319177904002,15.614623832813978,-78.84908744284262,10.212954460293696,-72.35429917938738,2.9367566971242143,12.0,10.831731317665643
0.08600000000000001,pd_only,0.673749778321519,110.76533413454217,0.0021511558228780765,-0.4741042354768922,0.0019757958817815746,-1.8838702403699874,0.000595782025333801,1.3441945973629086,0.6696067753870483,0.014855400781031229,3.5821086947876184,0.011935174658211938,4.856022571051938,0.007575453453352238,-3.231184243632203,-1.6691057919052237,15.617308854708211,-79.54674571589398,10.215761187937733,-72.95528776290934,2.93670271141162,12.0,10.858827931744427
0.088,pd_only,0.6862782137100648,111.63018340179322,0.0021801690305002217,-0.46692887307672054,0.0019989596403042374,-1.8741656165621552,0.0006107845158830681,1.3377899569904088,0.6662897556670688,0.014506603811072528,3.587681200085816,0.011581879261331357,4.852311903916055,0.007501245274633535,-3.2023201862499,-1.6585098599897394,15.619931923235317,-80.22118288887529,10.218472192376746,-73.52801128832014,2.9366738185198726,12.0,10.884287659879929
0.09,pd_only,0.698840622753228,112.4609352684309,0.002208501001264523,-0.45974554051593064,0.002021439816954885,-1.8644736322375135,0.0006256324495017979,1.331445469479739,0.6629944014280952,0.014165985382150626,3.591666280394954,0.011240088325323892,4.845992162320793,0.007423966809364876,-3.172243755334909,-1.6476771194868174,15.622494024204968,-80.87322695506379,10.221090274042727,-74.07318204543125,2.936668992875707,12.0,10.90824432661758
0.092,pd_only,0.7114275012106347,113.25861061869364,0.0022361677731571475,-0.45255726570865673,0.0020432587197812,-1.8547993061732073,0.0006403200737989516,1.3251633741664575,0.6597211260725013,0.013833385946312277,3.594137403636967,0.01090945141315734,4.837163032153116,0.007343812148576886,-3.1410476566408425,-1.6366376777969538,15.62499612454873,-81.5036846842549,10.223618152909271,-74.59150368895715,2.936687225658757,12.0,10.930820449385365
0.094,pd_only,0.7240298123009438,114.02421409643105,0.0022631850706391465,-0.4453669340806003,0.0020644379759416,-1.8451474615852383,0.0006548420151274495,1.3189457309349712,0.6564702880792785,0.013508648740999373,3.5951658140282134,0.01058962808019993,4.825922293984436,0.007260970664248956,-3.1088216157430577,-1.6254189966113848,15.627439174899058,-82.11334239422499,10.226058472657428,-75.08367195113874,2.9367275248945703,12.0,10.952128189737788
0.096,pd_only,0.736638973249612,114.75873469755443,0.00228956830984445,-0.4381772928718658,0.0020849985508181322,-1.8355227297951688,0.0006691932692004584,1.3127944260861206,0.6532421958477944,0.013191619602651807,3.594820604367251,0.010280287438266133,4.812365895034805,0.007175627036504432,-3.0756524244252703,-1.6140461157420467,15.62982411197488,-82.70296666994696,10.228413804721688,-75.55037524473008,2.936788915560683,12.0,10.972270224859969
0.098,pd_only,0.7492468414960151,115.46314628957724,0.0023153326034358167,-0.43099095530396425,0.002104960766296582,-1.825929553773813,0.0006833691917576463,1.3067111781193588,0.6500371121314613,0.01288214679568342,3.5931687839507616,0.00998110773922499,4.796588010677943,0.007087961278593968,-3.0416239833809406,-1.6025418581665467,15.63215186077532,-83.27330503139225,10.230686652183536,-75.99229516263793,2.93687043970496,12.0,10.9913405460123
0.1,pd_only,0.7618457007301327,116.13840805829459,0.0023404927651483652,-0.4238104046194454,0.0021243443182553745,-1.8163721915814017,0.0006973654892771565,1.3006975434357035,0.6468552580957364,0.012580080856274172,3.5902753422594156,0.009691775979396225,4.778681096205562,0.006998148759755065,-3.0068173418275723,-1.590927017862433,15.634423336585568,-83.82508655099352,10.23287945348854,-76.41010688035067,2.9369711565757073,12.0,11.00942519003696
0.10200000000000001,pd_only,0.7744282468938641,116.78546488252236,0.002365063314049125,-0.41663799800230616,0.002143168293306455,-1.8068547197222982,0.0007111782097292418,1.294754921966526,0.64369681703199,0.012285274450379963,3.586203308569633,0.009411987525540198,4.758735929551813,0.0069063602260426675,-2.9713107345888146,-1.5792205318732153,15.636639446800295,-84.35902242207618,10.23499458596937,-76.80447946717155,2.937090142763155,12.0,11.026602909535004
0.10400000000000001,pd_only,0.7869875742526758,117.40524763857454,0.002389058478539828,-0.40947597038698547,0.0021614511848322953,-1.7973810364309717,0.00072480373336774,1.28888456273221,0.6405619377561345,0.011997582245351492,3.5810138076603484,0.009141445762920053,4.7368416456632225,0.006812761819249106,-2.935179617157962,-1.5674396379277598,15.638801092570752,-84.87580647979037,10.237034369162064,-77.17607611218025,2.9372264923518667,12.0,11.04294578685306
0.106,pd_only,0.7995171616189203,117.99867343680971,0.0024124922001289547,-0.4023264381633939,0.0021792109083635953,-1.7879548649046002,0.0007382387635558691,1.2830875693337764,0.6374507377184865,0.01171686079456342,3.574766111795776,0.008879861765650032,4.713085763185777,0.006717515094064585,-2.8984966992168237,-1.5556000188239631,15.640909170281894,-85.37611567628605,10.239001067906697,-77.52555427077394,2.937379317083473,12.0,11.05851979658835
0.108,pd_only,0.8120108587881218,118.5666457931432,0.002435378136997904,-0.3951914027850424,0.0021964648163422455,-1.7785797564963441,0.0007514803176232055,1.2773649053796847,0.6343633058491142,0.011442968434474786,3.5675176891757765,0.008626953989325054,4.687554204128026,0.006620777033668174,-2.861331977045854,-1.543715934686145,15.642964572865795,-85.86061051206934,10.240896895226747,-77.85356573758177,2.9375477465289364,12.0,11.073385320926123
0.11,pd_only,0.8244628732331549,119.11005473890673,0.002457729667385035,-0.3880727542869333,0.0022132297123137273,-1.7692590938820503,0.0007645257177511652,1.2717173998492355,0.631299705160889,0.011175765193565362,3.559324249054546,0.008382447985740915,4.660331307146928,0.00652270006397982,-2.823752765224667,-1.5318003441126191,15.64496819095752,-86.32993542565748,10.242724014984141,-78.16075665149963,2.937730928269295,12.0,11.087597621762297
0.112,pd_only,0.8368677570879959,119.62977687285021,0.002479559892810268,-0.38097227471946127,0.002229521864592434,-1.7599960942118682,0.000777372581884853,1.2661457523932624,0.6282599751305996,0.01091511271261653,3.5502397837359916,0.008146076139353399,4.631499835091017,0.006423432066843916,-2.7858237279865565,-1.5198650151446955,15.646920913899283,-86.78471914380899,10.244484544309149,-78.44776743854626,2.9379280280835864,12.0,11.101207273232697
0.114,pd_only,0.8492214010278851,119.96298262274507,0.002500890683311528,-0.37389093381319655,0.002245365658315536,-1.7507930288802471,0.0007900150055044867,1.2606501582972254,0.6252441366015706,0.010665395250629874,3.5406704531323725,0.007921896861550965,4.601532665810574,0.006321211809816817,-2.7477970480185174,-1.5079192645144663,15.648823630598548,-87.0,10.246180555806289,-78.7152326981981,2.938138230142391,12.0,11.11426055796679
0.116,pd_only,0.8615209035955643,120.13035684113393,0.002521747183651556,-0.3668289808347108,0.002260790958709764,-1.7416513245522058,0.0008024490000143791,1.2552303738271915,0.622252193119181,0.010428250170014072,3.5309764892428714,0.007712650197114108,4.570852164020595,0.00621699725494622,-2.709892235016985,-1.495971741194791,15.65061321182626,-87.0,10.2477616415793,-78.96774492529093,2.9383722789759648,12.0,11.126794326026452
0.11800000000000001,pd_only,0.8737085456548732,120.29083262218185,0.0025416595771142127,-0.3598249215159659,0.002275356112635152,-1.732615186434964,0.0008148760142566066,1.2499068363945325,0.6192839809240211,0.009956196731328307,3.5020296593724596,0.0072825769626941395,4.51806905862098,0.006213507121113745,-2.6617687163294566,-1.4841060975799458,15.65226472292768,-87.0,10.249192830524947,-79.2094421670736,2.9386245464698915,12.0,11.138843102395544
0.12,pd_only,0.8857336600918241,120.30237350487529,0.002560450768068285,-0.3529124267411515,0.002288757600900554,-1.7237231169731777,0.0008272123710484266,1.2446965498650635,0.6163393563095076,0.009395595477036016,3.4562473874072244,0.006700744132700966,4.446034730893122,0.00616817839591001,-2.6051432647344535,-1.4723123072567719,15.657280479592266,-87.0,10.25333414856321,-79.22377940011198,2.93827267684562,12.0,11.15074477183936
0.122,pd_only,0.8975677423102789,120.18185606251615,0.0025781879919172497,-0.3461100055493419,0.0023009700516928963,-1.7149962110984494,0.0008392840827648975,1.2396075467780123,0.6134182303327786,0.008868611924482525,3.401210595904798,0.00610622539617121,4.363452937364152,0.0060358558582354815,-2.5445015435255836,-1.4605629883645004,15.663625601876033,-87.0,10.259378038344549,-79.03696029054058,2.9381745584930874,12.0,11.162462102836933
0.124,pd_only,0.9091954143511537,119.9857186345703,0.002594995917936739,-0.339427322473198,0.002312110218823759,-1.7064453247248614,0.0008509806995111812,1.2346426334954055,0.6105205360548892,0.008403963009744568,3.341341538071941,0.005570083565431382,4.275443186793988,0.0058483083731418455,-2.4824566413034646,-1.4488471389447102,15.669584393703865,-87.0,10.265657391627444,-78.73475670773458,2.93860634236764,12.0,11.17388734680243
0.126,pd_only,0.9206090892741142,119.74739869404334,0.002611005572391981,-0.332868894532894,0.002322344444053061,-1.698075295103854,0.0008622512166581111,1.2298015911217615,0.6076462113677024,0.008004827227621065,3.2792139701520155,0.005117112614650965,4.185014810503752,0.005635258573464997,-2.420521186821973,-1.437162343593408,15.674744844428638,-87.0,10.271311281897159,-78.36771238444823,2.9393807287758134,12.0,11.184977834681057
0.128,pd_only,0.9318058160945063,119.48664672882053,0.0026263364337635485,-0.32643625392076125,0.0023318416626989034,-1.6898874264678,0.0008730814213537282,1.2250824686677035,0.6047951903764959,0.007665430685783652,3.2163203060663594,0.004748609322921313,4.093934318026956,0.005415102347808528,-2.359561227028969,-1.4255104956032412,15.679051973021947,-87.0,10.276030537540475,-77.9656303988063,2.940320912059467,12.0,11.195725147019584
0.13,pd_only,0.9427856470991608,119.15206447395327,0.0026410925598650483,-0.320129052752234,0.0023407548766762377,-1.6818807699331784,0.0008834759656807891,1.2204822543409013,0.6019674001682646,0.007378063050749971,3.1536005842636206,0.00445660698866711,4.003328267310918,0.005197272163530438,-2.3001071634011434,-1.413895104115673,15.682577055697944,-86.91358397126814,10.27978777173602,-77.54609759220156,2.941316943272537,12.0,11.206138174883048
0.132,pd_only,0.9535509759309937,118.60427721751367,0.002655364817779328,-0.31394550051852194,0.0023492177298198927,-1.674052637507681,0.000893447630565692,1.2159971577702517,0.5991627606313737,0.007136128957139816,3.0917761168560394,0.004231426571827604,3.9140662127487524,0.0049858324424514495,-2.2425482853247263,-1.4023197684453894,15.685419712500297,-86.54008395951196,10.282667874768658,-77.12043647711849,2.9423120880483937,12.0,11.216232413097401
0.134,pd_only,0.9641047785103131,118.06019034051083,0.00266922113051772,-0.3078835338537915,0.002357334346804116,-1.6663999724238612,0.0009030172476752092,1.2116232901348003,0.596381181263703,0.0069281563691961055,3.0309833323651953,0.004058308492111579,3.826332541909862,0.0047848085547586095,-2.1869338177257247,-1.3907896838353864,15.687665009177696,-86.16922559450279,10.284777640050676,-76.69750387702669,2.943281576428321,12.0,11.226023861154083
0.136,pd_only,0.974450385447661,117.52266856985806,0.0026827138640737546,-0.3019409553371057,0.002365183760324785,-1.6589195163585553,0.0009122057678172069,1.2073567484805408,0.5936225624171987,0.006746366778017157,2.9712892583429307,0.003924706760334616,3.740228032652922,0.004594260070998836,-2.1332708271297576,-1.379309423252178,15.689468120389838,-85.8030839448094,10.286286893818374,-76.27932707366696,2.9442006312411926,12.0,11.235535110067486
0.138,pd_only,0.9845913452652258,116.99332972404251,0.0026958836001392144,-0.29611551225436483,0.0023728252245802397,-1.6516079065502811,0.0009210324453226891,1.2031936637658371,0.5908867965019873,0.006584868032730001,2.912721541370438,0.003820732127727307,3.6558049041370873,0.004413338752741128,-2.0815423573518355,-1.3678829576057019,15.69093375598186,-85.44277318983256,10.28734065565325,-75.8671093450159,2.9450682665394905,12.0,11.24478644466474
0.14,pd_only,0.9945313406551058,116.47307400633632,0.0027087618840276793,-0.2904049410798264,0.0023803027558674237,-1.644461732530132,0.0009295145876040552,1.1991302280474132,0.588173769079027,0.006439141944232452,2.8552855872692255,0.0037387656435919877,3.573087010074525,0.004241071140683077,-2.0317178592119722,-1.3565137114801593,15.692141159530642,-85.08886059883694,10.288053448746656,-75.46157464835403,2.945888994123873,12.0,11.25379590038306
0.14200000000000002,pd_only,1.0042741358788025,115.96238714516477,0.002721373356100004,-0.28480699240365304,0.002387648773662595,-1.6374775695897834,0.000937667722157563,1.19516270966884,0.5854833598167835,0.0063057360361624655,2.7989743380866896,0.0036730088975855586,3.492081470174353,0.0040765672767538955,-1.9837591892865678,-1.3452046311217751,15.693151062058533,-84.74160293538304,10.288513619366176,-75.06316614893734,2.94666813552778,12.0,11.262579464340098
0.14400000000000002,pd_only,1.0138235426105193,115.46151429505369,0.002733737402149878,-0.2793194447146217,0.0023948869471752394,-1.63065199883312,0.0009455058588994606,1.1912874615373694,0.5828154433148216,0.0061820230249370455,2.7437738445156605,0.0036190867563221474,3.412785378331699,0.003919068370948789,-1.9376240657352446,-1.3339582509809036,15.694009827005726,-84.40108134092141,10.288788479072592,-74.67216052635655,2.9474105646747497,12.0,11.271151328151431
0.146,pd_only,1.0231833968508413,114.97055991505215,0.0027458694200100764,-0.2739401118364168,0.0024020343868537235,-1.6239816194675185,0.0009530417492305794,1.1875009254060254,0.5801698898082462,0.0060660089300991924,2.6896664391024685,0.00357371983924192,3.3351896828008076,0.0037679451655594346,-1.893268065671991,-1.3227767532877028,15.69475268547889,-84.0672782460495,10.288928872621867,-74.2887338533298,2.948120414007324,12.0,11.279524137627183
0.148,pd_only,1.0323575426150347,114.48954523722124,0.0027577817845055733,-0.26866684675410263,0.0024091033137970445,-1.6174630565821284,0.0009602871118815814,1.1837996338341978,0.5775465657699197,0.0059561822477485595,2.636632541157099,0.0035344634716604462,3.2592814426950687,0.0036226813255009786,-1.8506457859137497,-1.3116620191632726,15.695406321377808,-83.74012120052123,10.288972954849337,-73.912999659957,2.948801076529726,12.0,11.287709216985887
0.15,pd_only,1.041349819879017,114.01844143416038,0.00276948457876388,-0.2634975433907889,0.0024161023218647283,-1.6110929662775635,0.000967252819298898,1.180180210787581,0.5749453344268523,0.005851397129153402,2.5846516816568745,0.0034995040338420074,3.1850451522825063,0.0034828537086582824,-1.8097115233084493,-1.3006156715337422,15.695990905771074,-83.41950783587119,10.288949206374282,-73.54503103202299,2.949455298690547,12.0,11.295716761254695
0.152,pd_only,1.05016405529525,113.55718885676193,0.002780986146501443,-0.2584301372234651,0.002423037326647293,-1.6048680392180683,0.000973949046974627,1.1766393714304655,0.5723660562052538,0.005750783868781366,2.5337030836619205,0.0034675023912823337,3.1124635297475733,0.0033481138378645236,-1.770419678557727,-1.2896391107992304,15.696521673890743,-83.10532007193314,10.288878789063364,-73.18487354617127,2.9500852931690837,12.0,11.303555997597925
0.154,pd_only,1.0588040547876534,113.10570828040206,0.0027922935081754353,-0.2534626052444624,0.002429912276133187,-1.598785003222419,0.0009803853910053718,1.1731739214299926,0.5698085891164767,0.005653680836996052,2.483765989501351,0.003437474742947069,3.0415179978247426,0.0032181720153724143,-1.7327250002364813,-1.2787335443885686,15.697010134116947,-82.79743219338968,10.288777358439303,-72.83255294439165,2.9506928455635744,12.0,11.311235319091846
0.156,pd_only,1.0672735974820866,112.66390755929518,0.0028034126741634155,-0.2485929655570453,0.002436729681320569,-1.5928406252492044,0.0009865709596705863,1.1697807559583757,0.5672727890939088,0.005559582993990157,2.434819843708551,0.0034087025936909115,2.9721889866071853,0.0030927843326072025,-1.6965827358084018,-1.2679000112839787,15.69746498762802,-82.49571543346192,10.288656443755311,-72.48807978490231,2.951279406177605,12.0,11.318762395224741
0.158,pd_only,1.0755764306324507,112.2316856356987,0.002814348880339752,-0.24381927676948495,0.002443491011471305,-1.5870317129828586,0.0009925144443595796,1.1664568585025694,0.5647585102889792,0.005468103088168223,2.3868443937801738,0.003380665075368077,2.9044561331728755,0.0029717423444966386,-1.6619487279031557,-1.2571394024647837,15.697892824151065,-82.2000405673561,10.288524491183267,-72.1514523511196,2.9518461652142394,12.0,11.326144263257738
0.16,pd_only,1.0837162653226937,111.80893501916134,0.0028251067653110766,-0.23913963728126528,0.0024501969879690026,-1.5813551161412847,0.0009982241743812879,1.1631992995469382,0.5622656053328553,0.005378942485662244,2.339819744109833,0.0033529882488486404,2.8382984207870257,0.002854865010854086,-1.628779477815603,-1.2464524780619477,15.698298646338467,-81.91027937136363,10.288387648292591,-71.82265855275726,2.952394112602233,12.0,11.333387404079552
0.162,pd_only,1.0916967727969593,111.39554337524484,0.0028356905038596975,-0.2345521845148083,0.002456847802407731,-1.5758077275769085,0.0010037081593496232,1.1600052351691914,0.5597939255691237,0.005291869274310454,2.2937263832284915,0.0033254072193640944,2.7736942821881283,0.0027419924841676105,-1.5970321888734538,-1.2358398818658212,15.698686263975842,-81.62630543503644,10.288250351855986,-71.50167723939319,2.9529240847034366,12.0,11.340497805590685
0.164,pd_only,1.099521581313952,110.9913945909039,0.0028461039075436487,-0.23005509412316913,0.0024634432781548794,-1.5703864842148636,0.0010089741220717398,1.1568719055751917,0.5573433212617244,0.0052067018419756994,2.2485451958195926,0.0032977378735743156,2.710621681022419,0.0026329813610583086,-1.5666647969998495,-1.2253021536996629,15.699058589850878,-81.34799460401422,10.28811576719909,-71.18847916726679,2.9534368003145057,12.0,11.347481016080812
0.166,pd_only,1.1071942734489484,110.59636952786781,0.0028563505006720634,-0.2256465791910771,0.0024699829897895883,-1.5650883678558243,0.00101402952421876,1.1537966335896768,0.5549136417815962,0.00512329656420733,2.2042574660460073,0.003269855817354408,2.649058179519605,0.002527701073510073,-1.5376359927575012,-1.2148397400640618,15.69941786160885,-81.07522521162076,10.287986116046268,-70.8830277573324,2.953932888171498,12.0,11.354342189564164
0.168,pd_only,1.1147183837844752,110.21034658609769,0.0028664335778151094,-0.2213248894392378,0.002476466351169762,-1.559910405861648,0.0010188815865325614,1.150776823114833,0.5525047357748541,0.005041538571523096,2.160844875919649,0.003241680690087029,2.5889809970881483,0.0024260311569006365,-1.5099052374219328,-1.2044530033710052,15.699765808047333,-80.80787818935794,10.287862920906475,-70.58527972384661,2.954412907832377,12.0,11.361086124624324
0.17,pd_only,1.1220973969424313,109.83320214819773,0.0028763562474597437,-0.217088310437543,0.002482892680144491,-1.5548496717365359,0.0010235373049061935,1.147809957565565,0.5501164513148179,0.004961334822317196,2.118289500847398,0.0032131644873644697,2.530367062556091,0.0023278591868160854,-1.4834327746340477,-1.1941422300181332,15.70010377377347,-80.54583710773606,10.287747187137072,-70.29518561918262,2.9548773654626195,12.0,11.367717297986939
0.17200000000000001,pd_only,1.1293347459186112,109.46481094624723,0.0028861214652618947,-0.21293516283038813,0.002489261245883352,-1.5499032856132027,0.0010280034633520286,1.1448935982883495,0.5477486360398169,0.004882608901075473,2.076573803577438,0.003184282869430347,2.473193061666633,0.002233079222917555,-1.4581796386077126,-1.1839076375004738,15.700432812690782,-80.28898817686013,10.287639538541512,-70.01269032136878,2.955326725731918,12.0,11.374239893776174
0.17400000000000002,pd_only,1.136433810686555,109.10504637558114,0.0028957320594769367,-0.20886380157588483,0.002495571303268563,-1.5450684146516063,0.0010322866446232184,1.1420253829692804,0.5454011372783856,0.0048052971075208725,2.0356806272516548,0.0031550286926054515,2.417435480798221,0.002141590635594859,-1.4341076595345956,-1.173749380715664,15.700753758163993,-80.03722022365308,10.287540318355001,-69.73773347987418,2.955761420761934,12.0,11.380657829205557
0.176,pd_only,1.1433979170421662,108.75378077025552,0.002905190750500728,-0.2048726151999373,0.002501822117659827,-1.5403422733565824,0.001036393239064652,1.1392030240360154,0.5430738021632121,0.004729345511895795,1.9955931879737623,0.0031254071956320147,2.363070647512008,0.002053297220716849,-1.4111794666325195,-1.1636675575867506,15.701067275736554,-79.79042465545238,10.287449664459935,-69.47024992888585,2.9561818568477345,12.0,11.386974777294945
0.178,pd_only,1.1502303356641197,108.41088564924608,0.0029145001659680674,-0.20096002506567057,0.002508012982496311,-1.5357221238199459,0.0010403294521261434,1.136424307057683,0.5407664777350081,0.004654707733669668,1.956295067133364,0.0030954324182417966,2.310074768318272,0.0019681065307456612,-1.3893584891661852,-1.1536622141020143,15.701373902793403,-79.54849541563769,10.287367565416227,-69.21017007372515,2.9565884195037593,12.0,11.39319418708276
0.18,pd_only,1.1569342813679855,108.07623193910244,0.0029236628524927457,-0.19712448465841304,0.00251414323157144,-1.5312052758920838,0.0010441013108623417,1.1336870891462896,0.5384790110373037,0.004581343262339253,1.9177702036287718,0.0030651245375644433,2.2584239639310186,0.0018859293680991375,-1.3686089556967085,-1.143733348852204,15.70167407845118,-79.31132893461344,10.287293902206358,-68.95742025398599,2.9569814772517415,12.0,11.399319301707894
0.182,pd_only,1.1635129125344315,107.7496901768167,0.002932681284862422,-0.19336447888626287,0.0025202122473485943,-1.526789087287667,0.0010477146696624548,1.1309892973627498,0.5362112492030421,0.0045092161848381655,1.8800028860750775,0.003034507888577226,2.2080943022083894,0.0018066794000565671,-1.3488958917699199,-1.133880917130773,15.701968166127832,-79.07882407812977,10.287228479339225,-68.71192308578517,2.957361384465535,12.0,11.405353174662743
0.184,pd_only,1.1699693306939436,107.43113069549288,0.002941557873299021,-0.18967852339616068,0.002526219466337994,-1.522470963629799,0.0010511752153917618,1.1283289271303059,0.5339630395337397,0.004438294218299214,1.842977745051105,0.0030036094946998006,2.159061828933945,0.001730272864653575,-1.3301851162219491,-1.1241048346511953,15.702256470623272,-78.85088209415005,10.28717104802267,-68.47359778482388,2.9577284835097872,12.0,11.41129868446225
0.186,pd_only,1.1763065802522876,107.12042379469064,0.0029502949692439347,-0.1860651639053218,0.0025321643822962835,-1.518248358436663,0.00105448847208109,1.1257040406577898,0.531734229571887,0.00436854797245685,1.8066797454194448,0.002972457979144828,2.1113025965679775,0.0016566283446641157,-1.3124432362580571,-1.1144049809263805,15.70253925107989,-78.62740655902262,10.287121323419942,-68.24236047155152,2.958083106350326,12.0,11.417158547929986
0.188,pd_only,1.1825276483425196,106.81743989687533,0.002958894870014014,-0.18252297554783767,0.0025380465478176835,-1.5141187730544998,0.0010576598052661303,1.123112765374903,0.5295246671671908,0.004299950385039776,1.771094178742066,0.002941082760700036,2.064792691081621,0.0015856665925201585,-1.2956376414434614,-1.1047812023480907,15.70281673084609,-78.40830332344649,10.287078997489521,-68.01812445948,2.9584255757695828,12.0,11.422935332267782
0.19,pd_only,1.1886354647907182,106.52204969112498,0.0029673598225894784,-0.1790505622362241,0.002543865574742048,-1.5100797565405486,0.0010606944260528007,1.1205532923814407,0.5273342005371937,0.004232476287732134,1.736206655806783,0.0029095134621821843,2.019508256975655,0.0015173103933352379,-1.2797364967310265,-1.0952333149985498,15.703089105008322,-78.19348045856191,10.28704374852436,-67.80080052754624,2.9587562062868953,12.0,11.428631466048547
0.192,pd_only,1.1946329021838606,106.23412426505875,0.0029756920267312898,-0.1756465560376736,0.0025496211336981673,-1.5061289054993923,0.0010635973949656638,1.1180238749121627,0.52516267832275,0.004166102070905652,1.7020030992752504,0.002877779478059723,1.9754255205782096,0.0014514844564315816,-1.2647087346389723,-1.0857611072218807,15.703356546164592,-77.98284820239704,10.28701524822187,-67.59029717732365,2.9590753048584046,12.0,11.434249249250325
0.194,pd_only,1.2005227760293369,105.95353522582471,0.0029838936375778118,-0.1723096165647534,0.0025553129530207943,-1.5022638638759729,0.001066373625622046,1.1155228268187996,0.5230099496387914,0.004100805423261116,1.6684697364600993,0.0028459096613134625,1.9325208117097388,0.0013881153281910237,-1.250524046681536,-1.0763643419792828,15.703619208868819,-77.77631890683962,10.286993166904413,-67.38652087581858,2.9593831714124406,12.0,11.439790862432524
0.196,pd_only,1.2063078449965912,105.68015481089287,0.00299196676783471,-0.16903843038027996,0.002560940817220197,-1.498482322708375,0.0010690278882637676,1.1130485210705068,0.5208758641207738,0.004036565128449033,1.6355930922367188,0.00281393209970147,1.8907705837989195,0.0013271313208607978,-1.237152874146409,-1.067042759008821,15.70387723306812,-77.57380698526111,10.286977177352782,-67.18937628453904,2.9596800992621928,12.0,11.445258375141304
0.198,pd_only,1.2119908112322577,105.41385598933202,0.002999913489645062,-0.16583171041609268,0.0025665045651384194,-1.4947820198433168,0.0010715648131703677,1.1105993882738978,0.5187602719671575,0.0039733609051759294,1.6033599820936355,0.002781873959111093,1.850151432529065,0.0012684624533000764,-1.2245663983045094,-1.057796076808168,15.704130746774938,-77.37522886089167,10.28696695759817,-66.9987664754867,2.9599663754269225,12.0,11.450653753619807
0.2,pd_only,1.2175743207409384,105.15451255419282,0.00300773583620631,-0.1626881954054441,0.0025720040878929773,-1.4911607396171347,0.0010739888939716995,1.1081739152136376,0.5166630239782444,0.003911173280624147,1.5717575053242905,0.0027497613772789024,1.8106401130910137,0.0012120404006658817,-1.2127365301301023,-1.0486239944565283,15.704379868155932,-77.18050291602347,10.286962192930975,-66.81459313469165,2.960242280885089,12.0,11.455978867889524
0.202,pd_only,1.2230609638244971,104.90199920657783,0.0030154358031853103,-0.15960664932871996,0.0025774393266836493,-1.4876163125049044,0.0010763044908732894,1.105770643414433,0.514583971591664,0.0038499834895000663,1.540773038362073,0.0027176193953359386,1.7722135561150845,0.0011577984507949272,-1.201635899602354,-1.0395261932901818,15.704624707174757,-76.98954944210453,10.286962577320143,-66.63675675388207,2.9605080907768535,12.0,11.461235498261226
0.20400000000000001,pd_only,1.2284532755733817,104.65619163193841,0.003023015349971096,-0.15658586087220047,0.00258281027051915,-1.4841466147402014,0.0010785158338044985,1.103388167725127,0.512522966914775,0.0037897733928928044,1.5103942282597365,0.0026854719177504273,1.7348488823515402,0.001105671465604552,-1.1912378446530107,-1.0305023384445506,15.704865366892175,-76.80229059077142,10.286967814388113,-66.4651568108566,2.9607640745690316,12.0,11.466425341327447
0.20600000000000002,pd_only,1.2337537364040732,104.41696656910791,0.0030304764007961474,-0.1536246428995731,0.002588116953906289,-1.4807495679078695,0.0010806270254970186,1.101025134925489,0.5104798627542262,0.0037305254125257667,1.480608986313685,0.0026533416935695807,1.6985234161659641,0.0010555958462600816,-1.1815163998190075,-1.0215520802743776,15.705101944501813,-76.61865032586027,10.286977618050654,-66.29969193910333,2.961010496192238,12.0,11.471550015482704
0.20800000000000002,pd_only,1.2389647726372837,104.18420187254843,0.0030378208457502217,-0.15072183193590688,0.0025933594545334967,-1.4774231385120433,0.001082642044499365,1.0986802423561821,0.5084545126429013,0.0036722224770371153,1.4514054818330981,0.0026212503136037357,1.6632146979130704,0.001007509501173152,-1.172446284653371,-1.0126750556624529,15.705334532160947,-76.43855437642574,10.286991712903724,-66.14026008718749,2.961247614157529,12.0,11.476611066012987
0.21,pd_only,1.2440887571120167,103.9577765682619,0.0030450505417056587,-0.14787628766380007,0.002598537890972499,-1.474165337521544,0.0010845647481316312,1.0963522365722966,0.5064467708644487,0.0036148479777184358,1.4227721360534025,0.0025892182195011004,1.6289004952496664,0.0009613518161331615,-1.1640028919427694,-1.0038708892263208,15.705563217661464,-76.26193019079082,10.287009834419411,-65.98675866840813,2.96147568165798,12.0,11.481609969791785
0.212,pd_only,1.2491280098310276,103.73757090379134,0.0030521673131691366,-0.14508689243141365,0.0026036524204157818,-1.4709742198946545,0.0010863988753837348,1.0940399120207458,0.5044564924755857,0.003558385731738963,1.394697616193214,0.0025572647216414203,1.5955588134447884,0.0009170636260518295,-1.156162275775432,-0.9951391944315139,15.705788084975492,-76.08870689164362,10.287031728997912,-65.83908470120404,2.961694946659252,12.0,11.48654813961631
0.214,pd_only,1.2540847986336263,103.52346639271279,0.003059172953071807,-0.14235255077210657,0.002608703236462808,-1.4678478840851696,0.0010881480497596028,1.091742109741748,0.5024835333263475,0.0035028199513351286,1.367170829653537,0.0025254080235132662,1.5631679047424303,0.0008745871879339752,-1.148901139498906,-0.9864795746190682,15.706009214702126,-75.9188152321919,10.2870571539112,-65.69713494076863,2.961905651982177,12.0,11.491426928214343
0.216,pd_only,1.2589613398921253,103.31534585399737,0.003066069223507382,-0.13967218893539113,0.002613690566964396,-1.4647844715315101,0.0010898157820691777,1.0894577160945416,0.5005277500784387,0.0034481352177876267,1.340180918357717,0.0024936652507940886,1.5317062768297602,0.0008338661547874207,-1.1421968236032007,-0.9778916239543786,15.706226684435563,-75.75218755338099,10.287085877165444,-65.56080600231414,2.9621080353796088,12.0,11.496247631949323
0.218,pd_only,1.2637597992285612,103.11309344660069,0.0030728578564259194,-0.13704475442893033,0.00261861467193194,-1.4617821661305876,0.0010914054731696972,1.0871856615074191,0.4985890002218311,0.0033943164592685547,1.3137172532303976,0.002462052483771818,1.5011527004612912,0.0007948455502596922,-1.136027293561258,-0.9693749283038191,15.706440569070383,-75.58875774217674,10.287117677302962,-65.42999447640702,2.9623023296092006,12.0,11.50101149424874
0.22,pd_only,1.2684822922486232,102.91659469961678,0.0030795405542895977,-0.13446921557130329,0.002623475841516068,-1.4588391936980134,0.0010929204166573872,1.0849249192521084,0.4966671420897411,0.0033413489318391268,1.2877694288135169,0.002430584792064063,1.4714862162871234,0.000757471743845046,-1.1303711276553896,-0.9609290660449912,15.706650941056168,-75.42846119091115,10.287152343159502,-65.30459703677766,2.962488762503351,12.0,11.505719708778654
0.222,pd_only,1.273130885289999,102.72573653831479,0.0030861189906956593,-0.1319445610552689,0.002628274394057731,-1.4559538214161512,0.001094363801510482,1.082674504242478,0.49476203487210924,0.0032892182030306925,1.262327258017195,0.0023992762708317525,1.4426861409311156,0.000721692426547355,-1.1252075048152823,-0.9525536088159495,15.706857870611083,-75.27123475768497,10.287189673589106,-65.18451054099044,2.962667557037208,12.0,11.510373422385143
0.224,pd_only,1.2777075961825857,102.54040730635766,0.003092594810970774,-0.12946979952126245,0.002633010674213468,-1.4531243572714259,0.0010957387146843132,1.080433471857497,0.4928735386276926,0.0032379101375575327,1.237380767003219,0.0023681400778683267,1.414732072362659,0.0006874565869156438,-1.1205161924903966,-0.9442481222082985,15.707061425901918,-75.11701672781922,10.287229477165976,-65.0696321243421,2.9628389313954018,12.0,11.514973737821613
0.226,pd_only,1.282214395018262,102.36049678448478,0.003098969632740375,-0.12704395914086505,0.0026376850511556403,-1.4503491494822185,0.0010970481436590987,1.078200916788343,0.4910015142948754,0.0031874108848003657,1.212920190198702,0.002337188471086117,1.3876038946036384,0.0006547144873927553,-1.1162775345770446,-0.9360121664086304,15.707261673196534,-74.96574677634408,10.287271571870637,-64.95985928734105,2.963003099037977,12.0,11.51952171627934
0.228,pd_only,1.2866532049281145,102.18589620592411,0.003105245046475912,-0.1246660872099903,0.0026422979168477002,-1.4476265859185982,0.0010982949789409683,1.0759759719095068,0.48914582370129056,0.003137706867768696,1.1889359654373812,0.0023064328460298622,1.3612817818101353,0.0006234176409348493,-1.1124724394181094,-0.9278452967924002,15.707458676993566,-74.81736593151261,10.287315784766072,-64.85508997710329,2.9631602687658707,12.0,11.524018379737013
0.23,pd_only,1.2910259028652005,102.01649826878288,0.003111422616022522,-0.1223352497515384,0.0026468496843939614,-1.4449550935150652,0.0010994820165167137,1.0737578071737244,0.4873063295723426,0.003088784773305048,1.1654187292259548,0.002275883773130537,1.335746201766511,0.0005935187878727106,-1.1090823678912545,-0.9197470644739844,15.707652500133165,-74.67181653932411,10.287361951668302,-64.75522266298547,2.963310644786162,12.0,11.52846471314379
0.232,pd_only,1.2953343203911223,101.85219714565103,0.0031175038791091945,-0.12005053112727285,0.0026513407864629177,-1.44233313767741,0.001100611960262705,1.0715456285305254,0.4854828955387099,0.0030406315433363406,1.1423593121327706,0.0022455510344781965,1.3109779188276274,0.0005649718729956046,-1.1060893215995415,-0.9117170168163587,15.70784320389193,-74.52904222904029,10.287409916814855,-64.66015640676122,2.9634544267772625,12.0,11.532861666449085
0.234,pd_only,1.299580244464827,101.69288849063702,0.003123490347843218,-0.11781103365868055,0.0026557716737828033,-1.4397592216847237,0.0011016874243083958,1.069338676868172,0.4836753861429028,0.0029932343670117574,1.1197487342961492,0.0022154436599427655,1.2869579963431972,0.0005377320228454057,-1.1034758311766217,-0.9037546979035443,15.708030848064556,-74.38898787967696,10.287459532533857,-64.56979092763169,2.9635918099541456,12.0,11.537210156491238
0.23600000000000002,pd_only,1.3037654182322118,101.53846944404195,0.0031293835091904055,-0.11561587725658139,0.0026601428137078267,-1.4372318860875306,0.0011027109353548242,1.067136226978738,0.4818836668449454,0.002946580673593745,1.0975782010495814,0.0021855699625116503,1.263667798596542,0.0005117555232141835,-1.1012249447170723,-0.8958596489787068,15.708215491034379,-74.25159958745165,10.28751065891589,-64.48402666234857,2.9637229851336757,12.0,11.541511068756122
0.23800000000000002,pd_only,1.3078915418152361,101.3888386348649,0.0031351848254423846,-0.11346419905925935,0.0026644546888533165,-1.4347497081029539,0.001103684934948509,1.064937586546056,0.4801076040272443,0.002900658125989688,1.0758390986610198,0.0021559375727450225,1.2410889922883992,0.00048699979684240917,-1.0993202163410074,-0.888031408850559,15.708397189834457,-74.11682463416763,10.287563163490313,-64.4027648207136,2.96384813880007,12.0,11.54576525901592
0.24,pd_only,1.3119602730993791,101.24389618131958,0.0031408957346720453,-0.11135515307889239,0.0026687077957978644,-1.4323113010077642,0.0011046117817111439,1.0627420951562545,0.4783470649987033,0.0028554546148302495,1.054522990183479,0.002126553472273969,1.2192035475948595,0.0004634233813174698,-1.0977456949007827,-0.8802695142704963,15.708576000200752,-73.98461145651353,10.287616920907327,-64.32590743670677,2.9639674531704903,12.0,11.54997355485735
0.242,pd_only,1.3159732285183794,101.10354368953145,0.0031465176511780743,-0.10928790985606407,0.002672902643850439,-1.4299153135301101,0.0011054937535254928,1.0605491233305817,0.4766019179981379,0.0028109582530144884,1.0336216114141579,0.0020974240262874367,1.1979937388270205,0.0004409859071744349,-1.0964859128364324,-0.8725735002826975,15.708751976618613,-73.8549096162573,10.287671812626861,-64.25335741548277,2.9640811062607613,12.0,11.55413675710792
0.244,pd_only,1.3199319838353158,100.96768425057195,0.003152051965919381,-0.10726165612214546,0.002677039753880379,-1.4275604292406732,0.0011063330496778976,1.0583580715802108,0.47487203219703944,0.0027671573706533376,1.013126866959307,0.002068555014970081,1.1774421447185088,0.0004196480762023477,-1.0955258751854124,-0.8649429005492394,15.708925172363552,-73.72766977131309,10.287727726615019,-64.1850185764636,2.964189271951189,12.0,11.558255641168033
0.246,pd_only,1.3238380749191656,100.83622243597797,0.0031575000469400887,-0.10527559446934129,0.00268111965720811,-1.425245365943942,0.0011071317929578178,1.0561683694827082,0.4731572777017352,0.0027240405103539874,0.9930308264020841,0.0020399516638655124,1.1575316483656637,0.00039937163996016904,-1.09485104875126,-0.8573772476521075,15.709095639537303,-73.60284364765866,10.287784557048733,-64.12079569274471,2.964292120052449,12.0,11.562330958256169
0.248,pd_only,1.327692998516077,100.70906429189218,0.0031628632397856784,-0.10332894302819995,0.0026851428945544125,-1.4229688750702543,0.0011078920317148322,1.0539794747798383,0.47145752555498754,0.002681596422794816,0.9733257205706676,0.00201161867315134,1.1382454368438708,0.0003801193785071703,-1.0944473514349204,-0.8498760733738341,15.709263429099837,-73.48038401208187,10.287842204029046,-64.06059452702014,2.9643898163715043,12.0,11.566363436573727
0.25,pd_only,1.331498213014673,100.58611733195248,0.003168142867910776,-0.1014209351523921,0.0026891100150460527,-1.4207297410692097,0.0011086157418735382,1.051790872496375,0.46977264773707084,0.0026398140625486298,0.9540039379039252,0.0019835602458200307,1.1195670005222917,0.0003618550793529163,-1.094301141731718,-0.8424389089583532,15.70942859089802,-73.36024464573335,10.287900573303375,-64.00432186422347,2.964482522777512,12.0,11.570353782395586
0.252,pd_only,1.3352551392047662,100.46729052904922,0.0031733402330790107,-0.09955081911056815,0.002693021575275588,-1.4185267808050135,0.0011093048289068023,1.0496020740795824,0.46810251716636375,0.0025986825841173267,0.9350580209119754,0.001955780114767525,1.101480132098053,0.00034454351663204975,-1.0943992083962522,-0.8350652853535349,15.709591173691459,-73.24238031846357,10.287959575996936,-63.95188554107035,2.9645703972676762,12.0,11.574302681091995
0.254,pd_only,1.338965161028944,100.35249430605981,0.003178456615755304,-0.09771785778511011,0.0026968781384131817,-1.416358842954274,0.0011099611297678206,1.0474126165590287,0.46644700769949027,0.002558191338146609,0.9164806627290183,0.001928281568797003,1.0839689253698248,0.00032815043050918584,-1.0947287602768843,-0.8277547334367454,15.709751225176039,-73.1267467639222,10.288019128353499,-63.903194472679736,2.964653594033004,12.0,11.578210798086864
0.256,pd_only,1.342629626326542,100.24164052566343,0.0031834932754908913,-0.09592132837759838,0.0027006802733682824,-1.4142248074067347,0.0011105864147814585,1.0452220617263868,0.4648059941310409,0.002518329867793625,0.898264703755859,0.0019010674775503458,1.067017773769652,0.00031264250681893336,-1.0952774163209338,-0.8205067842246708,15.709908792005525,-73.01330065539744,10.288079151485514,-63.858158676441825,2.9647322635239104,12.0,11.582078779757175
0.258,pd_only,1.346249847569577,100.13464247933065,0.00318845145130134,-0.0941605221208192,0.00270442855399905,-1.412123584669393,0.001111182389495351,1.0430299953348843,0.4631793521929038,0.0024790879052244467,0.880403128389593,0.0018741403153835945,1.0506113686708676,0.0002979873569461772,-1.096033195751206,-0.8133209690685425,15.710063919811619,-72.90199958237415,10.288139571133616,-63.816689293292455,2.964806552515643,12.0,11.585907254277865
0.26,pd_only,1.3498271025902662,100.03141487557563,0.003193332362037783,-0.09243474399714324,0.0027081235583674623,-1.410054115274415,0.0011117506964912532,1.0408360263180563,0.46156695855323215,0.0024404553682214444,0.8628890618379759,0.0018475021842062032,1.0347346974889522,0.0002841534979511463,-1.0969845084140462,-0.806196819835817,15.710216653222751,-72.79280202778877,10.288200317435464,-63.77869860654512,2.964876604173462,12.0,11.589696832416093
0.262,pd_only,1.353362635299808,99.93187382755235,0.003198137206751551,-0.09074331246311114,0.0027117658680380747,-1.4080153691912325,0.0011122929171571408,1.0386397860274588,0.4599686908150736,0.002402422356883867,0.8457157670160502,0.0018211548353062156,1.0193730415912698,0.00027111033294378265,-1.0981201452987368,-0.7991338690792753,15.710367035881879,-72.6856673459602,10.288261324703802,-63.744100058424635,2.964942558117556,12.0,11.593448108278626
0.264,pd_only,1.35685765639814,99.83593684006973,0.0032028671650523653,-0.08908555918006582,0.0027153560674184466,-1.406006345243171,0.0011128105734205637,1.0364409274890034,0.4583844275146847,0.0023649791504070906,0.8288766415226592,0.0017950996901858853,1.0045119740307322,0.0002588281317114924,-1.0994292692277097,-0.7921316501944324,15.710515110463502,-72.58055574117581,10.28832253121366,-63.71280826443876,2.965004550487623,12.0,11.59716166001563
0.266,pd_only,1.3603133440744333,99.74352279609543,0.0032075233974602226,-0.08746082875067676,0.0027188947431393143,-1.4040260705289358,0.0011133051294437717,1.03423912467757,0.45681404811955256,0.0023281162039286677,0.8123652146945307,0.001769337860433814,0.9901373571176055,0.0002472780116040084,-1.100901405716762,-0.7851896975660816,15.710660918690111,-72.47742824691196,10.288383878998479,-63.68473902571707,2.965062714007114,12.0,11.600838050484036
0.268,pd_only,1.3637308446981165,99.65455194281168,0.0032121070457510844,-0.0858684784612054,0.0027223824834726367,-1.40207359984925,0.0011137779932811295,1.0320340718095615,0.45525743302614313,0.0022918241454308224,0.7961751447356749,0.001743870166661212,0.976235339842874,0.00023643191867887996,-1.1025264340042034,-0.7783075467047279,15.71080450134818,-72.37624670566929,10.288445313655041,-63.65980933943992,2.965117178047063,12.0,11.604477827873275
0.27,pd_only,1.367111273500257,99.56894587728257,0.0032166192332964668,-0.08430787802936562,0.0027258198777856974,-1.4001480151389183,0.0011142305184993506,1.0298254826530662,0.4537144635573959,0.0022560937726912146,0.7803002159198903,0.0017186971565304593,0.9627923551658197,0.00022626260911054878,-1.1042945782476405,-0.771484734373613,15.710945898303882,-72.27697374940301,10.28850678415698,-63.63793740747376,2.965168068689493,12.0,11.608081526296049
0.272,pd_only,1.37045571524516,99.48662753178655,0.0032210610653970167,-0.08277840935763714,0.002729207516029508,-1.3982484249045628,0.0011146640057610822,1.0276130898552924,0.45218502195998195,0.002220916050274949,0.7647343358642391,0.0016938191219053355,0.9497951171777581,0.00021674363086583874,-1.1061963988869203,-0.7647207987069757,15.711085148518606,-72.1795727805292,10.288568242676636,-63.61904264332312,2.9652155087903567,12.0,11.611649666346533
0.274,pd_only,1.3737652248920666,99.40752115886403,0.003225433629610141,-0.08127946629189434,0.002732545988259813,-1.3963739636682564,0.0011150797043723785,1.0253966442869493,0.45066899140134165,0.002186282106562332,0.7494715328714026,0.0016692361151523507,0.9372306181531864,0.00020784930564819276,-1.1082227841715817,-0.758015279320146,15.71122229006439,-72.08400795348837,10.288629644415069,-63.60304567750383,2.9652596180419724,12.0,11.615182755628265
0.276,pd_only,1.3770408282468676,99.33155231612572,0.0032297379960717566,-0.07981045438521656,0.0027358358841890595,-1.3945237914172586,0.001115478813794604,1.0231759144032473,0.4491662559665176,0.0021521832308078474,0.7345059533388899,0.0016449479646233238,0.9250861254989521,0.00019955471111270505,-1.110364941851036,-0.7513677174120218,15.711357360139317,-71.99024415684809,10.288690947439985,-63.5898683614365,2.9653005130349395,12.0,11.61868128925375
0.278,pd_only,1.380283522603766,99.25864785086335,0.0032339752178122106,-0.0783707906667503,0.002739077792767757,-1.3926970930600358,0.0011158624851213114,1.020950685621196,0.4476767006547967,0.0021186108702269907,0.7198318592331293,0.0016209542893489378,0.9133491786114342,0.0001918356633536965,-1.1126143910255737,-0.7447776558604398,15.711490395082949,-71.89824699592712,10.288752112531286,-63.57943376995402,2.9653383073194854,12.0,11.622145750317737
0.28,pd_only,1.3834942773768415,99.18873588450123,0.0032381463310664272,-0.07695990341549724,0.0027422723017937038,-1.3908930778887334,0.0011162318225206437,1.0187207597128836,0.4462002113761749,0.002085556627108384,0.7054436256265275,0.0015972545129734042,0.9020075856511464,0.0001846686996661422,-1.1149629541562063,-0.7382446393109116,15.711621430391848,-71.80798277592379,10.28881310303407,-63.57166620251221,2.9653731114662385,12.0,11.625576610345824
0.28200000000000003,pd_only,1.386674034721496,99.12174579692311,0.003242252355578326,-0.07557723193890596,0.0027454199975476233,-1.389110979048246,0.001116587884643808,1.0164859542144211,0.44473667494765656,0.002053012255949356,0.6913357382956393,0.0015738478769597004,0.8910494202436154,0.00017803106158209065,-1.1174027492312664,-0.7317682142591597,15.711750500735171,-71.7194184855316,10.288873884718761,-63.56649118318747,2.965405033126384,12.0,11.62897432972015
0.28400000000000003,pd_only,1.3898237101457689,99.05760821070663,0.0032462942948995534,-0.07422222635614867,0.002748521464453814,-1.3873500530120164,0.0011169316860001736,1.0142461018502458,0.4432859790894008,0.0020209696606136485,0.6775027913786461,0.001550733453095202,0.8804630181148647,0.00017190067818284788,-1.1199261820876332,-0.7253479291278604,15.711877639970444,-71.63252178102647,10.28893442564815,-63.56383545954141,2.965434177091194,12.0,11.632339358083506
0.28600000000000003,pd_only,1.3929441931115312,98.99625497529391,0.003250273136682575,-0.07289434738596788,0.002751577284764466,-1.3856095790646779,0.0011172641982995482,1.012001049972477,0.4418480124207249,0.0019894208915109124,0.6639394850903938,0.0015279101553262162,0.8702369736693321,0.0001662561496873386,-1.1225259388843984,-0.718983334337964,15.712002881159444,-71.54726097080916,10.28899469605109,-63.56362700042768,2.965460645350898,12.0,11.635672134723425
0.28800000000000003,pd_only,1.396036347625582,98.93761915112464,0.00325418985296817,-0.07159306613898128,0.0027545880382663667,-1.3838888587916427,0.0011175863517621822,1.0097506600150234,0.440422664455975,0.0019583581427974404,0.6506406234932984,0.001505376750950348,0.860360136517581,0.00016107673131693107,-1.1251949787267526,-0.7126739823749434,15.712126256584241,-71.46360500038807,10.289054668202573,-63.56579499281266,2.9654845371528897,12.0,11.638973088937359
0.29,pd_only,1.3991010128206793,98.88163499375575,0.003258045400467367,-0.07031786391433634,0.0027575543020087554,-1.3821872155757213,0.0011178990363970554,1.0074948069621477,0.4390098256002744,0.0019277737495985773,0.6376011123224755,0.0014831318711944134,0.8508216079607139,0.00015634231743657967,-1.1279265264378464,-0.7064194278502901,15.712247797763384,-71.38152343778768,10.28911431630995,-63.570269837677266,2.9655059490592333,12.0,11.642242640380273
0.292,pd_only,1.402139003526553,98.8282379379886,0.0032618407208378736,-0.06906823200060933,0.0027604766500511657,-1.3805039941008455,0.0011182031032489995,1.005233378831195,0.4376093871451573,0.0018976601852532808,0.6248159568635046,0.0014611740212052138,0.8416107374379742,0.00015203342597201419,-1.130714065476368,-0.7002192275585568,15.71236753546823,-71.30098645936775,10.289173616405053,-63.57698314506388,2.965524975003469,12.0,11.645481199395673
0.294,pd_only,1.4051511108309582,98.77736458202386,0.0032655767409550365,-0.06784367148084675,0.0027633556532301257,-1.3788385598629582,0.0011184993656152044,1.0029662761691998,0.43622124126409684,0.0018680100585815101,0.6122802598812894,0.001439501589480034,0.83271711894362,0.0001481311831023758,-1.1335513309975662,-0.6940729405302256,15.712485499739426,-71.22196483604031,10.289232546241955,-63.58586772832903,2.965541706346698,12.0,11.648689167331082
0.296,pd_only,1.4081381026308306,98.72895267166096,0.0032692543731773875,-0.0666436930416497,0.002766191878943651,-1.3771902986881206,0.0011187886002316594,1.0006934115630888,0.4348452810079355,0.001838816111175573,0.5999892195985225,0.0014181128567624932,0.8241305874187721,0.00014461730822754563,-1.1364323030554506,-0.6879801280806571,15.712601719903457,-71.14442991987032,10.28929108520013,-63.596857597658726,2.96555623193293,12.0,11.651866936838966
0.298,pd_only,1.4111007241736222,98.68294108455798,0.00327287451560682,-0.06546781678620507,0.0027689858909525095,-1.3755586162578735,0.0011190715484300775,0.998414709163201,0.4334814003002248,0.0018100712147163648,0.587938127722312,0.0013970060044293262,0.8158412151235782,0.0001414740992090842,-1.1393511999439108,-0.6819403538553623,15.712716224589352,-71.06835363104733,10.289349214192795,-63.60988795290049,2.9655686381436848,12.0,11.65501489216392
0.3,pd_only,1.414039698588897,98.63926981456632,0.003276438052343452,-0.06431557205116992,0.0027717382491972936,-1.3739429376418841,0.0011193489172658447,0.9961301042198519,0.4321294939324812,0.0017817683683159918,0.5761223675175753,0.0013761791223921252,0.8078393079946924,0.00013868441788364558,-1.1423024716744983,-0.6759531838718196,15.712829041745426,-70.99370844521596,10.289406915580173,-63.624895175763385,2.9655790089518432,12.0,11.658133409416953
0.302,pd_only,1.4169557274102738,98.59787995615211,0.003279945853735228,-0.06318649722731821,0.0027744495096303696,-1.3723427068378986,0.0011196213806175393,0.9938395426326746,0.4307894575593651,0.001753900695887946,0.5645374119258482,0.0013556302165380549,0.8001154019927481,0.00013623167584736947,-1.145280793588641,-0.6700181865580431,15.712940198656101,-70.92046738115246,10.289464173087485,-63.64181682143389,2.965587425974723,12.0,11.661222856837654
0.304,pd_only,1.419849491087811,98.55871368891603,0.0032833987766223206,-0.062080139583861806,0.0027771202240618343,-1.3707573863190101,0.0011198895802585586,0.9915429805124705,0.4294611876937889,0.0017264614435462768,0.5531788217282048,0.0013353572157322408,0.7926602594441945,0.0001340998205096915,-1.1482810601020748,-0.6641349327880989,15.713049721958752,-70.84860398877642,10.289520971727418,-63.66059160965358,2.96559396852639,12.0,11.66428359504487
0.306,pd_only,1.4227216494909314,98.52171426222091,0.003286797664576391,-0.06099605509635976,0.002779750940018642,-1.369186456588247,0.0011201541269013882,0.9892403837553119,0.4281445817019594,0.0016994439770352317,0.5420422437510238,0.0013153579784038552,0.7854648653815764,0.00013227332141482013,-1.1512983785792985,-0.6583029959147454,15.713157637660567,-70.77809233748592,10.289577297726884,-63.68115941530135,2.965598713669185,12.0,11.667315977276619
0.308,pd_only,1.4255728424019896,98.48682597993636,0.0032901433481347725,-0.059933808278133,0.0027823422006161167,-1.367629415740475,0.001120415601215046,0.9869317276286401,0.42683953779836065,0.0016728417791906623,0.5311234091133807,0.0012956302987373553,0.7785204238860665,0.00013073715682890863,-1.1543280633358926,-0.652521951799371,15.713263971155396,-70.70890700480555,10.289633138457848,-63.70346125852096,2.9656017362644693,12.0,11.670320349619793
0.31,pd_only,1.4284036900005896,98.45399418530714,0.003293436645029642,-0.05889297201510323,0.002784894544441095,-1.3660857790316032,0.0011206745548162278,0.984616996369107,0.4255459550406819,0.0016466484474347994,0.5204181315148837,0.0012761719124890676,0.7718183544357949,0.00012947680059081356,-1.1573656297665573,-0.6467913788393808,15.71336874724055,-70.6410230653367,10.289688482372023,-63.72743929443219,2.9656031090225756,12.0,11.673297051230271
0.312,pd_only,1.4312147933387591,98.42316524595296,0.003296678360412253,-0.05787312740397761,0.002787408505445993,-1.3645550784550766,0.0011209315112346765,0.9822961827919136,0.4242637333246955,0.0016208576913055097,0.5099223055628119,0.0012569805024490591,0.7653502882632817,0.00012847820922430825,-1.1604067885967682,-0.6411108579931833,15.713471990133542,-70.5744160800001,10.289743318939255,-63.75303680246177,2.9656029025519683,12.0,11.676246414543884
0.314,pd_only,1.4340067348071008,98.39428653900451,0.003299869287072296,-0.0568738635937027,0.002789884612853127,-1.3630368623256266,0.001121186966853295,0.9799692879114016,0.4229927733790897,0.0015954633300215722,0.4996319051374535,0.0012380537035670157,0.75910806472504,0.00012772780930932404,-1.1634474402559716,-0.6354799728029126,15.713573723488743,-70.50906208556115,10.289797638589393,-63.78019817532823,2.9656011854076145,12.0,11.679168765478824
0.316,pd_only,1.4367800785920244,98.36730643638106,0.0033030102056524663,-0.05589477763011356,0.0027923233910686477,-1.3615306948702541,0.0011214413918235145,0.977636320572661,0.42173297676025967,0.001570459290085108,0.48954298179457306,0.001219389107760272,0.7530837276862038,0.00012721248510971813,-1.1664836693702747,-0.6298983094150132,15.713673970413915,-70.44493758442813,10.289851432657477,-63.80886890771282,2.965598024138546,12.0,11.682064423629857
0.318,pd_only,1.4395353711241858,98.3421742902138,0.0033061018848583113,-0.05493547430370559,0.0027947253596054904,-1.3600361558264085,0.0011216952309564246,0.9752972970939158,0.42048424584706207,0.0015458396029224468,0.4796516632039809,0.0012009842684212904,0.7472695219228237,0.0001269195664550574,-1.1695117393726215,-0.6243654565988109,15.713772753486612,-70.38201953471494,10.289904693332073,-63.8389955846468,2.9655934833346365,12.0,11.68493370245486
0.32,pd_only,1.4422731415182457,98.31884041841813,0.0033091450816634398,-0.05399556600045919,0.002797091033014773,-1.35855284004732,0.001121948904590172,0.9729522409194589,0.4192464838355357,0.0015215984025643472,0.46995415162320286,0.001182836704641325,0.7416578895442791,0.00012683681687372002,-1.1725280872284736,-0.6188810057631778,15.713870094770423,-70.32028534055928,10.28995741360656,-63.87052586964374,2.965587625672577,12.0,11.687776909454001
0.322,pd_only,1.444993902004069,98.29725609041814,0.0033121405415101734,-0.05307467255564861,0.002799420920825105,-1.3570803571144439,0.001122202809434121,0.9706011822829087,0.4180195947335929,0.001497729923366892,0.46044672240529,0.0011649439051658985,0.7362414664380729,0.00012695242197440133,-1.175529318275056,-0.613444550971401,15.713966015831025,-70.2597128426881,10.290009587233271,-63.90340849260361,2.9655805119610523,12.0,11.690594346341998
0.324,pd_only,1.4476981483494855,98.27737351302511,0.0033150889985057207,-0.05217242111056894,0.0028017155274893,-1.3556183309569656,0.0011224573193902676,0.9682441578805642,0.4168034833556842,0.0014742284977736467,0.45112572253983413,0.0011473033320974703,0.7310130787390957,0.00012725497807332625,-1.1785122011722529,-0.6080556889543516,15.714060537752053,-70.20028030922218,10.290061208680251,-63.937593237514115,2.96557220118513,12.0,11.693386309213746
0.326,pd_only,1.4503863602747287,98.25914581647235,0.003317991175613961,-0.05128844597211636,0.002803975352338019,-1.354166399478315,0.0011227127863523958,0.9658812105546376,0.4155980553174401,0.0014510885541201824,0.4419875692262892,0.0011299124243595473,0.7259657393252873,0.00012773348106408895,-1.181473662963279,-0.602714019122047,15.714153681150712,-70.14196642671216,10.290112273090578,-63.973030929973035,2.9655627505498523,12.0,11.696153088703722
0.328,pd_only,1.4530590018586804,98.24252704060744,0.003320847784842924,-0.050422388475158904,0.002806200889539891,-1.352724214189632,0.0011229695409834502,0.963512388986151,0.4144032170302927,0.0014283046144815616,0.43302874847872747,0.0011127686009361557,0.7210926443414625,0.00012837731552718364,-1.1844107842432812,-0.5974191435736959,15.714245466193201,-70.08475029139873,10.290162776244026,-64.009673424554,2.9655522155230436,12.0,11.698894970139385
0.33,pd_only,1.4557165219370334,98.22747212124283,0.0033236595274280514,-0.04957389684763653,0.00280839262806769,-1.3512914398501261,0.0011232278934716023,0.9611377473972829,0.41321887569608007,0.0014058712925635536,0.42424581376118814,0.001095869263899518,0.7163871697529249,0.00012917624407605944,-1.1873207944340587,-0.5921706671063038,15.714335912609824,-70.02861140068947,10.290212714520974,-64.04747359203671,2.9655406498773336,12.0,11.70161223368893
0.332,pd_only,1.4583593544925018,98.21393687666544,0.0033264270940113272,-0.04874262607833092,0.002810551051670168,-1.3498677541142654,0.0011234881342654754,0.9587573452629566,0.4120449393016362,0.001383783291637927,0.4156353846528044,0.0010792118012387742,0.7118428679303539,0.0001301203969365936,-1.1902010671631222,-0.586968197221922,15.714425039709868,-69.9735296448457,10.290262084868466,-64.08638530652169,2.9655281057313956,12.0,11.704305154503615
0.334,pd_only,1.460987919037191,98.20187799430576,0.003329151164816372,-0.04792823778724708,0.0028126766388491702,-1.3484528471857307,0.001123750534788989,0.9563712470314659,0.410881316613369,0.0013620354025224467,0.407194145541922,0.0010627935895012905,0.7074534642673168,0.00013120026175680538,-1.193049115745344,-0.5818113441336061,15.714512866396165,-69.91948529887279,10.290310884768223,-64.12636343244763,2.9655146335904163,12.0,11.706974002854963
0.336,pd_only,1.463602620987254,98.1912530175659,0.003331832409819584,-0.047130400098550185,0.002814769862841686,-1.3470464214780673,0.0011240153481362762,0.953979521853935,0.4097279171718287,0.0013406225016058875,0.39891884434844727,0.0010466119962578581,0.7032128538316397,0.00013240667364351616,-1.1958625887654823,-0.5766997207701594,15.714599411179375,-69.86645901460714,10.290359112206541,-64.16736381152934,2.9655002823857894,12.0,11.709619044267043
0.338,pd_only,1.4662038520299487,98.18202033280697,0.0033344714889174203,-0.046348787516002805,0.002816831191606491,-1.3456481912819638,0.0011242828097471217,0.9515822433224151,0.40858465128626925,0.0013195395489182648,0.3908062912736883,0.0010306643824025878,0.6991150980517489,0.00013373080542274747,-1.1986392657598923,-0.5716329427797189,15.714684692191954,-69.81443181299426,10.290406765645987,-64.20934324963237,2.965485099514051,12.0,11.712240539644064
0.34,pd_only,1.4687919904832187,98.17413915649458,0.0033370690520899133,-0.04558308080084885,0.002818861087815086,-1.3442578824390858,0.0011245531380633625,0.9491794892164236,0.40745143002920475,0.0012987815862464918,0.3828533575769782,0.001014948104297462,0.6951544214389928,0.0001351641581204668,-1.2013770529957644,-0.5666106285322505,15.71476872720175,-69.7633850765514,10.290453843998712,-64.25225950359967,2.96546913087505,12.0,11.714838745393491
0.342,pd_only,1.4713674016479104,98.16756952250259,0.0033396257395605046,-0.04483296685209207,0.0028208600088466284,-1.3428752320223922,0.0011248265351666833,0.9467713412577311,0.4063281652309627,0.0012783437352956104,0.3750569743783892,0.0009994605157711202,0.6913252083468434,0.00013669855166034985,-1.2040739793462627,-0.5616323991210076,15.714851533625357,-69.71330054200978,10.290500346601373,-64.2960712680448,2.965452420909376,12.0,11.717413913544908
0.34400000000000003,pd_only,1.473930438152746,98.16227226957342,0.0033421421819522954,-0.044098138589118326,0.002822828406786591,-1.3414999880228566,0.001125103187398234,0.9443578848732112,0.4052147694742367,0.0012582211958953858,0.3674141314868731,0.0009841989699811882,0.6876219997677872,0.00013832611577530702,-1.2067281922599609,-0.5566978783630079,15.714933128541022,-69.6641602931301,10.290546273191481,-64.34073816212492,2.9654350126350377,12.0,11.719966291864777
0.34600000000000003,pd_only,1.4764814402921722,98.1582090289343,0.0033446190004408002,-0.043378294836611965,0.0028247667284288873,-1.3401319090425194,0.0011253832659604923,0.9419392089655652,0.4041111560886395,0.0012384092442524709,0.3599218762531815,0.0009691608211483055,0.6840394901686188,0.00014003928112918884,-1.2093379538229998,-0.5518066927985804,15.71501352870128,-69.61594675368674,10.290591623885163,-64.3862207163065,2.965416947683401,12.0,11.722496123967298
0.34800000000000003,pd_only,1.4790207363571863,98.15534221206859,0.0033470568069032956,-0.04267314021171808,0.002826675415281228,-1.3387707639937898,0.0011256669275017833,0.9395154056917403,0.40301723914525944,0.0012189032312476904,0.3525773124469423,0.0009543434261703967,0.6805725243647693,0.00014183077064547776,-1.2119016369124183,-0.5469584716900308,15.715092750545203,-69.5686426806156,10.290636399156199,-64.43248035913503,2.96539826633441,12.0,11.72500364942153
0.35000000000000003,pd_only,1.4815486429592704,98.15363499864007,0.0033494562040648525,-0.041982385013403505,0.002828554903573477,-1.3374163318049215,0.001125954314683862,0.937086570248862,0.4019329334512205,0.001199698580778401,0.345377599157287,0.0009397441461244835,0.6772160944342174,0.00014369359103940375,-1.214417721439133,-0.5421528470194708,15.715170810210267,-69.52223115731975,10.290680599816268,-64.47947940402031,2.965379007551074,12.0,11.727489103854934
0.352,pd_only,1.4840654653475291,98.1530513245697,0.0033518177856411437,-0.041305745113970616,0.002830405624268804,-1.3360684011315787,0.0011262455567329624,0.9346528006675039,0.4008581545442488,0.00118079078814552,0.3383199497164454,0.0009253603476634975,0.6739653366714581,0.00014562102455011847,-1.216884790679069,-0.5373894534858554,15.715247723543916,-69.47669558712974,10.290724226996362,-64.5271810360469,2.965359209013248,12.0,11.729952719053474
0.354,pd_only,1.486571497719156,98.15355587026295,0.0033541421364781136,-0.04064294185267914,0.0028322280030774333,-1.3347267700744148,0.0011265407699747015,0.932214197612122,0.39979281868724625,0.001162175418484889,0.3314016306457394,0.0009111894043146931,0.6708155285819334,0.000147606620869596,-1.2193015276909642,-0.5326679285012695,15.715323506114672,-69.4320196869126,10.290767282129222,-64.57554929881988,2.9653389071507106,12.0,11.732394723058444
0.356,pd_only,1.4890670235233248,98.15511404898606,0.0033564298326885984,-0.039993701931432285,0.002834022460472806,-1.3333912459025803,0.001126840058353231,0.9297708641884832,0.39873684286287325,0.0011438481052424673,0.3246199606234278,0.0008972286976863205,0.66776208591726,0.00014964418926472685,-1.2216667118193922,-0.5279879121865014,15.715398173222965,-69.38818748082602,10.290809766932803,-64.62454908135446,2.9653181371755415,12.0,11.734815340260154
0.358,pd_only,1.491552315758625,98.15769199539025,0.003358681441785984,-0.039357757312484545,0.0028357894117099825,-1.3320616447830773,0.0011271435139350093,0.9273229057579201,0.39769014476814135,0.0011258045486929962,0.3179723094738712,0.0008834756185882313,0.6648005597515304,0.0001517277908892303,-1.223979215281577,-0.5233490473659427,15.715471739911518,-69.34518329421341,10.290851683394667,-64.6741461050178,2.965296933113815,12.0,11.73721479148854
0.36,pd_only,1.4940276372641432,98.16125655418149,0.003360897522814987,-0.038734845118129545,0.0028375292668461278,-1.3307377915158796,0.0011274512173975733,0.924870429758247,0.39665264280901763,0.0011080405145013847,0.3114560971775011,0.0008699275680725132,0.6619266335989025,0.00015385173128200876,-1.226237999836584,-0.518750979561847,15.715544220975422,-69.30299174763543,10.290893033757243,-64.72430691053069,2.965275327836615,12.0,11.739593294100944
0.362,pd_only,1.496493241004294,98.16577526893477,0.0033630786264796397,-0.03812470753232736,0.002839242430762926,-1.3294195192747342,0.0011277632385036703,0.9224135455311759,0.39562425609504165,0.0010905518323263584,0.3050687929010947,0.0008565819583991235,0.6591361205726393,0.0001560105530485665,-1.2284421135355021,-0.5141933569879841,15.715615630971781,-69.26159775103464,10.2909338205039,-64.77499884503627,2.9652533530903806,12.0,11.741951062067036
0.364,pd_only,1.4989493703475079,98.17121637105093,0.003365225295268571,-0.037527091704231616,0.002840929303190789,-1.3281066693535628,0.0011280796365611145,0.9199523641560734,0.39460490443395624,0.0010733343944657357,0.298807914047871,0.0008434362139316988,0.6564249605857105,0.00015819902872208624,-1.230590687551244,-0.5096758305427175,15.715685984229061,-69.22098649802913,10.290974046345806,-64.82619004924236,2.965231039526599,12.0,11.744288306051104
0.366,pd_only,1.5013962593388792,98.17754876885442,0.0033673380635776563,-0.036941749653577736,0.0028425902787347257,-1.3267990909183767,0.0011284004608687161,0.9174869982899002,0.3935945083263532,0.0010563841545424587,0.2926710253269404,0.0008304877719682719,0.6537892175930169,0.00016041215380076712,-1.2326829330866151,-0.5051980538015391,15.715755294855995,-69.18114346033167,10.291013714209464,-64.87784944464335,2.9652084167308344,12.0,11.746605233491744
0.368,pd_only,1.5038341329668716,98.18474203683027,0.003369417457830118,-0.03636843817789443,0.002844225746901748,-1.3254966407646263,0.0011287257511486326,0.9150175620131816,0.392592988960335,0.001039697126230945,0.28665573784165205,0.0008177340835110735,0.6512250768752567,0.00016264513995817065,-1.2347181383593182,-0.5007596830090872,15.715823576750193,-69.14205438229094,10.291052827224949,-64.92994672082759,2.9651855132511336,12.0,11.748902048679094
0.37,pd_only,1.5062632074241844,98.19276640499861,0.0033714639965941634,-0.03580691876150163,0.002845836092129708,-1.3241991830798974,0.001129055537965479,0.9125441706818564,0.39160026820619365,0.001023269382022622,0.28075970819639806,0.0008051726139799181,0.6487288423644095,0.0001648934084232101,-1.2366956656625798,-0.4963603770706767,15.715890843606358,-69.10370527555156,10.291091388714745,-64.982452322875,2.9651623566257923,12.0,11.751178952829648
0.372,pd_only,1.5086836903628755,98.2015927484248,0.0033734781906982238,-0.03525695748625874,0.0028474216938174533,-1.3229065892118759,0.0011293898431325318,0.9100669407848563,0.39061626861110693,0.0010070970520302419,0.27498063762144737,0.0007928008438726089,0.6462969340107773,0.00016715258352649088,-1.238614948500101,-0.491999797543366,15.715957108924153,-69.06608241382943,10.291129402183161,-65.03533743885026,2.9651389734104963,12.0,11.753436144158833
0.374,pd_only,1.5110957811438421,98.21119257686395,0.0033754605433438836,-0.034718324944027955,0.002848982926356206,-1.321618737441493,0.0011297286801053511,0.9075859898072681,0.38964091339385376,0.0009911763228298244,0.2693162711153933,0.000780616269376296,0.6439258851914803,0.00016941848640966963,-1.2404754887940521,-0.48767760862658727,15.71602238601572,-69.02917232779956,10.291166871306306,-65.08857398739524,2.965115389204865,12.0,11.755673817951324
0.376,pd_only,1.5134996710807487,98.2215380245376,0.0033774115502165627,-0.03419079615081833,0.002850520159162072,-1.3203355127611724,0.0011300720543631407,0.9051014360989384,0.388674126439549,0.0009755034363395939,0.263764396604812,0.0007686164029329702,0.6416123401602798,0.00017168712889474797,-1.2422768541648452,-0.483393477152362,15.716086688012872,-68.99296180009327,10.291203799922549,-65.14213460542524,2.9650916286783815,12.0,11.757892166629272
0.378,pd_only,1.515895543678504,98.23260184004117,0.0033793316995940326,-0.03367415046257685,0.002852033756709597,-1.3190568066580952,0.0011304199637781605,0.9026133987483755,0.38771583229439877,0.0009600746887349238,0.2583228441207412,0.0007567987737623756,0.6393530515385617,0.00017395470750988288,-1.2440186752814406,-0.47914707257512523,15.71615002787392,-68.9574378604019,10.291240192023459,-65.19599263593247,2.9650677155957377,12.0,11.760091379818467
0.38,pd_only,1.5182835748663737,98.2443573763805,0.0033812214724528297,-0.03316817149259366,0.0028535240785662872,-1.3177825169024007,0.0011307723989734978,0.9001219974618136,0.38676595616047643,0.000944886429398455,0.25298948499159857,0.0007451609283451698,0.6371448778472901,0.00017621759766870703,-1.245700643280948,-0.4749380669611793,15.716212418390189,-68.92258778068422,10.29127605174518,-65.25012211589993,2.965043672841596,12.0,11.762271644412525
0.382,pd_only,1.5206639332258232,98.25677858113578,0.0033830813425726387,-0.03267264703048931,0.0028549914794280254,-1.3165125473402413,0.0011311293436694976,0.8976273524473011,0.38582442389052085,0.0009299350599044991,0.24776223105217135,0.0007337004308690828,0.6349847810797111,0.00017847234799990222,-1.2473225072563097,-0.4707661349777984,15.716273872192197,-68.88839907047489,10.291311383360217,-65.30449776432887,2.965019522444783,12.0,11.764433144635188
0.384,pd_only,1.5230367802131841,98.26983998675118,0.003384911776638712,-0.03218736896275268,0.0028564363091553068,-1.3152468076916122,0.0011314907750191454,0.8951295843036794,0.38489116198275686,0.0009152170330367514,0.24263903386831856,0.0007224148636407129,0.632869824314563,0.00018071567482392614,-1.248884071810856,-0.46663095388200265,15.716334401755526,-68.85485947229124,10.291346191269609,-65.35909497038266,2.9649952856019155,12.0,11.766576062100777
0.386,pd_only,1.525402270377224,98.2835167009489,0.003386713234342389,-0.031712133194798604,0.002857858912810237,-1.313985213352873,0.001131856663932693,0.8926288139143222,0.3839660975757388,0.0009007288518384466,0.2376178839770373,0.0007113018274652517,0.6307971693695269,0.00018294445677380627,-1.25038519467855,-0.46253220350902097,15.716394019406389,-68.82195695713625,10.29138047999544,-65.41388978164892,2.9649709827004824,12.0,11.768700575872874
0.388,pd_only,1.527760551571721,98.2977843972653,0.0033884861684797775,-0.031246739574515493,0.0028592596306942298,-1.3127276852038838,0.001132226975391807,0.8901251623455048,0.38304915844321785,0.0008864670686940185,0.23269681014155513,0.0007003589419963354,0.62876407449463,0.00018515572955701094,-1.2518257844087384,-0.4584695662604598,15.71645273732687,-68.78967972009464,10.2914142541737,-65.4688588925229,2.9649466333413765,12.0,11.770806862521308
0.39,pd_only,1.5301117651631166,98.31261930570881,0.0033902310250486603,-0.030790991817273256,0.002860638798386346,-1.3114741494196733,0.0011326016687535176,0.8876187507492762,0.38214027298903347,0.0008724282844413447,0.22787387862111905,0.0006895838460581004,0.6267678921052935,0.0001873466808552679,-1.2532057981142508,-0.45444272709219563,15.7165105675599,-68.75801617602053,10.291447518547448,-65.52397963271328,2.964922256360904,12.0,11.772895096177482
0.392,pd_only,1.532456046233342,98.32799820353667,0.0033919482433436873,-0.030344697432362934,0.002861996746782229,-1.310224537286564,0.0011329806980442366,0.8851097002707128,0.3812393702420295,0.0008586091475135663,0.22314719245516074,0.0006789741979413937,0.624806066554701,0.00018951464535948206,-1.2545252392816966,-0.45045137350200665,15.716567522013928,-68.7269549553138,10.291480277960257,-65.57922995587255,2.964897869852263,12.0,11.774965448588112
0.394,pd_only,1.5347935237778945,98.3438984061501,0.0033936382560499066,-0.029907667650839877,0.0028633338021335805,-1.3089787850226737,0.00113336401224411,0.8825981319594272,0.38034637985099556,0.0008450063531096523,0.21851489076152747,0.0006685276756758194,0.6228761319451479,0.00019165709993669317,-1.2557841556428206,-0.4464951955169599,15.716623612467316,-68.69648489978321,10.291512537349947,-65.6345884283532,2.9648734911865158,12.0,11.777018089167438
0.396,pd_only,1.537124320899255,98.36029775810586,0.003395301489334692,-0.02947971735474293,0.002864650286088139,-1.3077368336027178,0.0011337515555619627,0.8800841666852156,0.37946123207963445,0.0008316166423927287,0.21397514804847506,0.0006582419772792488,0.6209757099780129,0.00019377165892629447,-1.256982637105797,-0.4425738856805679,15.716678850572473,-68.6665950585942,10.291544301742539,-65.69003421809107,2.964849137033057,12.0,11.779053185047928
0.398,pd_only,1.5394485549957209,98.37717462424297,0.0033969383629381227,-0.029060665007662672,0.0028659465157301117,-1.3064986285870337,0.0011341432677010876,0.877567925057725,0.378583857801555,0.0008184368017152458,0.20952617354012842,0.0006481148209863711,0.6191025078419853,0.00019585606956254483,-1.2581208137453472,-0.4386871390397297,15.716733247859727,-68.63727468429921,10.291575576246478,-65.74554708361708,2.9648248233795838,12.0,11.781070901129583
0.4,pd_only,1.541766337945738,98.39450788092313,0.0033985492902618626,-0.028650332586632427,0.002867222803621027,-1.3052641199547554,0.001134539084116129,0.8750495273500238,0.3777141884952921,0.0008054636618700385,0.2051662105151228,0.0006381439454576887,0.6172543161391649,0.00019790820752066255,-1.2591988538505836,-0.4348346531314697,15.716786815740939,-68.60851322894878,10.291606366047056,-65.80110736319784,2.9648005655515925,12.0,11.783071400127819
0.402,pd_only,1.544077776287816,98.41227690738336,0.0034001346784565956,-0.028248545515316133,0.002868479457840967,-1.3040332619410582,0.0011349389362612962,0.8725290934259649,0.37685215623935314,0.0007926940973664728,0.20089353565814622,0.0006283271099700769,0.615429006848644,0.0001999260725835944,-1.2602169620294907,-0.4310161279694864,15.71683956551287,-68.58030034028113,10.291636676401035,-65.85669596410634,2.964776378231392,12.0,11.785054842620038
0.404,pd_only,1.5463829713960953,98.43046157719967,0.0034016949285080567,-0.027855132598467912,0.002869716782030148,-1.3028060128784038,0.00113534275183015,0.8700067426712269,0.3759976937072921,0.0007801250257305824,0.19670645842411089,0.0006186620945904218,0.6136245313271668,0.0002019077844268768,-1.261175377368969,-0.42723126603052547,15.716891508360343,-68.55262585798876,10.29166651263149,-65.91229435202297,2.96475227547666,12.0,11.787021387090885
0.406,pd_only,1.5486820196516555,98.44904224986034,0.0034032304353217137,-0.027469925957638534,0.002870935075430814,-1.3015823350417108,0.0011357504549871875,0.8674825939279281,0.3751507341628109,0.0007677534068284948,0.19260332041468897,0.0006091467003331288,0.6118389183464584,0.00020385157851876516,-1.2620743716493765,-0.42347977224058664,15.716942655359126,-68.52547981006012,10.291695880122802,-65.96788454056745,2.9647282707385343,12.0,11.78897118997626
0.40800000000000003,pd_only,1.5509750126096287,98.46799976244749,0.003404741587806138,-0.027092760968104625,0.0028721346329294195,-1.3003621944973773,0.0011361619665914537,0.8649567654327031,0.37431121145488894,0.000755576242212223,0.18858249476695402,0.0005997787493025833,0.6100702721668024,0.0002057558021330454,-1.2629142476125184,-0.4197613539609776,15.716993017478666,-68.49885240919457,10.291724784315845,-66.02344908096195,2.964704376879272,12.0,11.790904405706126
0.41000000000000003,pd_only,1.5532620371622057,98.48731542142558,0.0034062287689551117,-0.026723476196996873,0.0028733157450990627,-1.2991455609560845,0.0011365772044123975,0.862429374758139,0.3734790600129405,0.0007435905744868261,0.18464238555387635,0.0005905560848216479,0.6083167706464415,0.00020761891047192346,-1.2636953372820383,-0.41607572097422457,15.71704260558454,-68.47273404928897,10.291753230703309,-66.0789710518254,2.964680606189458,12.0,11.792821186746133
0.41200000000000003,pd_only,1.555543175697599,98.50697099453599,0.003407692355928508,-0.02636191334260402,0.0028744786982421566,-1.2979324076293117,0.0011369960833381902,0.8599005387574686,0.3726542148420008,0.0007317934866982259,0.1807814271964276,0.000581476571546933,0.6065766633863724,0.00020943946289636052,-1.2644180003351895,-0.41242258546985167,15.717091430440778,-68.44711530199451,10.291781224825206,-66.13443404909935,2.9646569704047967,12.0,11.794721683638087
0.41400000000000003,pd_only,1.5578185062550438,98.52694870279579,0.0034091327201319897,-0.02600791717482991,0.0028756237744332995,-1.2967227110894914,0.0011374185155767131,0.8573703735124187,0.37183661151794073,0.0007201821017408864,0.17699808388705437,0.000572538095571481,0.6048482699100945,0.0002112161192614448,-1.2650826225249587,-0.40880166203003626,15.717139502711946,-68.42198691334167,10.291808772264487,-66.18982217610504,2.9646334807224766,12.0,11.79660604503939
0.41600000000000004,pd_only,1.5600881026685498,98.5472312126001,0.0034105502221518195,-0.025661335475379476,0.002876751244901397,-1.2955164511359545,0.0011378443991870706,0.8548389943058587,0.3710261861817583,0.0007087510099148925,0.17329084972521747,0.0005637352340488591,0.6031299767684561,0.00021294180517869482,-1.2656896032799914,-0.40521266809119943,15.717186832965067,-68.39733980043238,10.29183587864281,-66.24512003373148,2.9646101478171305,12.0,11.798474417761332
0.418,pd_only,1.5623520347406699,98.5678016385811,0.003411945232809034,-0.025322018986418615,0.0028778613971915615,-1.2943136106545339,0.0011382736715145644,0.8523065154916978,0.37022287553913624,0.0006975053286073477,0.16965824448043074,0.0005550761450822235,0.6014202407102789,0.0002146361637468623,-1.266239407080466,-0.40165532131104337,15.717233468089047,-68.37316505812268,10.291862590048316,-66.30031269952731,2.964587017193316,12.0,11.800326948729632
0.42,pd_only,1.564610368353382,98.58864347528372,0.0034133181025850197,-0.024989821345070155,0.0028789544956945704,-1.2931141754968192,0.0011387062177145022,0.849773050567311,0.36942661684861317,0.0006864348879926609,0.1660988206742303,0.0005465492515043415,0.5997175788573925,0.00021627309996894283,-1.2667324621934024,-0.3981293452615304,15.717279306774776,-68.34945390381253,10.291888788455603,-66.35538576783077,2.964563972872082,12.0,11.802163774461448
0.422,pd_only,1.5668631656217504,98.60974072523456,0.0034146691791528015,-0.024664599034218318,0.0028800308040525875,-1.2919181343514494,0.0011391419403616806,0.8472387120710587,0.3686373479219409,0.0006755382838908003,0.16261115542591897,0.0005381541790085956,0.5980205726848715,0.00021786132358918292,-1.267169248126117,-0.3946344633361305,15.717324463361303,-68.32619778183361,10.291914594283329,-66.41032525876479,2.9645411748687516,12.0,11.803985044073858
0.424,pd_only,1.5691104850305504,98.63107774493103,0.003415998805914763,-0.02434621132750644,0.0028810905833300225,-1.2907254786208948,0.001139580742282703,0.8447036115499701,0.36785500711844016,0.0006648133809807021,0.15919385335593747,0.0005298896387174957,0.5963278652772612,0.0002194009605111685,-1.26755026054434,-0.39117040175038686,15.717368929693304,-68.30338825322539,10.291939993568217,-66.46511766576177,2.9645185738476143,12.0,11.805790894905705
0.426,pd_only,1.5713523815667074,98.65263930917651,0.0034173073213602354,-0.02403452023599785,0.0028821340911341924,-1.289536202302016,0.0011400225242524356,0.8421678595264868,0.3670795333401887,0.0006542577227363105,0.15584554575429577,0.0005217539020849992,0.5946381594394388,0.00022089098486629483,-1.2678760117416383,-0.3877368891257104,15.717412708193091,-68.2810170407826,10.291964983502288,-66.51974993551894,2.964496171968452,12.0,11.807581464632744
0.428,pd_only,1.57358890684831,98.67441059585815,0.003418595058856317,-0.02372939045603774,0.0028831615812886313,-1.2883503018698703,0.0011404671851522922,0.8396315654664478,0.3663108660274101,0.0006438687480406758,0.15256488998005638,0.0005137450772194056,0.592950216072837,0.00022233044992825502,-1.268147030019507,-0.38433365638933104,15.717455806172875,-68.25907602168031,10.291989566795586,-66.57420945627344,2.9644739783632295,12.0,11.809356889699067
0.43,pd_only,1.5758201092503026,98.69637717646785,0.0034198623466221443,-0.02343068931815813,0.0028841733037476606,-1.287167776164622,0.0011409146223296846,0.8370948377490414,0.36554894515392367,0.0006336438829137716,0.1493505689398039,0.0005058612295147031,0.5912628526241261,0.0002237185886962177,-1.2683638587032031,-0.3809604367432053,15.717498232818928,-68.23755722323777,10.292013748383164,-66.62848404853617,2.9644520017458618,12.0,11.811117305009123
0.432,pd_only,1.578046034026888,98.7185250083726,0.003421109507772185,-0.02313828673696478,0.0028851695046035577,-1.2859886262814868,0.001141364731866468,0.8345577836389338,0.3647937112226299,0.0006235805750203932,0.1462012905966748,0.0004981004279486361,0.5895749415676381,0.00022505476839172598,-1.268527055053755,-0.3776169656468871,15.717539997909437,-68.2164528197046,10.292037533983487,-66.68256195636395,2.9644302497979327,12.0,11.812862843894347
0.434,pd_only,1.580266723430675,98.7408404276551,0.0034223368603826234,-0.02285205516197553,0.0028861504261257064,-1.2848128554636558,0.0011418174087739013,0.8320205092605963,0.3640451052610244,0.0006136763052193496,0.14311578749462509,0.0004904607610744904,0.5878854089155114,0.0002263384537165967,-1.2686371891687749,-0.3743029808027435,15.717581111327942,-68.19575512939626,10.292060929542368,-66.73643183878718,2.964408729433656,12.0,11.81459363813495
0.436,pd_only,1.582482216828623,98.76331014217527,0.003423544717563862,-0.022571869529389173,0.00288711630680911,-1.2836404689981449,0.0011422725471491018,0.8294831195747872,0.3633030688167418,0.0006039285906194296,0.14009281629317907,0.00048294034170190793,0.5861932327554784,0.0002275691876002091,-1.26869484290457,-0.3710182221413108,15.71762158289632,-68.17545661196671,10.292083941038308,-66.79008276133578,2.9643874470144835,12.0,11.816309817990486
