Ovmem/robot-control-retargeting-framework/results/dynamics/joint_pd_gc.csv
t,mode,err_norm,tau_norm,q1,q2,q3,q4,q5,q6,q7,qd1,qd2,qd3,qd4,qd5,qd6,qd7,tau1,tau2,tau3,tau4,tau5,tau6,tau7
0.0,pd_gc,0.34837063541366386,30.79704527069373,3.64611049020882e-05,-0.7000239392775534,9.50189459662796e-06,-2.2000237979601955,1.7458535772013934e-05,1.5999852752667723,0.8000130662094338,0.0182305524510441,-0.011969638776685302,0.00475094729831398,-0.011898980097758569,0.008729267886006966,-0.007362366613870045,0.006533104716875866,16.0,-18.18819175748791,9.913309156892522,15.73617614807137,3.63220732116954,-0.0634632076936037,1.5968037424994141
0.002,pd_gc,0.348291003774042,30.598882423543223,8.669018747264673e-05,-0.7000595277972661,3.2460948968268764e-05,-2.200056395445386,4.0835547813243476e-05,1.599964397662146,0.8000284772745667,0.02511454128527926,-0.01779425985638992,0.011479527185820404,-0.016298742595198094,0.01168850602061477,-0.010438802313078836,0.007705532566475164,15.741855377293218,-18.017958039074898,9.855430612108394,15.85657022865248,3.579325349010301,-0.026305089430973094,1.570410479548025
0.004,pd_gc,0.348197965041671,30.49182186616101,0.00014369366686536961,-0.7001011696557813,6.619740064619004e-05,-2.200091834827341,6.655892139087959e-05,1.5999410733050174,0.8000442439205776,0.02850173969636144,-0.02082092925760921,0.01686822583896064,-0.017719690977629925,0.012861686788818055,-0.01166217856426205,0.007883323005435974,15.64146120700828,-17.932441102087054,9.772626564060207,15.902475101394995,3.5608814750240376,-0.010427736378810337,1.565413114679422
0.006,pd_gc,0.34809711919113107,30.423404300654678,0.0002046809770758745,-0.7001462001224965,0.00010762056401567705,-2.20012783109308,9.34389293688143e-05,1.599916844563179,0.8000600147586338,0.030493655105252437,-0.022515233357595543,0.020711581684743505,-0.017998132869375134,0.013440003988967351,-0.012114370919215455,0.007885419028097685,15.589480150901712,-17.88540200630699,9.704949493220841,15.918741024491451,3.55307630187394,-0.0037534044704021774,1.5643871556450857
0.008,pd_gc,0.3479914586832336,30.375866539925546,0.0002682172178681945,-0.7001932718269074,0.00015433230093538588,-2.2001635818980882,0.00012099960829546224,1.599892332331142,0.8000757410304642,0.03176812039616002,-0.023535852205412832,0.023355868459854417,-0.01787540250409534,0.013780339463323972,-0.012256116018466186,0.007863135915236614,15.556714350360396,-17.856621687779757,9.655138917223741,15.92359838059712,3.5487996823301136,-0.0009095545566624175,1.5640638293028106
0.01,pd_gc,0.3478827249433383,30.34130070135624,0.00033343769951524706,-0.7002416524467392,0.00020463617278336683,-2.2001988685976532,0.0001490001228224635,1.5998677744805525,0.8000914263565017,0.03261024082352628,-0.02419030991588683,0.025151935923990485,-0.01764334978256276,0.014000257263500637,-0.012278925294800501,0.007842663018730172,15.533788937024307,-17.83703215180512,9.61925121668061,15.92441628945251,3.5459262952704353,0.000392087952197695,1.5638388506995453
0.012,pd_gc,0.3477719899740162,30.315327062212244,0.00039978230248135756,-0.7002909124943839,0.0002573669201447937,-2.200233688790705,0.00017729505216144595,1.5998432532559497,0.8001070806266719,0.03317230148305525,-0.024630023822365985,0.026365373680713438,-0.017410096525704164,0.01414746466949123,-0.012260612301368214,0.007827135085119546,15.516781612509414,-17.82241282044951,9.593225689256478,15.92410330350955,3.5437593137761065,0.001102728401153108,1.5636073996453819
0.014,pd_gc,0.34765993794915706,30.29520134106424,0.00046687793974809866,-0.7003407820215821,0.0003117323340198347,-2.200268108841678,0.0002057886229743879,1.5998187898582414,0.800122712202999,0.03354781863337055,-0.02493476359911214,0.027182706937520482,-0.017210025486401923,0.014246785406470976,-0.012231698854148208,0.007815788163539786,15.50360519503872,-17.810694283816538,9.573977880446435,15.9237429622488,3.542017797914541,0.0016088715743451942,1.5633567501235341
0.016,pd_gc,0.3475470156951584,30.27910386412548,0.0005344736063549354,-0.7003910817393081,0.00036719584014196854,-2.200302207177443,0.00023441574123442505,1.599794383180156,0.8001383271853781,0.03379783330341835,-0.025149858862969048,0.027731753061066913,-0.017049167882558353,0.014313559130018562,-0.012203339042696434,0.007807491189562632,15.492980303952965,-17.800791834309486,9.559339239910273,15.923684951819332,3.5405563211310325,0.0020621333030224065,1.5630898001793119
0.018000000000000002,pd_gc,0.34743351935662303,30.2657981949347,0.0006023998439195359,-0.7004416877976092,0.0004233945134598922,-2.2003360545453114,0.00026313178770598496,1.5997700252736238,0.8001539298441699,0.03396311878230028,-0.025303029150526787,0.02809933665896183,-0.016923683934305885,0.014358023235779949,-0.012178953266161679,0.007801329395894225,15.484072445243749,-17.792092329048753,9.547823203037115,15.923995702515107,3.539285232305574,0.0025179312330672055,1.5628109597109792
0.02,pd_gc,0.34731964707934054,30.254434818733802,0.0006705421099249227,-0.7004925124046212,0.0004800830041784015,-2.20036970886371,0.00029190614949686506,1.5997457072241907,0.8001695231243725,0.03407113300269339,-0.02541230350600849,0.028344245359254665,-0.016827159199319538,0.014387180895440051,-0.01215902471649583,0.007796640101313516,15.476324349534233,-17.784222602037396,9.538419832701681,15.924642117448865,3.538144737771387,0.0029932683135212024,1.5625238082764001
0.022,pd_gc,0.3472055322619117,30.244426686994462,0.0007388229463986746,-0.7005434923221505,0.0005370954727830109,-2.2004032154585684,0.0003207178418836526,1.5997214211419564,0.8001851090434968,0.03414041823687598,-0.025489958764696077,0.02850623430230469,-0.016753297429063143,0.014405846193393787,-0.012143041117233643,0.0077929595621565465,15.469360769168299,-17.776940843611975,9.530445286400825,15.92556431371058,3.53709393333323,0.003490556065631978,1.5622309421478113
0.024,pd_gc,0.3470912650838424,30.235366665635727,0.0008071899616819285,-0.7005945815595968,0.0005943198236413631,-2.2004366089795218,0.0003495524926604805,1.5996971606361396,0.8002006889790998,0.03418350764162693,-0.02554461872311528,0.028612175429176077,-0.01669676047671389,0.014417325388413933,-0.0121302529083964,0.007789967801479866,15.462928308971843,-17.77008282142539,9.523437112381563,15.926702632470095,3.5361046960791045,0.004007259168438804,1.5619341792599528
0.026000000000000002,pd_gc,0.34697690668120684,30.22697164149685,0.0008756077126602223,-0.7006457464829066,0.0006516802830240143,-2.2004699155728864,0.00037840026265803365,1.5996729207417968,0.8002162638702089,0.034208875489146945,-0.025582461654899642,0.028680229691325627,-0.016653296682292408,0.014423884998776573,-0.012119947171427137,0.007787445554592642,15.456855696082668,-17.763533363461086,9.517082725619513,15.928006204328984,3.5351577083523322,0.004539661658114369,1.5616347744135068
0.028,pd_gc,0.3468624985850625,30.21904429854289,0.0009440522180734322,-0.7006969624168341,0.0007091256246356044,-2.2005031548204292,0.0004072544162127858,1.5996486976846702,0.8002318343564611,0.034222252706604915,-0.025607966963752598,0.028722670805795037,-0.01661962377142723,0.01442707677737608,-0.01211152856323479,0.007785243126078293,15.451027126139127,-17.75721004060506,9.511170874481493,15.929434402200872,3.5342397258028675,0.005084227891845483,1.5613335876817402
0.03,pd_gc,0.3467480690531335,30.21144683183635,0.001012507248497952,-0.7007482112272125,0.0007666212123581476,-2.200536341321014,0.00043611033961383583,1.5996244886297806,0.8002474008734867,0.034227515212259856,-0.025624405189197046,0.02874779386127157,-0.016593250292412265,0.014427961700524992,-0.012104527444828152,0.007783258512797107,15.44536428466166,-17.7510531237001,9.505558791972048,15.930955815559182,3.533341679949232,0.0056380049059052695,1.5610312063658318
0.032,pd_gc,0.34663363733614855,30.2040828128346,0.0010809618186067103,-0.7007994795748865,0.0008241436239703023,-2.200569485927496,0.0004649648710073777,1.599600291462192,0.8002629637180719,0.034227285054379164,-0.0256341738370194,0.028761205806077397,-0.016572303240733013,0.014427265696770932,-0.01209858379426237,0.0077814222926512015,15.439814207148528,-17.745019016046324,9.500149992899276,15.932546581280722,3.532457370143469,0.00619866309575734,1.5607280307247575
0.034,pd_gc,0.3465192165629136,30.19688463254782,0.0011494084913364593,-0.7008507576436291,0.0008816770181412866,-2.200602596692748,0.0004938158419016884,1.5995761046104546,0.8002785230925408,0.03422333636487451,-0.025639034371295225,0.028766697085492142,-0.016555382626150743,0.014425485447155386,-0.012093425868730488,0.007779687234434933,15.434341063750157,-17.73907576328424,9.49487926138839,15.93418875014857,3.5315825536138274,0.006764416554376762,1.560424333210206
0.036000000000000004,pd_gc,0.34640481569583753,30.18980479808638,0.0012178422309218596,-0.7009020382086705,0.0009392106791525402,-2.2006356795842845,0.0005226617636684793,1.5995519269097558,0.800294079134949,0.0342168697927001,-0.025640282520652605,0.028766830505626777,-0.016541445768187973,0.014422960883395394,-0.012088850349435193,0.007778021204092413,15.428920611584841,-17.733199889626228,9.489702511193634,15.935868901195423,3.5307143273203003,0.007333917276571178,1.5601202992085843
0.038,pd_gc,0.34629044085855437,30.18280988466598,0.0012862596270889236,-0.7009533159526874,0.0009967373574156228,-2.2006687390201387,0.0005515016133422857,1.5995277574979723,0.8003096319396175,0.03420869808353204,-0.02563887200843233,0.028763339131541346,-0.016529717927036433,0.014419924836903256,-0.012084705891776678,0.007776402334257642,15.42353644442845,-17.727374126389247,9.484589935629067,15.937577036366061,3.529850704327394,0.00790615668375283,1.559816054863432
0.04,pd_gc,0.34617609623843654,30.17587632419008,0.0013546583702155881,-0.7010045869627295,0.0010542521477304929,-2.2007017782689076,0.0005803346872259453,1.5995035957375934,0.8003251815710939,0.034199371563332186,-0.025635505021051157,0.028757395157434973,-0.016519624384485627,0.014416536941829762,-0.012080880189392452,0.007774815738218852,15.41817745666344,-17.72158576257729,9.479521379029157,15.939305725520056,3.528990323653714,0.008480384027716337,1.559511686024423
0.042,pd_gc,0.34606178470080556,30.168987467441543,0.001423036896198429,-0.701055848359922,0.0011117517309292596,-2.2007347997475235,0.0006091605007689341,1.5994794411574578,0.8003407280736461,0.034189262991420416,-0.025630698596234017,0.02874979159938333,-0.016510739307912612,0.014412906771494429,-0.012077290067856631,0.007773251276094454,15.412836128496103,-17.715825439186826,9.474483209192746,15.941049456083991,3.528132252131696,0.00905604222049572,1.5592072511400168
0.044,pd_gc,0.34594750820736303,30.162131530983526,0.0014913941460912834,-0.7011070980267973,0.0011692338611033715,-2.20076780524246,0.0006379787200311408,1.5994552934094426,0.8003562714777197,0.03417862494642727,-0.025624833437653014,0.028741065087055925,-0.016502747468231316,0.01440910963110333,-0.0120738740075913,0.007771702036784224,15.40750736642424,-17.710086264540884,9.46946620394873,15.94280414313777,3.5272758491878835,0.009632718691838793,1.5589027900231738
0.046,pd_gc,0.3458332681015232,30.155300159700293,0.0015597294033777246,-0.7011583344064882,0.00122669701881965,-2.2008007960738283,0.0006667891147195964,1.599431152236349,0.8003718118043325,0.03416762864322053,-0.02561818984546748,0.02873157885813918,-0.016495415684123493,0.014405197344227835,-0.01207058654682506,0.007770163306375827,15.402187719062717,-17.704363163828464,9.464464122896056,15.944566762512814,3.526420674542001,0.010210108296891285,1.558598329809189
0.048,pd_gc,0.3457190653033589,30.148487418506043,0.0016280421836479017,-0.7012095563548464,0.0012841401764089012,-2.2008337732169747,0.0006955915257532089,1.599407017448121,0.8003873490680635,0.03415639013508859,-0.025610974179093964,0.02872157879462565,-0.016488571573178824,0.014401205516806237,-0.012067394113924719,0.007768631865510872,15.396874846724694,-17.698652400323468,9.459472742081024,15.946335077034945,3.5255664251644356,0.010787985550281043,1.5582938890049556
0.05,pd_gc,0.3456049004420149,30.141689084519985,0.0016963321603595657,-0.7012607630315201,0.0013415626396871111,-2.200866737392508,0.0007243858439562974,1.5993828889042738,0.800402883279104,0.03414498835583202,-0.02560333833683871,0.028711231639105023,-0.016482087766620065,0.01439715910154425,-0.012064271923586058,0.007767105520237702,15.391567163416928,-17.69295122275166,9.454489202285542,15.948107432775672,3.5247128928519884,0.011366183951309061,1.557989480248348
0.052000000000000005,pd_gc,0.3454907739474818,30.134902144876413,0.0017645991137569409,-0.7013119538197834,0.001398963940101133,-2.2008996891329047,0.00075317199377987,1.5993587665008824,0.8004184144446291,0.03413347669868757,-0.025595394131661165,0.02870065020701095,-0.016475870198335876,0.014393074911786251,-0.01206120169569956,0.007765582762533012,15.38626359018959,-17.68725760571175,9.449511564433415,15.949882607666257,3.5238599315764163,0.011944580585530495,1.5576851121470405
0.054,pd_gc,0.34537668611265526,30.128124450242947,0.0018328428967221435,-0.7013631282674873,0.001456343762096344,-2.2009326288317608,0.0007819499232774012,1.5993346501609926,0.8004339425697561,0.034121891482601245,-0.02558722385192412,0.028689910997605553,-0.016469849428103547,0.014388964748765639,-0.012058169944914942,0.007764062563482061,15.380963397117819,-17.681570058079807,9.444538516566041,15.951659699171287,3.523007442990784,0.012523084809831442,1.5573807906153894
0.056,pd_gc,0.3452626371360053,30.121354462446124,0.0019010634115350453,-0.7014142860435923,0.0015137018939110954,-2.2009655567801856,0.0008107195969137632,1.5993105398275367,0.8004494676581922,0.03411025740645097,-0.02557888805254755,0.0286790659073757,-0.01646397421230513,0.014384836818180974,-0.012055166728015272,0.007762544218062054,15.375666087505813,-17.67588748227325,9.439569168939823,15.953438041055843,3.522155358015641,0.013101629766564482,1.5570765196850884
0.058,pd_gc,0.3451486271508913,30.114591079060062,0.001969260594081279,-0.701465426906175,0.0015710381942274745,-2.2009984731936822,0.0008394809905551169,1.5992864354581056,0.8004649897126769,0.03409859127311686,-0.025570431291329715,0.02866815015818955,-0.016458206748423965,0.014380696820676823,-0.012052184715577579,0.007761027242328081,15.370371323386884,-17.670209070409584,9.434602917823527,15.955217141704136,3.521303628588739,0.0136801661696766,1.5567723021150766
0.06,pd_gc,0.3450346562457096,30.1078335086984,0.002037434403123949,-0.7015165506788793,0.0016283525695619918,-2.2010313782319986,0.0008682340880005498,1.5992623370210932,0.8004805087352842,0.03408690452133508,-0.025561886352192382,0.02865718766725861,-0.016452519158115037,0.014376548722716462,-0.012049218506139377,0.007759511303681293,15.365078874649862,-17.664534227849707,9.429639353316244,15.956996638492715,3.5204522212949803,0.014258657699441013,1.5564681397954665
0.062,pd_gc,0.34492072447776034,30.101081182318836,0.002105584813012971,-0.7015676572335878,0.0016856449589323097,-2.201064272013774,0.0008969788785807133,1.5992382444928535,0.8004960247276307,0.034075204944511,-0.025553277354281197,0.028646194685158947,-0.016446890887593883,0.014372395290081738,-0.012046264119910721,0.007757996173253908,15.359788584451394,-17.65886251690617,9.424678196913451,15.958776264044682,3.519601112860165,0.014837077600216464,1.5561640340215142
0.064,pd_gc,0.34480683188280054,30.094333690064982,0.0021737118087276092,-0.7016187464776691,0.0017429153234541244,-2.201097154627348,0.0009257153554921238,1.5992141578556032,0.8005115376910173,0.03406349785731917,-0.02554462204064791,0.028635182260907426,-0.016441306787064906,0.014368238455705302,-0.012043318625148902,0.007756481693348636,15.354500345735808,-17.653193615400607,9.419719259212213,15.960555821283554,3.5187502870318563,0.015415406168858947,1.555859985680736
0.066,pd_gc,0.3446929784816377,30.087590736225042,0.0022418153825030794,-0.7016698183445947,0.0018001636392794404,-2.201130026138733,0.0009544435146391997,1.599190077095878,0.8005270476265276,0.03405178688773519,-0.02553593346283242,0.028624157912657974,-0.0164357556924701,0.014364079573537943,-0.012040379862537493,0.007754967755146875,15.349214085299325,-17.6475272861559,9.414762411254971,15.962335165002465,3.517899732428739,0.015993628901298074,1.5555559953808826
0.068,pd_gc,0.3445791642846865,30.08085210705856,0.002309895531533166,-0.7017208727870361,0.0018573898928002015,-2.20116288659749,0.0009831633538274658,1.5991660022033942,0.8005425545350945,0.03404007451504348,-0.025527221220666738,0.02861312676038049,-0.016430229378603098,0.014359919594133129,-0.012037446241926264,0.007753454283439011,15.34392975297146,-17.641863354540043,9.409807565109588,15.964114188252758,3.5170494410562423,0.01657173512522192,1.5552520635375588
0.07,pd_gc,0.3444653892951232,30.074117647778195,0.002377952256404216,-0.7017719097717854,0.0019145940773883988,-2.2011957360410634,0.0010118748722001876,1.5991419331702093,0.8005580584175468,0.03402836243552496,-0.025518492374641707,0.028602092294098602,-0.01642472178661996,0.014355759186360855,-0.01203451659246909,0.007751941226157421,15.33864731426674,-17.636201691938812,9.404854660704569,15.965892812296369,3.5161994072798324,0.017149716991781805,1.5549481904342577
0.07200000000000001,pd_gc,0.344351653511074,30.06738724605489,0.0024459855600266075,-0.7018229292760199,0.0019717761911788013,-2.201228574497972,0.0010405780698441141,1.599117869990105,0.8005735592746411,0.034016651811195626,-0.025509752117249637,0.028591056895201177,-0.01641922845421785,0.0143515988219633,-0.01203159005216825,0.007750428547188461,15.333366745390315,-17.630542203592842,9.399903656901085,15.967670979191228,3.5153496271132427,0.01772756873218473,1.554644376263512
0.074,pd_gc,0.3442379569271338,30.06066082017968,0.0025139954469048684,-0.7018739312845538,0.0020289362355595877,-2.2012614019901626,0.001069272947512956,1.599093812658132,0.8005890571070841,0.034004943439130506,-0.02550100426693574,0.028580022190393222,-0.016413746095440638,0.014347438834420918,-0.01202866598646733,0.007748916221434335,15.328088029841133,-17.624884819647722,9.394954525435361,15.969448646321684,3.514500097723938,0.018305286109708163,1.5543406211551543
0.076,pd_gc,0.34412429953542484,30.053938310554926,0.0025819819226385234,-0.7019249157878168,0.0020860742141439233,-2.2012942185347444,0.0010979595064329957,1.5990697611702753,0.8006045519155469,0.033993237866827446,-0.025492251631492914,0.02856898929216777,-0.016408272290892367,0.014343279460019948,-0.012025743928287268,0.007747404231418309,15.322811156099785,-17.61922948856877,9.39000724680643,15.971225782365199,3.5136508170887915,0.01888286601590572,1.5540369251957313
0.078,pd_gc,0.344010681326334,30.047219673569632,0.0026499449935802853,-0.7019758827803676,0.0021431901320685155,-2.201327024145263,0.0011266377481661243,1.5990457155232076,0.8006200437006767,0.0339815354708809,-0.025483496275396658,0.028557958962296088,-0.01640280525941844,0.014339120866564248,-0.012022823533850202,0.007745892564938749,15.317536116053335,-17.613576172296334,9.385061807482598,15.973002364318521,3.5128017837538277,0.019460306173131325,1.5537332884418587
0.08,pd_gc,0.3438971022890279,30.040504877184762,0.0027178846666016656,-0.7020268322598004,0.0022002839955146507,-2.201359818832643,0.001155307674513108,1.5990216757141074,0.8006355324631037,0.033969836510690236,-0.025474739716451072,0.02854693172306765,-0.016397343689861416,0.014334963173491921,-0.012019904550136547,0.007744381213457614,15.312262903921246,-17.607924842681467,9.38011819800268,15.974778375305764,3.5119529966662117,0.020037604915379426,1.5534297109294377
0.082,pd_gc,0.3437835624118143,30.033793897747266,0.0027858009489319974,-0.7020777642259414,0.0022573558113807395,-2.2013926026058774,0.0011839692874451102,1.5989976417405254,0.8006510182034456,0.03395814116516597,-0.025465983070434333,0.02853590793304437,-0.016391886617113726,0.01433080646600109,-0.012016986790937044,0.007742870170983384,15.306991515522204,-17.602275478864296,9.375176411684212,15.976553802963462,3.5111044550565205,0.020614761026871875,1.5531261926799882
0.084,pd_gc,0.3436700616823946,30.027086717687485,0.002853693848047692,-0.7021286786802563,0.002314405587058137,-2.2014253754725392,0.0012126225890550927,1.598973613600287,0.8006665009223123,0.033946449557847196,-0.025457227157482953,0.02852488783869882,-0.016386433330819475,0.014326650804991237,-0.012014070119205557,0.007741359433295918,15.30172194777312,-17.596628065345428,9.370236443743943,15.9783286382505,3.5102561583560448,0.021191773623248533,1.5528227337050486
0.08600000000000001,pd_gc,0.3435566000880426,30.02038332385327,0.002921563371595916,-0.702179575625417,0.002371433330277439,-2.2014581374391557,0.0012412675815232446,1.598949591291419,0.8006819806203072,0.0339347617741121,-0.025448472580334256,0.02851387160965086,-0.0163809833081401,0.01432249623407594,-0.012011154434075478,0.007739848997413797,15.296454198346325,-17.59098259056754,9.36529829069846,15.98010287457155,3.5094081061385785,0.02176864206401019,1.5525193340092098
0.088,pd_gc,0.3434431776157294,30.01368370630354,0.0029894095273418917,-0.7022304550649807,0.00242843904900292,-2.201490888511484,0.0012699042670923266,1.5989255748120963,0.8006974572980295,0.03392307787298769,-0.025439719781869305,0.028502859362740485,-0.016375536164245752,0.014318342784541057,-0.012008239661303896,0.007738338861219648,15.291188265434759,-17.585339045872217,9.360361949955362,15.981876507131815,3.5085602980793444,0.022345365888145174,1.552215993592217
0.09,pd_gc,0.34332979425221194,30.00698785743301,0.003057232323132425,-0.7022813170031555,0.0024854227513599098,-2.2015236286947157,0.001298532648050045,1.598901564160604,0.800712930956076,0.03391139789526663,-0.025430969087428937,0.02849185117849486,-0.016370091615872405,0.014314190478859207,-0.012005325746234596,0.007736829023202813,15.285924147590823,-17.57969742473263,9.355427419533875,15.983649532461332,3.507712733925932,0.022921944766681968,1.5519127124504377
0.092,pd_gc,0.343216449984096,30.000295771337495,0.0031250317668706155,-0.7023321614446274,0.0025423844455847275,-2.2015563579936246,0.0013271527267164171,1.5988775593353066,0.8007284015950406,0.033899721869095276,-0.025422220735928844,0.02848084711240877,-0.016364649454484903,0.014310039333186034,-0.012002412648621659,0.007735319482277908,15.280661843615674,-17.57405772218945,9.350494697874003,15.985421948065481,3.506865413477711,0.02349837846783176,1.5516094905778643
0.094,pd_gc,0.3431031447978805,29.99360744335206,0.0031928078664982718,-0.7023829883944329,0.002599324139990095,-2.2015890764126778,0.0013557645054346945,1.598853560334629,0.8007438692155159,0.03388804981382815,-0.025413474902742476,0.028469847202683796,-0.016359209526536137,0.014305889359138728,-0.011999500338816273,0.0077338102376580085,15.275401352483017,-17.568419934435816,9.34556378370563,15.987193752166942,3.5060183365711843,0.024074666831259695,1.5513063279668378
0.096,pd_gc,0.3429898786799895,29.986922869715755,0.003260560629983655,-0.702433797857866,0.0026562418429411897,-2.2016217839561154,0.001384367986564825,1.598829567157039,0.8007593338180934,0.033876381742691766,-0.02540473171652566,0.028458851475547185,-0.016353771718930397,0.014301740565065184,-0.011996588794971712,0.007732301288767494,15.270142673286545,-17.562784058512328,9.340634675958913,15.988964943516383,3.505171503069554,0.02465080974919065,1.551003224608535
0.098,pd_gc,0.3428766516167939,29.980242047327238,0.0033282900653129146,-0.7024845898404092,0.0027131375628390176,-2.201654480628012,0.0014129631724787302,1.598805579801037,0.8007747954033637,0.033864717664629715,-0.02539599127158669,0.028447859948914012,-0.01634833594833081,0.014297592956952694,-0.01199367800097485,0.007730792635179808,15.264885805203624,-17.5571500920827,9.33570737370264,15.990735521252805,3.5043249128552736,0.025226807152556763,1.5507001804933158
0.1,pd_gc,0.34276346359462867,29.97356497356688,0.0033959961804840818,-0.7025353643476832,0.002770011308108845,-2.2016871664323188,0.0014415500655568896,1.5987815982651472,0.8007902539719168,0.03385305758558354,-0.025387253636982104,0.028436872634913745,-0.016342902153288402,0.014293446539079699,-0.011990767944930595,0.007729284276575864,15.259630747470151,-17.551518033268774,9.330781876101815,15.992505484800898,3.503478565824716,0.025802659000706107,1.5503971956109612
0.10200000000000001,pd_gc,0.34265031459980333,29.966891646167074,0.00346367898350285,-0.7025861213854095,0.0028268630871921196,-2.2017198413728956,0.001470128668185859,1.5987576225479112,0.8008057095243423,0.03384140150938411,-0.025378518863205222,0.028425889541637203,-0.016337470288456463,0.014289301314484791,-0.01198785861804744,0.007727776212708772,15.254377499363105,-17.545887880529285,9.325858182388428,15.99427483379544,3.5026324618843336,0.02637836527391313,1.5500942699508387
0.10400000000000001,pd_gc,0.3425372046186107,29.960222063117584,0.0035313384823795974,-0.7026368609593837,0.0028836929085408144,-2.2017525054535363,0.0014986989827564683,1.5987336526478835,0.800821162061229,0.03382974943837366,-0.025369786987101215,0.02841491067434736,-0.016332040320329987,0.014285157285304677,-0.011984950013816125,0.007726268443386661,15.249126060188395,-17.540259632570656,9.320936291841239,15.996043568025744,3.5017866009479124,0.026953925967840853,1.5497914035020388
0.106,pd_gc,0.34242413363733315,29.95355622259647,0.003598974685127279,-0.7026875830754546,0.002940500780613456,-2.2017851586779846,0.0015272610116625052,1.5987096885636287,0.8008366115831659,0.03381810137384094,-0.02536105803548341,0.028403936036320663,-0.016326612224113895,0.014281014453018472,-0.011982042127403404,0.007724760968454584,15.243876429272401,-17.534633288281427,9.316016203771781,15.997811687394762,3.500940982934571,0.027529341089453485,1.5494885962534455
0.108,pd_gc,0.3423111016422462,29.94689412291966,0.0036665875997599325,-0.7027382877395102,0.0029972867118723224,-2.2018178010499474,0.0015558147572997546,1.5986857302937183,0.8008520580907414,0.03380645731632666,-0.025352332027789106,0.02839296562943328,-0.016321185981416166,0.014276872818624676,-0.011979134955211754,0.007723253787785842,15.238628605956045,-17.52900884668408,9.311097917514658,15.999579191889001,3.5000956077673333,0.028104610654014817,1.5491858481937995
0.11,pd_gc,0.34219810861962224,29.940235762504013,0.0037341772342916095,-0.7027889749574663,0.003054050710781464,-2.2018504325731043,0.0015843602220652943,1.5986617778367291,0.800867501584544,0.0337948172658385,-0.025343608978034157,0.02838199945457073,-0.016315761578555337,0.014272732382769864,-0.011976228494551853,0.007721746901273271,15.233382589590633,-17.52338630689961,9.30618143242074,16.001346081556363,3.4992504753720803,0.028679734682925062,1.5488831593117374
0.112,pd_gc,0.3420851545557322,29.933581139840378,0.003801743596735615,-0.7028396447352588,0.0031107927858052943,-2.201883053251115,0.0016128974083569787,1.5986378311912424,0.8008829420651616,0.03378318122200289,-0.02533488889625014,0.028371037511915064,-0.016310339005315366,0.014268593145842239,-0.011973322743397394,0.007720240308821175,15.228138379534933,-17.51776566812145,9.301266747852454,16.00311235648991,3.4984055856767897,0.029254713202071958,1.5485805295958233
0.114,pd_gc,0.3419722394368479,29.926930253473973,0.0038692866951039605,-0.7028902970788379,0.003167512945407588,-2.201915663087623,0.0016414263185730582,1.598613890355842,0.8008983795331823,0.03377154918417269,-0.025326171789537957,0.028360079801146937,-0.01630491825402486,0.01426445510803978,-0.01197041770021833,0.007718734010347952,15.222895975153111,-17.512146929596376,9.296353863180496,16.004878016816047,3.4975609386109907,0.029829546240613958,1.5482779590345817
0.116,pd_gc,0.3418593632492425,29.9202831019896,0.003936806537406968,-0.7029409319941635,0.0032242111980507644,-2.201948262086261,0.001669946955111899,1.5985899553291143,0.8009138139891939,0.03375992115150362,-0.025317457662844867,0.028349126321588133,-0.016299499318884206,0.01426031826942031,-0.011967513363842079,0.007717228005775938,15.217655375813266,-17.506530090610323,9.291442777781462,16.006643062685256,3.496716534105349,0.030404233830165328,1.5479754476164842
0.11800000000000001,pd_gc,0.34174652597919175,29.9136396840014,0.004004303131652986,-0.7029915494872025,0.0032808875521953694,-2.201980850250652,0.0016984593203717754,1.5985660261096475,0.800929245433784,0.03374829712300888,-0.02530874651953673,0.028338177072302562,-0.016294082195473163,0.014256182629938174,-0.01196460973336021,0.007715722295034243,15.212416580886392,-17.500915150478107,9.286533491036238,16.008407494266127,3.4958723720913865,0.030978776004111364,1.5476729953299897
0.12,pd_gc,0.3416337276129746,29.90699999814499,0.004071776485848183,-0.7030421495639262,0.0033375420162997057,-2.2020134275844128,0.0017269634167507172,1.5985421026960314,0.8009446738675401,0.03373667709759829,-0.025300038361815016,0.02832723205216814,-0.01628866688038265,0.014252048189470968,-0.011961706808063358,0.007714216878054255,15.207179589745639,-17.49530210853587,9.281626002328812,16.010171311740393,3.495028452501252,0.031553172797118556,1.5473706021635378
0.122,pd_gc,0.34152096813687366,29.900364043071672,0.004139226607996396,-0.7030927322303082,0.003394174598819562,-2.2020459940911548,0.001755459246646396,1.5985181850868566,0.8009600992910496,0.033725061074106395,-0.025291333191025694,0.02831629125992809,-0.016283253370947007,0.014247914947839408,-0.011958804587384119,0.007712711754773395,15.20194440176577,-17.48969096413534,9.276720311045487,16.01193451529936,3.494184775267567,0.03212742424485393,1.547068268105557
0.124,pd_gc,0.3414082475371754,29.893731817444383,0.0042066535060990215,-0.703143297492324,0.0034507853082080173,-2.202078549774485,0.0017839468124560402,1.5984942732807148,0.8009755217048998,0.03371344905131273,-0.025282631007887423,0.028305354694227645,-0.016277841665050353,0.014243782904822025,-0.011955903070857074,0.007711206925127552,15.1967110163228,-17.48408171663986,9.271816416574241,16.01369710514142,3.4933413403233082,0.0327015303836542,1.5467659931444595
0.126,pd_gc,0.3412955658001704,29.887103319934603,0.004274057188154935,-0.7031938453559493,0.0035073741529152986,-2.2021110946380067,0.0018124261165763718,1.5984703672761986,0.800990941109678,0.03370184102795656,-0.025273931812656563,0.028294422353640585,-0.016272431760977903,0.014239652060165807,-0.011953002258098795,0.0077097023890548315,15.1914794327937,-17.478474365421285,9.266914318304362,16.015459081470162,3.49249814760172,0.03327549125036633,1.5464637772686636
0.128,pd_gc,0.34118292291215385,29.880478549220097,0.00434143766216043,-0.7032443758271598,0.0035639411413886752,-2.202143628685321,0.0018408971614035604,1.598446467071901,0.8010063575059709,0.033690237002747564,-0.025265235605249924,0.028283494236688366,-0.01626702365731099,0.0142355224135943,-0.011950102148780527,0.0077081981464963275,15.186249650556215,-17.472868909857787,9.26201401562609,16.01722044449298,3.491655197036251,0.03384930688223031,1.546161620466582
0.13,pd_gc,0.3410703188594251,29.873857503983274,0.004408794936109177,-0.7032948889119305,0.0036204862820723833,-2.202176151920027,0.0018693599493331875,1.5984225726664156,0.8010217708943658,0.033678636974373635,-0.025256542385334466,0.02827257034185402,-0.016261617352847133,0.014231393964813493,-0.011947202742616922,0.00770669419739306,15.181021668988699,-17.467265349332244,9.257115507930447,16.018981194420014,3.490812488560507,0.034422977316747705,1.5458595227266199
0.132,pd_gc,0.34095775362828856,29.86724018290992,0.00447612901799219,-0.7033453846162353,0.0036770095834075677,-2.20220866434572,0.00189781448276022,1.5983986840583368,0.8010371812754491,0.03366704094150662,-0.025247852152394504,0.02826165066759225,-0.01625621284654496,0.014227266713516325,-0.011944304039351912,0.007705190541684609,15.175795487470035,-17.461663683230956,9.252218794609016,16.020741331463377,3.4899700221082113,0.03499650259161191,1.5455574840371828
0.134,pd_gc,0.3408452272050529,29.86062658468845,0.004543439915797803,-0.7033958629460468,0.0037335110538322413,-2.202241165965995,0.001926260764078992,1.5983748012462593,0.8010525886498078,0.033655448902806494,-0.02523916490578008,0.028250735212336876,-0.016250810137482214,0.014223140659385961,-0.011941406038752992,0.007703687179313042,15.170571105379533,-17.45606391094291,9.247323875053914,16.022500855836697,3.4891277976131847,0.0355698827446731,1.5452555043866893
0.136,pd_gc,0.34073273957603184,29.854016708009116,0.004610727637511652,-0.7034463239073363,0.003789990701781254,-2.2022736567844445,0.001954698795683188,1.5983509242287781,0.8010679930180282,0.03364386085692452,-0.025230480644741305,0.028239823974506324,-0.01624540922482,0.014219015802098068,-0.011938508740606143,0.007702184110221297,15.165348522096885,-17.450466031858994,9.242430748657624,16.02425976775465,3.4882858150093203,0.03614311781386048,1.544953583763544
0.138,pd_gc,0.3406202907275436,29.847410551563566,0.004677992191116663,-0.7034967675060733,0.003846448535686269,-2.20230613680466,0.0019831285799658343,1.5983270530044886,0.801083394380697,0.033632276802505495,-0.02522179936845739,0.028228916952507562,-0.016240010107787334,0.014214892141323003,-0.011935612144703931,0.007700681334350688,15.160127737002124,-17.44487004537158,9.237539414812979,16.026018067432627,3.487444074230576,0.036716207837213855,1.5446517221561566
0.14,pd_gc,0.3405078806459113,29.840808114044467,0.004745233584593042,-0.7035471937482254,0.0039028845639757473,-2.2023386060302315,0.002011550119319288,1.5983031875719869,0.8010987927384002,0.03362069673818953,-0.025213121076052492,0.028218014144739224,-0.016234612785656,0.014210769676726775,-0.011932716250854484,0.007699178851643712,15.15490874947559,-17.439275950874105,9.232649872913093,16.027775755086576,3.486602575210951,0.03728915285276857,1.5443499195529413
0.14200000000000002,pd_gc,0.3403955093174631,29.834209394145372,0.004812451825918268,-0.7035976026397586,0.003959298795074935,-2.2023710644647467,0.0020399634161352327,1.598279327929869,0.8011141880917243,0.03360912066261323,-0.02520444576661306,0.028207115549593716,-0.01622921725773451,0.014206648407972438,-0.011929821058871167,0.007697676662043261,15.149691558897903,-17.433683747760988,9.227762122351347,16.02953283093284,3.485761317884492,0.03786195289864791,1.5440481759423146
0.14400000000000002,pd_gc,0.34028317672853164,29.827614390560342,0.00487964692306709,-0.7036479941866369,0.004015691237405853,-2.2024035121117933,0.002068368472804674,1.5982554740767319,0.8011295804412553,0.033597548574410746,-0.025195773439195546,0.028196221165458925,-0.01622382352335514,0.014202528334720646,-0.011926926568568174,0.007696174765490903,15.144476164649953,-17.42809343542725,9.222876162521342,16.031289295187975,3.484920302185278,0.038434608012974714,1.5437464913126897
0.146,pd_gc,0.34017088286545444,29.82102310198394,0.004946818884011519,-0.7036983683948226,0.004072061899387291,-2.202435948974957,0.002096765291717935,1.5982316260111724,0.8011449697875791,0.03358598047221444,-0.025187104092837514,0.028185330990719425,-0.0162184315818721,0.014198409456630437,-0.011924032779766912,0.00769467316192962,15.139262566112885,-17.42250501326847,9.217991992816906,16.033045148068727,3.484079528047417,0.03900711823387004,1.5434448656524888
0.148,pd_gc,0.3400586277145742,29.814435527111044,0.00501396771672083,-0.7037487252702757,0.0041284107894348065,-2.2024683750578227,0.0021251538752646536,1.5982077837317878,0.8011603561312817,0.03357441635465543,-0.025178437726559814,0.028174445023757492,-0.016213041432650437,0.014194291773359381,-0.01192113969229057,0.007693171851302958,15.134050762668076,-17.41691848068063,9.213109612632055,16.034800389791958,3.4832389954050416,0.03957948359947361,1.543143298950131
0.15,pd_gc,0.3399464112622381,29.807851664636853,0.005081093429161558,-0.7037990648189544,0.004184737915960714,-2.2025007903639726,0.0021535342258337817,1.598183947237176,0.8011757394729487,0.03356285622036403,-0.025169774339371533,0.028163563262953755,-0.016207653075065116,0.014190175284564168,-0.01191824730596476,0.007691670833553262,15.128840753697158,-17.411333837060113,9.208229021361005,16.036555020574564,3.4823987041923137,0.04015170414794156,1.5428417911940362
0.152,pd_gc,0.3398342334947985,29.801271513256765,0.005148196029297498,-0.7038493870468149,0.00424104328737409,-2.2025331948969895,0.0021819063458135834,1.5981601165259347,0.8011911198131659,0.03355130006796998,-0.025161113930275585,0.028152685706687695,-0.01620226650850165,0.01418605998990087,-0.011915355620616271,0.007690170108622608,15.12363253858198,-17.40575108180363,9.203350218398134,16.038309040633457,3.4815586543434125,0.04072377991741938,1.5425403423726305
0.154,pd_gc,0.33972209439861245,29.794695071666304,0.005215275525089704,-0.7038996919598114,0.004297326912080766,-2.202565588660454,0.0022102702375916333,1.5981362915966626,0.8012064971525188,0.03353974789610279,-0.025152456498267545,0.028141812353338125,-0.016196881732349226,0.01418194588902493,-0.01191246463607293,0.007688669676454636,15.118426116704622,-17.400170214308062,9.198473203138006,16.040062450185516,3.4807188457925373,0.0412957109460379,1.542238952474344
0.156,pd_gc,0.3396099939600417,29.788122338561248,0.0052823319244964875,-0.703949979563896,0.004353588798483333,-2.202597971657946,0.002238625903554816,1.5981124724479583,0.8012218714915927,0.03352819970339184,-0.02514380204233861,0.028130943201283485,-0.01619149874600021,0.0141778329815914,-0.011909574352162451,0.007687169536992751,15.113221487447385,-17.394591233970623,9.193597974975365,16.0418152494477,3.4798792784739074,0.041867497271936394,1.5419376214876024
0.158,pd_gc,0.33949793216545315,29.781553312637428,0.00534936523547342,-0.704000249865019,0.004409828954981137,-2.202630343893044,0.0022669733460893267,1.598088659078421,0.8012372428309731,0.03351665548846651,-0.025135150561478387,0.02812007824890202,-0.01618611754885223,0.014173721267255187,-0.011906684768715398,0.007685669690178342,15.108018650192797,-17.389014140188685,9.188724533305098,16.04356743863685,3.479039952321761,0.042439138933245246,1.5416363494008347
0.16,pd_gc,0.33938590900121846,29.774987992590795,0.005416375465973333,-0.7040505028691283,0.004466047389970281,-2.2026627053693244,0.0022953125675806685,1.5980648514866498,0.801252611171245,0.03350511524995634,-0.025126502054673257,0.028109217494572018,-0.016180738140304695,0.01416961074567097,-0.011903795885561017,0.0076841701359553205,15.102817604323597,-17.383438932359844,9.183852877522266,16.04531901796977,3.4782008672703517,0.04301063596807886,1.541335136202481
0.162,pd_gc,0.3392739244537142,29.768426377117375,0.005483362623946315,-0.7041007385821701,0.0045222441118436246,-2.2026950560903638,0.002323643570413655,1.5980410496712447,0.8012679765129935,0.03349357898649107,-0.025117856520907797,0.028098360936671937,-0.016175360519757445,0.014165501416493267,-0.011900907702527686,0.007682670874265621,15.097618349222744,-17.37786560988185,9.178983007022108,16.04706998766318,3.47736202325395,0.04358198841455341,1.5410339818809726
0.164,pd_gc,0.33916197850932167,29.76186846491337,0.005550326717339717,-0.7041509570100885,0.004578419128990785,-2.202727396059737,0.002351966356972408,1.5980172536308057,0.8012833388568036,0.033482046696700726,-0.025109213959166363,0.028087508573580496,-0.01616998468661205,0.014161393279376563,-0.011898020219449364,0.007681171905053702,15.092420884273421,-17.3722941721527,9.174114921199992,16.048820347933848,3.476523420206847,0.044153196310774856,1.540732886424754
0.166,pd_gc,0.33905007115442715,29.75531425467493,0.005617267754098148,-0.7042011581588253,0.004634572449798139,-2.2027597252810174,0.002380280929640359,1.5979934633639334,0.8012986982032602,0.033470518379215615,-0.0251005743684333,0.028076660403676734,-0.01616461064027389,0.01415728633397543,-0.01189513343615361,0.007679673228262059,15.087225208859014,-17.366724618570466,9.169248619451453,16.05057009899833,3.475685058063344,0.04472425969483984,1.540431849822259
0.168,pd_gc,0.3389382023754219,29.74876374509836,0.005684185742163481,-0.7042513420343207,0.004690704082648819,-2.2027920437577775,0.0024085872908002474,1.5979696788692286,0.8013140545529478,0.03345899403266641,-0.025091937747690914,0.02806581642534016,-0.016159238380145408,0.014153180579944262,-0.011892247352471316,0.0076781748438330445,15.08203132236313,-17.36115694853342,9.16438410117221,16.05231924107323,3.4748469367577597,0.04529517860481613,1.5401308720619293
0.17,pd_gc,0.33882637215870165,29.742216934880062,0.00575108068947485,-0.7043015086425125,0.00474681403592272,-2.2028243514935886,0.0024368854428341224,1.597945900145292,0.8013294079064512,0.03344747365568417,-0.025083304095922226,0.028054976636950703,-0.016153867905630778,0.014149076016937559,-0.011889361968234194,0.007676676751709793,15.076839224169593,-17.355591161440046,9.159521365758117,16.054067774375063,3.474009056224434,0.045865953078787935,1.5398299531322173
0.17200000000000001,pd_gc,0.3387145804906674,29.73567382271641,0.005817952603968651,-0.7043516579893367,0.004802902317996498,-2.2028566484920207,0.002465175388123342,1.5979221271907256,0.8013447582643549,0.03343595724690036,-0.0250746734121104,0.028044141036888792,-0.016148499216135787,0.014144972644609925,-0.011886477283273073,0.0076751789518353,15.071648913662433,-17.350027256688914,9.15466041260518,16.055815699120185,3.473171416397716,0.04643658315481458,1.5395290930215666
0.17400000000000002,pd_gc,0.3386028273577247,29.72913440730394,0.005884801493578545,-0.7044017900807272,0.004858968937243568,-2.202888934756643,0.002493457129048574,1.5978983600041308,0.8013601056272432,0.03342444480494685,-0.02506604569523851,0.02803330962353538,-0.016143132311066885,0.014140870462615975,-0.011883593297416605,0.007673681444152461,15.066460390225906,-17.344465233678804,9.149801241109564,16.057563015525,3.472334017211972,0.04700706887095141,1.5392282917184286
0.176,pd_gc,0.33849111274628413,29.72259868733922,0.005951627366235456,-0.7044519049226158,0.0049150139020341125,-2.2029212102910227,0.002521730667989795,1.5978745985841099,0.8013754499957004,0.03341293632845593,-0.02505742094428973,0.028022482395271987,-0.01613776718982966,0.01413676947061035,-0.011880710010499798,0.007672184228604944,15.061273653244461,-17.338905091808623,9.144943850667607,16.0593097238058,3.471496858601584,0.04757741026522977,1.5389275492112553
0.178,pd_gc,0.3383794366427611,29.71606666151888,0.006018430229867577,-0.7045020025209323,0.004971037220735074,-2.2029534750987265,0.0025499960073262903,1.597850842929265,0.8013907913703107,0.03340143181606037,-0.025048799158247117,0.028011659350480684,-0.016132403851830922,0.014132669668247826,-0.011877827422350445,0.0076706873051354384,15.056088702102782,-17.333346830477446,9.140088240675782,16.061055824178787,3.4706599405009504,0.04814760737570234,1.5386268654884998
0.18,pd_gc,0.3382677990335759,29.70953832853956,0.006085210092400364,-0.7045520828816045,0.0050270389017101616,-2.2029857291833195,0.0025782531494366566,1.5978270930381995,0.801406129751658,0.033389931266393315,-0.025040180336094144,0.02800084048754413,-0.016127042296476903,0.014128571055183206,-0.0118749455328027,0.00766919067368743,15.050905536185748,-17.327790449084468,9.135234410530733,16.062801316860046,3.469823262844484,0.04871766024037383,1.5383262405386198
0.182,pd_gc,0.3381561999051536,29.703013687098085,0.006151966961756541,-0.7046021460105582,0.005083018953319853,-2.203017972548366,0.0026065020966987993,1.597803348909516,0.8014214651403264,0.03337843467808843,-0.0250315644768149,0.027990025804845556,-0.016121682523174356,0.01412447363107139,-0.011872064341685444,0.007667694334203433,15.045724154878465,-17.322235947029125,9.130382359629237,16.064546202065706,3.4689868255666134,0.04928756889727426,1.5380256743500709
0.184,pd_gc,0.33804463924392414,29.69649273589123,0.0062187008458561,-0.704652191913717,0.005138977383921391,-2.2030502051974286,0.002634742851489934,1.5977796105418183,0.8014367975368997,0.0333669420497798,-0.025022951579393413,0.0279792153007688,-0.016116324531330734,0.014120377395567409,-0.011869183848830402,0.007666198286625903,15.040544557566239,-17.31668332371091,9.125532087368251,16.066290480011695,3.468150628601783,0.049857333384385694,1.5377251669113183
0.186,pd_gc,0.33793311703632245,29.68997547361586,0.006285411752616304,-0.7047022205970026,0.0051949142018687874,-2.203082427134069,0.0026629754161865866,1.5977558779337102,0.8014521269419614,0.033355453380101985,-0.025014341642813857,0.02796840897369831,-0.01611096832035351,0.014116282348326358,-0.011866304054069025,0.0076647025308990285,15.035366743634595,-17.311132578529495,9.120683593144891,16.068034150913924,3.4673146718844503,0.050426953739699965,1.5374247182108272
0.188,pd_gc,0.337821633268788,29.68346189896895,0.006352099689951683,-0.7047522320663347,0.005250829415512826,-2.2031146383618485,0.0026911997931645935,1.5977321510837958,0.8014674533560954,0.03334396866769,-0.02500573466606074,0.027957606822019147,-0.016105613889649383,0.014112188489003377,-0.011863424957232796,0.007663207066965149,15.03019071246927,-17.305583710884754,9.115836876356392,16.06977721498826,3.4664789553490882,0.05099643000120491,1.5371243282370597
0.19,pd_gc,0.33771018792776525,29.676952010647476,0.006418764665774042,-0.704802226327631,0.005306723033201059,-2.203146838884326,0.002719415984799101,1.5977084299906796,0.8014827767798849,0.03333248791117933,-0.024997130648119724,0.027946808844116943,-0.016100261238627678,0.014108095817253814,-0.011860546558154095,0.0076617118947674544,15.025016463456206,-17.300036720176657,9.110991936400172,16.071519672450435,3.4656434789301884,0.05156576220685993,1.5368239969784865
0.192,pd_gc,0.3375987809997036,29.67044580734852,0.006485406687992454,-0.704852203386807,0.005362595063277816,-2.203179028705059,0.002747623993464567,1.5976847146529662,0.8014980972139134,0.03332101110920591,-0.024988529587976007,0.027936015038377986,-0.016094910366695876,0.014104004332732989,-0.011857668856662262,0.007660217014250015,15.019843995981567,-17.294491605805348,9.106148772673812,16.07326152351616,3.4648082425622517,0.05213495039463156,1.5365237244235785
0.194,pd_gc,0.33748741247105724,29.663943287769207,0.0065520257645132664,-0.7049021632497762,0.005418445514084194,-2.203211207827606,0.0027758238215347597,1.597661005069261,0.8015134146587641,0.03330953826040616,-0.024979931484615126,0.027925225403189164,-0.01608956127326261,0.014099914035096422,-0.011854791852591182,0.007658722425355044,15.01467330943172,-17.28894836717113,9.101307384575012,16.075002768401053,3.463973246179803,0.05270399460246855,1.5362235105608033
0.196,pd_gc,0.33737608232828514,29.657444450606732,0.006618621903240101,-0.7049521059224502,0.00547427439395807,-2.2032433762555215,0.0028040154713827588,1.5976373012381695,0.8015287291150202,0.033298069363416984,-0.024971336337023232,0.02791443993693798,-0.016084213957736355,0.014095824923999644,-0.011851915545771405,0.007657228128025672,15.009504403193253,-17.283407003674466,9.096467771501665,16.076743407320627,3.4631384897173723,0.05327289486830944,1.5359233553786409
0.198,pd_gc,0.3372647905578511,29.65094929455833,0.0066851951120738525,-0.7050020314107386,0.005530081711234095,-2.2032755339923606,0.0028321989453809556,1.5976136031582975,0.8015440405832646,0.033286604416875705,-0.024962744144186422,0.02790365863801258,-0.016078868419524963,0.0140917369990983,-0.011849039936033628,0.007655734122205024,15.004337276652954,-17.27786751471592,9.091629932851797,16.07848344049038,3.4623039731095107,0.05384165123007678,1.5356232588655696
0.2,pd_gc,0.3371535371462239,29.644457818321275,0.006751745398912693,-0.7050519397205488,0.005585867474243699,-2.2033076810416765,0.002860374245901052,1.597589910828251,0.8015593490640802,0.03327514341942016,-0.02495415490509163,0.027892881504801695,-0.01607352465803804,0.01408765026004821,-0.011846165023211362,0.007654240407836208,14.999171929197834,-17.27232989969624,9.086793868023602,16.080222868125627,3.4614696962907834,0.0544102637256767,1.5353232210100676
0.202,pd_gc,0.337042322079877,29.637970020592988,0.00681827277165207,-0.7051018308577862,0.005641631691315088,-2.203339817407022,0.0028885413753140625,1.5975662242466366,0.80157465455805,0.03326368636968863,-0.024945568618725714,0.02788210853569469,-0.016068182672685092,0.01408356470650523,-0.01184329080713323,0.00765274698486326,14.994008360215103,-17.266794158016367,9.081959576415407,16.08196169044174,3.4606356591957703,0.05497873239304418,1.535023241800618
0.20400000000000001,pd_gc,0.33693114534528873,29.631485900070864,0.00688477723818471,-0.7051517048283543,0.005697374370773251,-2.2033719430919474,0.002916700335990313,1.5975425434120614,0.8015899570657564,0.03325223326631988,-0.024936985284076327,0.027871339729081547,-0.016062842462875104,0.0140794803381253,-0.011840417287634639,0.007651253853228402,14.988846569092194,-17.26126028907733,9.077127057425727,16.083699907653916,3.4598018617590665,0.05554705727003917,1.5347233212257
0.20600000000000002,pd_gc,0.33682000692894226,29.62500545545246,0.006951258806400616,-0.7052015616381546,0.005753095520939958,-2.2034040581000034,0.0029448511302994423,1.5975188683231323,0.8016052565877821,0.03324078410795313,-0.02492840490013098,0.0278605750833529,-0.01605750402801722,0.01407539715456448,-0.011837544464544426,0.007649761012875724,14.983686555216748,-17.255728292280367,9.072296310453208,16.08543751997739,3.458968303915285,0.05611523839456867,1.534423459273807
0.20800000000000002,pd_gc,0.33670890681732557,29.618528685435255,0.007017717484187072,-0.7052514012930864,0.005808795150133757,-2.2034361624347385,0.0029729937606104003,1.597495198978457,0.8016205531247096,0.033229338893228086,-0.024919827465877894,0.027849814596899957,-0.016052167367521398,0.014071315155478941,-0.011834672337696238,0.007648268463747523,14.978528317976608,-17.2501981670268,9.067467334896648,16.08717452762718,3.458134985599048,0.05668327580449617,1.534123655933423
0.21,pd_gc,0.33659784499693146,29.612055588716913,0.007084153279428642,-0.705301223799047,0.005864473266669987,-2.2034682560997,0.0030011282292914505,1.597471535376643,0.8016358466771212,0.03321789762078492,-0.02491125298030544,0.027839058268114572,-0.016046832480797624,0.014067234340524952,-0.011831800906922242,0.007646776205787064,14.973371856759844,-17.244669912718173,9.062640130155023,16.08891093081834,3.4573019067449975,0.057251169537690494,1.5338239111930432
0.212,pd_gc,0.3364868214542576,29.605586163995085,0.00715056620000717,-0.7053510291619318,0.005920129878860765,-2.2035003390984347,0.0030292545387101684,1.597447877516299,0.801651137245599,0.03320646028926426,-0.024902681442402312,0.02782830609538922,-0.01604149936725627,0.014063154709358866,-0.011828930172051322,0.007645284238937663,14.968217170954722,-17.23914352875612,9.057814695627439,16.09064672976578,3.4564690672877894,0.057818919632013355,1.5335242250411587
0.214,pd_gc,0.33637583617580646,29.599120409967526,0.007216956253801784,-0.7054008173876342,0.005975764995014999,-2.2035324114344874,0.0030573726912334425,1.5974242253960331,0.8016664248307253,0.03319502689730722,-0.024894112851157654,0.027817558077117003,-0.016036168026307408,0.014059076261637155,-0.011826060132919269,0.0076437925631426895,14.963064259949729,-17.233619014542494,9.052991030713176,16.092381924684375,3.455636467162095,0.05838652612528161,1.5332245974662682
0.216,pd_gc,0.3362648891480854,29.592658325332035,0.0072833234486888955,-0.7054505884820453,0.006031378623438382,-2.203564473111402,0.003085482689227475,1.5974005790144543,0.8016817094330819,0.033183597443555375,-0.024885547205561225,0.02780681421169162,-0.016030838457362008,0.014054998997016357,-0.011823190789355259,0.007642301178346488,14.957913123133558,-17.22809636947924,9.048169134811655,16.094116515788926,3.4548041063026007,0.05895398905535831,1.5329250284568672
0.218,pd_gc,0.33615398035760646,29.586199908786472,0.007349667792542197,-0.7055003424510545,0.006086970772433397,-2.203596524132722,0.0031135845350577815,1.597376938370172,0.8016969910532509,0.03317217192665078,-0.02487698450460208,0.02779607449750743,-0.016025510659829607,0.01405092291515312,-0.011820322141192292,0.00764081008448988,14.952763759895113,-17.222575592968482,9.043349007322455,16.09585050329416,3.4539719846440065,0.05952130846004566,1.532625518001452
0.22,pd_gc,0.3360431097908867,29.579745159028793,0.007415989293232669,-0.705550079300549,0.006142541450299316,-2.203628564501988,0.00314167823108919,1.5973533034617955,0.8017122696918139,0.03316075034523594,-0.024868424747270947,0.02778533893295938,-0.016020184633121944,0.014046848015704232,-0.011817454188261595,0.007639319281518293,14.947616169623513,-17.21705668441254,9.038530647645324,16.097583887414693,3.4531401021210324,0.06008848437716052,1.5323260660885356
0.222,pd_gc,0.33593227743444765,29.573294074756905,0.0074822879586285765,-0.7055997990364141,0.0061980906653322015,-2.2036605942227414,0.003169763779685843,1.5973296742879346,0.8017275453493526,0.03314933269795386,-0.02485986793255813,0.02777460751644304,-0.016014860376649714,0.014042774298326531,-0.01181458693039652,0.007637828769374528,14.942470351708083,-17.211539643213772,9.033714055180152,16.09931666836504,3.452308458668403,0.06065551684449,1.532026672706614
0.224,pd_gc,0.3358214832748159,29.566846654668947,0.007548563796595472,-0.705649501664533,0.006253618425824911,-2.203692613298521,0.0031978411832111974,1.5973060508471997,0.8017428180264486,0.03313791898344798,-0.02485131405945476,0.027763880246354615,-0.01600953788982559,0.014038701762677032,-0.011811720367428658,0.007636338548001491,14.937326305538361,-17.206024468774807,9.028899229326969,16.101048846359816,3.451477054220872,0.061222405899842514,1.5317273378441951
0.226,pd_gc,0.3357107272985231,29.560402897462982,0.007614816814996196,-0.705699187190787,0.006309124740067093,-2.203724621732865,0.003225910444028023,1.5972824331382014,0.8017580877236833,0.033126509200362225,-0.024842763126951568,0.02775315712109093,-0.016004217172059364,0.014034630408412695,-0.01180885449919061,0.007634848617342227,14.932184030504093,-17.200511160498355,9.024086169485996,16.10278042161336,3.4506458887131988,0.06178915158099141,1.531428061489792
0.228,pd_gc,0.33560000949210517,29.55396280183716,0.007681047021690878,-0.705748855621055,0.006364609616345192,-2.2037566195293103,0.0032539715644984042,1.5972588211595504,0.801773354441638,0.03311510334734099,-0.024834215134040046,0.027742438139049433,-0.015998898222762854,0.014030560235190717,-0.01180598932551487,0.007633358977339908,14.927043525995234,-17.194999717787283,9.019274875057588,16.10451139434,3.4498149620801577,0.06235575392569981,1.5311288436319177
0.23,pd_gc,0.3354893298421031,29.547526366489723,0.007747254424536936,-0.7057985069612145,0.006420073062942448,-2.203788606691393,0.003282024546983741,1.5972352149098579,0.8017886181808939,0.033103701423029146,-0.02482567007971227,0.027731723298628164,-0.01599358104134889,0.01402649124266839,-0.011803124846232502,0.007631869627938722,14.921904791401957,-17.18949014004465,9.014465345442257,16.106241764754003,3.448984274256544,0.06292221297174194,1.5308296842590845
0.232,pd_gc,0.33537868833506274,29.54109359011899,0.00781343903138908,-0.7058481412171405,0.0064755150881389,-2.2038205832226474,0.003310069393844747,1.5972116143877355,0.801803878942032,0.03309230342607201,-0.024817127962960317,0.02772101259822582,-0.015988265627228892,0.014022423430503018,-0.011800261061175373,0.007630380569082105,14.916767826114636,-17.18398242667363,9.009657580040662,16.10797153306961,3.4481538251771635,0.06348852875684274,1.5305305833598082
0.234,pd_gc,0.3352680849575347,29.534664471423334,0.007879600850099311,-0.705897758394706,0.0065309357002113835,-2.203852549126607,0.003338106107441451,1.5971880195917951,0.8018191367256334,0.03308090935511539,-0.02480858878277677,0.027710306036241687,-0.015982951979815207,0.014018356798352082,-0.011797397970177231,0.007628891800712734,14.911632629523865,-17.1784765770776,9.004851578253625,16.10970069950093,3.4473236147768387,0.0640547013187498,1.5302315409226064
0.23600000000000002,pd_gc,0.3351575196960744,29.52823900910113,0.007945739888516922,-0.7059473584997823,0.006586334907433535,-2.2038845044068043,0.0033661346901331973,1.597164430520649,0.801834391532279,0.03306951920880554,-0.024800052538154514,0.02769960361107569,-0.015977640098520277,0.01401429134587313,-0.011794535573070655,0.007627403322773454,14.906499201020441,-17.17297259066001,9.000047339482135,16.111429264261993,3.446493642990408,0.06462073069519514,1.5299325569360012
0.23800000000000002,pd_gc,0.335046992537242,29.52181720185087,0.0080118561544885,-0.7059969415382384,0.006641712718075792,-2.20391644906677,0.003394155144278645,1.5971408471729096,0.8018496433625494,0.03305813298578921,-0.02479151922808692,0.027688905321128374,-0.015972329982756894,0.014010227072723811,-0.011791673869685397,0.0076259151352090935,14.901367539995368,-17.167470466824522,8.995244863127326,16.113157227566738,3.445663909752722,0.06518661692388816,1.5296336313885195
0.24,pd_gc,0.33493650346760256,29.515399048371126,0.008077949655857926,-0.7060465075159416,0.006697069140405394,-2.203948383110034,0.0034221674722357685,1.5971172695471898,0.8018648922170253,0.033046750684713605,-0.024782988851567562,0.02767821116480089,-0.01596702163193758,0.014006163978561876,-0.011788812859856805,0.007624427237961926,14.896237645839873,-17.161970204974953,8.99044414859047,16.114884589629135,3.4448344149986507,0.06575236004253204,1.529334764268681
0.242,pd_gc,0.334826052473726,29.508984547360456,0.008144020400466379,-0.7060960564387567,0.006752404182686384,-2.203980306540125,0.003450171676361859,1.597093697642103,0.8018801380962872,0.03303537230422638,-0.024774461407590393,0.02766752114049501,-0.015961715045476364,0.014002102063045222,-0.011785952543417098,0.0076229396309753315,14.891109517945377,-17.156471804515213,8.985645195273017,16.116611350662936,3.444005158663075,0.06631796008882906,1.529035955565018
0.244,pd_gc,0.33471563954218664,29.502573697517565,0.00821006839615233,-0.706145588312547,0.006807717853179611,-2.2040122193605707,0.0034781677590135225,1.5970701314562628,0.8018953810009156,0.033023997842975696,-0.02476593689514921,0.027656835246613134,-0.015956410222785357,0.01399804132583173,-0.011783092920197939,0.007621452314193785,14.88598315570352,-17.150975264849436,8.980848002576565,16.118337510881933,3.443176140680894,0.06688341710046464,1.5287372052660604
0.246,pd_gc,0.33460526465956414,29.49616649754112,0.008276093650751552,-0.7061951031431735,0.006863010160142727,-2.2040441215748974,0.0035061557225466813,1.5970465709882826,0.8019106209314908,0.03301262729961015,-0.024757415313238863,0.02764615348155828,-0.01595110716327841,0.013993981766579492,-0.011780233990031263,0.007619965287559251,14.880858558506157,-17.145480585381822,8.976052569902889,16.120063070499743,3.442347360987018,0.06744873111510197,1.5284385133603355
0.248,pd_gc,0.33449492781244256,29.489762946129982,0.00834209617209711,-0.7062446009364952,0.006918281111830195,-2.20407601318663,0.0035341355693165747,1.5970230162367771,0.8019258578885928,0.03300126067277881,-0.024748896660854683,0.027635475843734058,-0.015945805866369917,0.013989923384946673,-0.011777375752749585,0.00761847855101572,14.875735725745335,-17.13998776551686,8.971258896653861,16.121788029730016,3.4415188195163777,0.06801390217041625,1.5281398798363843
0.25,pd_gc,0.33438462898741084,29.483363041982976,0.008408075968019372,-0.7062940816983692,0.006973530716493285,-2.2041078941992933,0.0035621073016777575,1.5969994672003607,0.8019410918728018,0.03298989796113123,-0.024740380936991505,0.027624802331544736,-0.01594050633147319,0.013985866180591493,-0.01177451820818796,0.007616992104507393,14.870614656813329,-17.134496804659044,8.966466982231566,16.12351238878627,3.4406905162039174,0.06857893030405249,1.5278413046827433
0.252,pd_gc,0.334274368171063,29.476966783799,0.008474033046346008,-0.7063435454346505,0.007028758982380075,-2.2041397646164094,0.0035900709219841022,1.5969759238776484,0.8019563228846978,0.032978539163317395,-0.024731868140644996,0.027614132943395188,-0.015935208558001693,0.013981810153172276,-0.01177166135617722,0.007615505947976904,14.865495351102615,-17.129007702213116,8.961676826038223,16.12523614788192,3.4398624509845925,0.069143815553665,1.5275427878879477
0.254,pd_gc,0.3341641453499974,29.470574170277033,0.008539967414901983,-0.7063929921511921,0.007083965917735457,-2.2041716244415,0.003618026432588797,1.5969523862672552,0.8019715509248605,0.032967184277987796,-0.024723358270811353,0.02760346767769088,-0.01592991254537059,0.013977755302347536,-0.011768805196550264,0.007614020081368024,14.860377808005877,-17.123520457583915,8.9568884274762,16.126959307230358,3.439034623793377,0.06970855795686948,1.5272443294405422
0.256,pd_gc,0.3340539605108175,29.464185200116127,0.00860587908150957,-0.7064424218538451,0.007139151530801133,-2.204203473678086,0.003645973835844349,1.5969288543677969,0.8019867759938697,0.03295583330379337,-0.0247148513264868,0.02759280653283792,-0.015924618292993693,0.013973701627775765,-0.011765949729139396,0.007612534504623872,14.855262026916012,-17.118035070176493,8.952101785948026,16.12868186704488,3.4382070345652607,0.07027315755130426,1.526945929329069
0.258,pd_gc,0.33394381364013126,29.45779987201538,0.008671768053988341,-0.7064918345484584,0.007194315829815619,-2.2042353123296863,0.00367391313410258,1.5969053281778893,0.8020019980923051,0.03294448623938555,-0.024706347306667653,0.02758214950724302,-0.015919325800285503,0.013969649129115622,-0.011763094953777599,0.00761104921768783,14.850148007226128,-17.11255153939598,8.947316900856391,16.130403827538736,3.4373796832352466,0.07083761437457081,1.5266475875420775
0.26,pd_gc,0.33383370472455176,29.451418184673948,0.008737634340155174,-0.7065412302408791,0.007249458823014246,-2.2042671403998195,0.003701844329714632,1.5968818076961486,0.8020172172207461,0.03293314308341617,-0.024697846210351305,0.027571496599313516,-0.015914035066660677,0.013965597806025848,-0.011760240870298711,0.0076095642205035305,14.845035748329536,-17.107069864647723,8.942533771604136,16.132125188925038,3.436552569738354,0.07140192846426263,1.5263493040681133
0.262,pd_gc,0.33372363375069664,29.445040136791064,0.00880347794782425,-0.7065906089369521,0.00730458051862916,-2.2042989578920027,0.003729767425030963,1.5968582929211916,0.8020324333797721,0.03292180383453759,-0.024689348036535174,0.02756084780745736,-0.015908746091534885,0.013961547658165313,-0.011757387478535533,0.007608079513015777,14.83992524961976,-17.101590045337193,8.937752397594252,16.133845951416895,3.435725694009615,0.07196609985798785,1.5260510788957284
0.264,pd_gc,0.33361360070518836,29.438665727066045,0.008869298884807055,-0.7066399706425206,0.007359680924889326,-2.204330764809751,0.0037576824224013487,1.596834783851635,0.8020476465699625,0.032910468491402625,-0.024680852784216556,0.027550203130083124,-0.015903458874322624,0.013957498685192932,-0.011754534778320393,0.00760659509516606,14.834816510490535,-17.096112080870014,8.932972778229898,16.13556611522734,3.43489905598408,0.07253012859331243,1.525752912013472
0.266,pd_gc,0.3335036055746542,29.432294954198174,0.008935097158912384,-0.7066893153634254,0.007414760050020526,-2.20436256115658,0.003785589324174884,1.596811280486096,0.8020628567918964,0.032899137052664534,-0.024672360452394213,0.027539562565599963,-0.01589817341444112,0.013953450886767823,-0.011751682769485986,0.007605110966898864,14.8297095303358,-17.090635970651945,8.92819491291436,16.137285680569228,3.434072655596813,0.07309401470781651,1.5254548034099051
0.268,pd_gc,0.33339364834572616,29.425927816886922,0.00900087277794634,-0.7067386431055055,0.007469817902245362,-2.204394346936003,0.0038134881326999824,1.5967877828231924,0.8020780640461527,0.03288780951697706,-0.024663871040065625,0.027528926112417706,-0.015892889711303957,0.01394940426254901,-0.011748831451865092,0.007603627128157175,14.824604308549706,-17.085161714088933,8.923418801051119,16.139004647655486,3.4332464927828927,0.07365775823904608,1.525156753073582
0.27,pd_gc,0.3332837290050411,29.419564313831728,0.009066625749712329,-0.7067879538745979,0.007524854489783256,-2.2044261221515313,0.0038413788503243737,1.5967642908615418,0.8020932683333104,0.032876485882994425,-0.024655384546229658,0.027518293768946763,-0.01588760776432742,0.013945358812195791,-0.011745980825292532,0.00760214357888608,14.819500844526615,-17.07968931058705,8.918644442043789,16.140723016698843,3.432420567477413,0.07422135922455242,1.5248587609930668
0.272,pd_gc,0.3331738475392406,29.41320444373212,0.009132356082011071,-0.7068372476765377,0.007579869820850452,-2.204457886806677,0.003869261479395109,1.5967408045997626,0.8021084696539484,0.03286516614937126,-0.024646900969885702,0.02750766553359816,-0.015882327572927544,0.013941314535367498,-0.011743130889599322,0.007600660319027381,14.814399137661091,-17.074218759552533,8.913871835296126,16.142440787911994,3.4315948796154836,0.07478481770188683,1.5245608271569147
0.274,pd_gc,0.33306400393497093,29.406848205287734,0.009198063782640596,-0.7068865245171577,0.00763486390366002,-2.20448964090495,0.003897136022258556,1.5967173240364734,0.8021236680086455,0.03285385031476274,-0.02463842031003295,0.02749704140478352,-0.015877049136521403,0.013937271431723613,-0.011740281644618869,0.007599177348525013,14.809299187347918,-17.068750060391775,8.909100980212077,16.144157961507624,3.4307694291322277,0.07534813370856241,1.5242629515536958
0.276,pd_gc,0.3329541981788833,29.40049559719824,0.009263748859396244,-0.7069357844022891,0.00768983674642185,-2.2045213844498592,0.003925002481260403,1.5966938491702931,0.8021388633979802,0.03284253837782443,-0.024629942565671067,0.02748642138091514,-0.015871772454523432,0.013933229500923563,-0.011737433090186343,0.007597694667323235,14.804200992982075,-17.063283212511326,8.904331876195718,16.14587453769829,3.429944215962788,0.07591130728209983,1.5239651341719749
0.278,pd_gc,0.3328444302576335,29.39414661816333,0.009329411320070669,-0.7069850273377607,0.007744788357342661,-2.204553117444912,0.003952860858745658,1.5966703799998407,0.802154055822531,0.03283123033721242,-0.024621467735800578,0.027475805460405855,-0.01586649752635239,0.013929188742627113,-0.011734585226132053,0.007596212275364852,14.79910455395876,-17.05781821531786,8.899564522651277,16.14759051669645,3.429119240042316,0.07647433846001084,1.5236673750003193
0.28,pd_gc,0.3327347001578822,29.38780126688281,0.009395051172453836,-0.7070342533293995,0.0077997187446259995,-2.2045848398936148,0.003980711157058645,1.5966469165237362,0.8021692452828761,0.032819926191583235,-0.024612995819421273,0.027465193641669168,-0.015861224351423772,0.013925149156493922,-0.01173173805229146,0.007594730172593926,14.794009869673374,-17.052355068218226,8.894798918983156,16.14930589871453,3.4282945013059827,0.07703722727978546,1.5233696740273048
0.28200000000000003,pd_gc,0.33262500786629495,29.381459542056486,0.009460668424333024,-0.7070834623830305,0.007854627916472238,-2.204616551799473,0.004008553378543013,1.5966234587405992,0.8021844317795941,0.03280862593959385,-0.02460452681553418,0.02745458592311919,-0.01585595292915451,0.013921110742183815,-0.011728891568496002,0.007593248358953979,14.788916939521528,-17.046893770619405,8.890035064595912,16.151020683964816,3.4274699996889697,0.07759997377890615,1.5230720312415018
0.28400000000000003,pd_gc,0.33251535336954174,29.375121442384337,0.009526263083492827,-0.7071326545044768,0.007909515881078579,-2.204648253165991,0.004036387525541726,1.59660000664905,0.8021996153132629,0.032797329579901766,-0.02459606072314019,0.027443982303170612,-0.015850683258961874,0.013917073499356761,-0.01172604577458145,0.007591766834388882,14.783825762899045,-17.041434321928577,8.885272958894237,16.152734872659643,3.4266457351264816,0.07816257799485582,1.5227744466314859
0.28600000000000003,pd_gc,0.3324057366542977,29.36878696656631,0.009591835157715157,-0.7071818296995593,0.007964382646639056,-2.2046799439966716,0.004064213600397072,1.5965765602477093,0.8022147958844605,0.032786037111164845,-0.024587597541241395,0.02743338278023878,-0.015845415340263683,0.013913037427672786,-0.011723200670379838,0.007590285598841999,14.778736339201949,-17.035976721553027,8.88051260128299,16.154448465011182,3.4258217075537307,0.07872503996510272,1.5224769201858348
0.28800000000000003,pd_gc,0.33229615770724225,29.362456113302436,0.00965738465477924,-0.707230987974097,0.008019228221344534,-2.2047116242950167,0.004092031605450656,1.5965531195351979,0.802229973493765,0.03277474853204152,-0.02457913726883895,0.027422787352739626,-0.015840149172477176,0.013909002526792008,-0.011720356255722831,0.007588804652257089,14.77364866782648,-17.030520968900195,8.875753991167196,16.15616146123152,3.424997916905948,0.07928735972709067,1.5221794518931315
0.29,pd_gc,0.33218661651506015,29.356128881292822,0.009722911582461621,-0.7072801293339068,0.008074052613382714,-2.2047432940645266,0.004119841543043405,1.5965296845101369,0.8022451481417542,0.03276346384119063,-0.024570679904934743,0.027412196019089712,-0.01583488475501946,0.013904968796374647,-0.011717512530446764,0.007587323994577387,14.76856274816908,-17.025067063377705,8.870997127952007,16.157873861532718,3.424174363118377,0.07984953731825728,1.521882041741957
0.292,pd_gc,0.3320771130644405,29.349805269237628,0.009788415948536165,-0.7073292537848039,0.008128855830938126,-2.2047749533087013,0.004147643415515568,1.5965062551711482,0.8022603198290057,0.032752183037271496,-0.024562225448531944,0.027401608777706202,-0.015829622087309543,0.013900936236081057,-0.01171466949438394,0.007585843625747436,14.763478579626403,-17.019615004393316,8.866242011042768,16.15958566612672,3.4233510461262795,0.08041157277605793,1.5215846897208964
0.294,pd_gc,0.33196764734207723,29.343485275837118,0.009853897760774052,-0.7073783613326012,0.00818363788219214,-2.204806602031039,0.004175437225206711,1.5964828315168536,0.8022754885560971,0.032740906118943876,-0.024553773898632864,0.02739102562700687,-0.01582436116876491,0.013896904845571642,-0.011711827147368261,0.007584363545709492,14.758396161595307,-17.01416479135495,8.861488639844955,16.161296875225474,3.4225279658649295,0.08097346613790446,1.521287395818535
0.296,pd_gc,0.3318582193346691,29.33716889979149,0.009919357026943788,-0.7074274519831097,0.00823839877532296,-2.2048382402350364,0.004203222974455725,1.5964594135458752,0.8022906543236059,0.03272963308486803,-0.02454532525424101,0.027380446565410103,-0.01581910199880495,0.013892874624506965,-0.011708985489231388,0.007582883754408946,14.753315493472861,-17.008716423670617,8.85673701376419,16.16300748904071,3.4217051222696173,0.08153521744120162,1.520990160023468
0.298,pd_gc,0.3317488290289194,29.33085613980121,0.009984793754811197,-0.7074765257421385,0.00829313851850563,-2.2048698679241903,0.00423100066560082,1.5964360012568355,0.8023058171321095,0.03271836393370465,-0.024536879514359386,0.02736987159133493,-0.015813844576846512,0.013888845572547564,-0.011706144519810165,0.0075814042517879906,14.748236574656344,-17.00326990074859,8.851987132206293,16.164717507784278,3.4208825152756495,0.08209682672335772,1.5206929823242799
0.3,pd_gc,0.3316394764115365,29.324546994566653,0.010050207952139427,-0.7075255826154945,0.008347857119912032,-2.204901485101995,0.004258770300979528,1.5964125946483576,0.8023209769821851,0.03270709866411491,-0.024528436677992125,0.027359300703200955,-0.015808588902308726,0.013884817689354208,-0.011703304238935773,0.0075799250377910875,14.743159404543238,-16.99782522199723,8.847238994577193,16.166426931667804,3.420060144818346,0.08265829402178415,1.5203958627095715
0.302,pd_gc,0.33153016146923336,29.318241462788258,0.010115599626688947,-0.7075746226089827,0.008402554587710888,-2.2049330917719443,0.004286531882928704,1.5963891937190646,0.8023361338744098,0.032695837274760456,-0.0245199967441431,0.0273487338994284,-0.015803334974610728,0.013880790974587734,-0.011700464646442527,0.00757844611236222,14.738083982531238,-16.992382386825028,8.842492600282984,16.16813576090285,3.419238010833041,0.0832196193738266,1.5200988011679346
0.304,pd_gc,0.3314208841887277,29.31193954316662,0.010180968786217553,-0.7076236457284064,0.008457230930067764,-2.204964687937531,0.004314285413784522,1.5963657984675803,0.8023512878093607,0.03268457976430337,-0.024511559711817277,0.027338171178438092,-0.015798082793172595,0.013876765427909082,-0.011697625742164345,0.007576967475444032,14.733010308018239,-16.986941394640695,8.837747948729945,16.16984399570098,3.4184161132550868,0.08378080281688227,1.5198017976879676
0.306,pd_gc,0.331311644556742,29.305641234402287,0.010246315438480365,-0.7076726519795664,0.008511886155145067,-2.2049962736022457,0.00434203089588248,1.5963424088925284,0.8023664387876147,0.03267332613140619,-0.024503125580019335,0.027327612538651503,-0.015792832357412807,0.013872741048979214,-0.011694787525933779,0.007575489126981449,14.72793838040235,-16.981502244853004,8.833005039324485,16.171551636273605,3.4175944520198467,0.08434184438829773,1.5195048522582768
0.308,pd_gc,0.33120244256000336,29.299346535195987,0.01031163959122983,-0.7077216413682619,0.008566520271102048,-2.2050278487695794,0.004369768331557399,1.5963190249925332,0.8023815868097486,0.03266207637473196,-0.024494694347754194,0.027317057978490683,-0.015787583666750336,0.01386871783745924,-0.0116919499975864,0.007574011066918039,14.722868199081885,-16.97606493687098,8.828263871473167,16.173258682832156,3.4167730270627037,0.08490274412541998,1.5192079648674583
0.31,pd_gc,0.3310932781852438,29.29305544424843,0.010376941252215718,-0.70777061390029,0.008621133286094805,-2.2050594134430206,0.00439749772314342,1.5962956467662193,0.802396731876339,0.03265083049294415,-0.024486266014027543,0.02730650749637831,-0.015782336720605306,0.013864695793010397,-0.011689113156955812,0.007572533295196969,14.717799763455368,-16.970629470103745,8.823524444582713,16.17496513558791,3.4159518383190517,0.08546350206560493,1.5189111355041203
0.312,pd_gc,0.3309841514191999,29.286767960260402,0.01044222042918513,-0.7078195695814457,0.00867572520827628,-2.2050909676260573,0.004425219072974008,1.5962722742122115,0.8024118739879625,0.032639588484706716,-0.02447784057784452,0.02729596109073767,-0.015777091518396236,0.013860674915293967,-0.011686277003875901,0.007571055811761904,14.712733072921525,-16.965195843960565,8.81878675806002,16.176670994752072,3.4151308857243032,0.08602411824617073,1.5186143641568726
0.314,pd_gc,0.3308750622486131,29.280484081932777,0.010507477129882498,-0.707868508417522,0.008730296045796266,-2.2051225113221764,0.004452932383381951,1.596248907329135,0.8024270131451957,0.03262835034868405,-0.02446941803821242,0.027285418759992634,-0.015771848059545596,0.013856655203971458,-0.011683441538179745,0.0075695786165569994,14.707668126879296,-16.959764057850904,8.814050811312113,16.178376260535824,3.414310169213884,0.08658459270444796,1.5183176508143243
0.316,pd_gc,0.33076601066022965,29.27420380796646,0.01057271136204958,-0.7079174304143103,0.008784845806801401,-2.205154044534863,0.00448063765669936,1.5962255461156156,0.8024421493486148,0.03261711608354101,-0.024460998394137543,0.027274880502567725,-0.015766606343473093,0.013852636658704303,-0.011680606759700979,0.007568101709526914,14.702604924727824,-16.954334111184313,8.809316603746174,16.180080933150244,3.413489688723233,0.08714492547773256,1.5180209954650872
0.318,pd_gc,0.3306569966408002,29.267927137062443,0.010637923133425466,-0.7079663355775996,0.008839374499435178,-2.2051855672676024,0.004508334895257668,1.596202190570279,0.802457282598796,0.032605885687942954,-0.02445258164462646,0.027264346316888042,-0.015761366369598424,0.013848619279154088,-0.011677772668274971,0.007566625090614115,14.697543465866461,-16.94890600337054,8.804584134769573,16.18178501280633,3.4126694441878076,0.08770511660331737,1.5177243980977724
0.32,pd_gc,0.3305480201770806,29.261654067921786,0.010703112451746577,-0.708015223913177,0.008893882131837937,-2.205217079523877,0.004536024101387632,1.5961788406917516,0.8024724128963155,0.032594659160555664,-0.024444167788686164,0.027253816201379316,-0.015756128137341556,0.013844603064982518,-0.011674939263735407,0.007565148759763417,14.692483749694762,-16.943479733819494,8.799853403789795,16.18348849971503,3.411849435543079,0.08826516611850277,1.5174278587010028
0.322,pd_gc,0.330439081255831,29.255384599245588,0.010768279324746667,-0.7080640954268276,0.008948368712146873,-2.205248581307169,0.004563705277419335,1.5961554964786597,0.8024875402417494,0.03258343650004537,-0.024435756825324922,0.027243290154467862,-0.01575089164612528,0.01384058801585148,-0.011672106545915502,0.0075636727169174495,14.687425775612496,-16.938055301941212,8.795124410214502,16.18519139408719,3.411029662724534,0.08882507406056295,1.517131377263392
0.324,pd_gc,0.33033017986381646,29.24911872973504,0.010833423760156825,-0.7081129501243347,0.009002834248496034,-2.20528007262096,0.004591378425682181,1.5961321579296304,0.8025026646356734,0.0325722177050788,-0.02442734875354991,0.027232768174580646,-0.015745656895368863,0.013836574131422766,-0.011669274514649301,0.007562196962021201,14.682369543019634,-16.9326327071459,8.790397153451512,16.186893696133623,3.410210125667671,0.08938484046676365,1.5168349537735668
0.326,pd_gc,0.3302213159878069,29.24285645809138,0.01089854576570547,-0.7081617880114794,0.009057278749016325,-2.205311553468729,0.0046190435485048975,1.5961088250432909,0.8025177860786634,0.03256100277432314,-0.024418943572369487,0.02722225026014519,-0.015740423884494304,0.013832561411358461,-0.011666443169772094,0.007560721495017494,14.67731505131635,-16.927211948843883,8.785671632908802,16.18859540606503,3.4093908243080095,0.08994446537435641,1.5165385882201463
0.328,pd_gc,0.3301124896145768,29.236597783015885,0.010963645349118362,-0.708210609094041,0.009111702221835504,-2.205343023853955,0.004646700648215539,1.5960854978182686,0.8025329045712951,0.03254979170644602,-0.024410541280791977,0.02721173640958967,-0.01573519261292196,0.013828549855320579,-0.011663612511118067,0.007559246315851528,14.67226229990304,-16.921793026445684,8.780947847994476,16.19029652409202,3.4085717585810764,0.0905039488205901,1.5162422805917612
0.33,pd_gc,0.33000370073090535,29.230342703209967,0.011028722518118593,-0.7082594133777966,0.009166104675078189,-2.205374483780115,0.004674349727141482,1.5960621762531915,0.8025480201141441,0.032538584500115514,-0.024402141877827216,0.027201226621342833,-0.0157299630800754,0.013824539462971427,-0.011660782538520952,0.00755777142446634,14.667211288180287,-16.916375939361977,8.77622579811683,16.191997050425194,3.407752928422422,0.0910632908427087,1.5159460308770325
0.332,pd_gc,0.3298949493235765,29.22409121737503,0.011093777280426593,-0.7083082008685216,0.009220486116865857,-2.205405933250686,0.004701990787609429,1.5960388603466877,0.8025631327077857,0.0325273811540002,-0.024393745362483392,0.027190720893834074,-0.015724735285374672,0.013820530233973196,-0.011657953251815376,0.00755629682080557,14.662162015548898,-16.910960687003524,8.771505482684297,16.193696985275057,3.4069343337676075,0.09162249147793577,1.5156498390645943
0.334,pd_gc,0.32978623537937884,29.217843324212556,0.01115880964376013,-0.7083569715719892,0.009274846555316844,-2.2054373722691425,0.0047296238319454054,1.596015550097386,0.8025782423527953,0.03251618166676909,-0.024385351733770905,0.027180219225493348,-0.01571950922824365,0.01381652216798837,-0.011655124650833883,0.007554822504813439,14.657114481409872,-16.905547268781305,8.766786901105469,16.195396328851977,3.4061159745522063,0.092181550763478,1.5153537051430805
0.336,pd_gc,0.32967755888510597,29.21159902242412,0.011223819615834314,-0.7084057254939706,0.009329185998546347,-2.205468800838959,0.004757248862474764,1.5959922455039153,0.8025933490497481,0.03250498603709166,-0.024376960990699203,0.02716972161475126,-0.015714284908102942,0.013812515264679337,-0.011652296735413275,0.007553348476433858,14.652068685164425,-16.900135684106424,8.762070052789097,16.197095081366335,3.405297850711811,0.09274046873653052,1.5150576291011255
0.338,pd_gc,0.32956891982755604,29.20535831071137,0.01128880720436159,-0.7084544626402351,0.009383504454666425,-2.2055002189636075,0.004784865881522182,1.5959689465649045,0.8026084527992193,0.03249379426363784,-0.02436857313227876,0.027159228060039,-0.015709062324375665,0.013808509523708759,-0.011649469505386825,0.007551874735610448,14.647024626213971,-16.894725932390173,8.757354937144077,16.19879324302843,3.4044799621820285,0.09329924543430712,1.5147616109273665
0.34,pd_gc,0.3294603181935316,29.199121187775937,0.011353772417051745,-0.7085031830165502,0.009437801931786002,-2.2055316266465606,0.00481247489141166,1.5959456532789833,0.802623553601784,0.03248260634507804,-0.024360188157519776,0.02714873855978838,-0.015703841476483467,0.013804504944739266,-0.011646642960588477,0.007550401282288331,14.641982303960143,-16.889318013043937,8.752641553579478,16.200490814048386,3.403662308898482,0.09385788089398783,1.5144656506104424
0.342,pd_gc,0.3293517539698405,29.192887652319612,0.011418715261611912,-0.7085518866286811,0.009492078438010865,-2.205563023891288,0.004840075894466528,1.5959223656447816,0.8026386514580167,0.032471422280083116,-0.024351806065433024,0.027138253112431808,-0.015698622363848967,0.01380050152743367,-0.011643817100853986,0.00754892811640964,14.636941717804769,-16.883911925479303,8.747929901504502,16.202187794636387,3.402844890796804,0.09441637515274204,1.5141697481389904
0.34400000000000003,pd_gc,0.32924322714329474,29.186657703044183,0.01148363574574656,-0.7086005734823911,0.00954633398144367,-2.20559441070126,0.004867668893009438,1.5958990836609297,0.8026537463684925,0.03246024206732436,-0.024343426855030395,0.027127771716402304,-0.015693404985896345,0.013796499271454883,-0.011640991926017601,0.007547455237919862,14.631902867149883,-16.878507669107996,8.74321998032853,16.203884185002426,3.4020277078126493,0.09497472824772712,1.5138739035016644
0.34600000000000003,pd_gc,0.32913473770071133,29.180431338651587,0.011548533877157508,-0.7086492435834418,0.009600568570183937,-2.2056257870799443,0.004895253889362369,1.595875807326058,0.802668838333786,0.03244906570547359,-0.024335050525323566,0.027117294370133462,-0.015688189342048676,0.01379249817646586,-0.011638167435912568,0.007545982646762403,14.626865751397734,-16.873105243341897,8.738511789461082,16.20557998535659,3.4012107598816836,0.09553294021610981,1.5135781166871023
0.34800000000000003,pd_gc,0.3290262856289121,29.17420855784369,0.011613409663543914,-0.7086978969375924,0.009654782212328055,-2.2056571530308076,0.004922830885846628,1.5958525366387972,0.8026839273544718,0.032437893193203,-0.02432667707532377,0.027106821072059542,-0.01568297543172874,0.013788498242129674,-0.011635343630374268,0.007544510342880422,14.62183036995077,-16.867704647592987,8.733805328311847,16.20727519590869,3.400394046939588,0.09609101109502216,1.5132823876839552
0.35000000000000003,pd_gc,0.3289178709147232,29.167989359322544,0.011678263112602285,-0.7087465335506006,0.009708974915969285,-2.205688508557316,0.004950399884782847,1.5958292715977787,0.8026990134311243,0.032426724529185304,-0.024318306504043846,0.02709635182061537,-0.015677763254360166,0.01378449946810948,-0.011632520509238473,0.00754303832621863,14.616796722211646,-16.862305881273507,8.729100596290655,16.208969816868567,3.3995775689220586,0.0966489409215936,1.5129867164808752
0.352,pd_gc,0.32880949354497585,29.161773741790196,0.011743094232026472,-0.7087951534282215,0.009763146689197758,-2.2057198536629348,0.004977960888490984,1.595806012201634,0.8027140965643177,0.032415559712093665,-0.024309938810496097,0.02708588661423638,-0.015672552809366733,0.013780501854068584,-0.011629698072338058,0.007541566596721506,14.611764807583224,-16.85690894379573,8.724397592807502,16.210663848446,3.3987613257648093,0.09720672973296729,1.5126911030665149
0.354,pd_gc,0.32870115350650575,29.1555617039488,0.011807903029507676,-0.7088437565762089,0.009817297540100476,-2.205751188351127,0.005005513899290325,1.595782758448995,0.8027291767546264,0.032404398740601685,-0.024301573993693596,0.02707542545135862,-0.015667344096172698,0.013776505399670352,-0.011626876319508107,0.00754009515433239,14.606734625468572,-16.851513834572184,8.719696317272536,16.21235729085067,3.397945317403565,0.0977643775662238,1.5123955474295276
0.356,pd_gc,0.32859285078615347,29.149353244500567,0.011872689512734442,-0.7088923430003142,0.009871427476761313,-2.205782512625355,0.005033058919499482,1.5957595103384938,0.8027442540026244,0.032393241613383424,-0.024293212052649595,0.02706496833041876,-0.015662137114201655,0.013772510104578233,-0.011624055250584376,0.007538623998995305,14.601706175270962,-16.84612055301551,8.714996769096064,16.214050144292205,3.397129543774069,0.09832188445848056,1.5121000495585715
0.358,pd_gc,0.32848458537076414,29.143148362147723,0.011937453689392669,-0.708940912706287,0.009925536507261022,-2.2058138264890808,0.005060595951436393,1.595736267868763,0.8027593283088857,0.03238208832911344,-0.024284852986377274,0.02705451524985404,-0.01565693186287769,0.013768515968455793,-0.011621234865401439,0.0075371531306549725,14.596679456393879,-16.840729098538453,8.710298947688537,16.215742408980116,3.396314004812074,0.09887925044682788,1.5118046094423092
0.36,pd_gc,0.32837635724718756,29.13694705559262,0.012002195567165601,-0.7089894656998748,0.009979624639677227,-2.205845129945764,0.005088124997418327,1.5957130310384353,0.8027743996739842,0.03237093888646669,-0.024276496793891076,0.027044066208102333,-0.015651728341625034,0.013764522990966687,-0.011618415163792951,0.007535682549254102,14.591654468241,-16.83533947055399,8.705602852460583,16.21743408512387,3.3954987004533566,0.09943647556834945,1.5115092270693975
0.362,pd_gc,0.3282681664022783,29.13074932353767,0.01206691515373384,-0.7090380019868232,0.01003369188208443,-2.205876422998864,0.005115646059761877,1.5956897998461441,0.8027894680984937,0.03235979328411863,-0.024268143474205254,0.027033621203602087,-0.015646526549869286,0.013760531171774726,-0.01161559614559448,0.007534212254737924,14.586631210216218,-16.82995166847521,8.70090848282297,16.21912517293289,3.394683630633702,0.09999355986011116,1.5112139024285083
0.364,pd_gc,0.32816001282289575,29.12455516468532,0.01213161245677533,-0.7090865215728759,0.010087738242554016,-2.205907705651838,0.005143159140782964,1.595666574290523,0.8028045335829879,0.032348651520745154,-0.024259793026334492,0.027023180234792384,-0.015641326487034733,0.013756540510543723,-0.011612777810642632,0.007532742247050555,14.581609681723632,-16.824565691715353,8.696215838186625,16.220815672616492,3.39386879528891,0.10055050335915894,1.5109186355083015
0.366,pd_gc,0.3280518964959039,29.11836457773809,0.012196287483965375,-0.7091350244637745,0.010141763729154242,-2.205938977908143,0.005170664242796839,1.5956433543702053,0.8028195961280401,0.03233751359502265,-0.024251445449293637,0.027012743300112878,-0.015636128152547914,0.013752551006937713,-0.011609960158769266,0.007531272526135056,14.576589882167543,-16.81918153968784,8.691524917962635,16.2225055843839,3.393054194354801,0.10110730610257068,1.5106234262974463
0.368,pd_gc,0.32794381740817125,29.112177561398532,0.01226094024297663,-0.7091835106652588,0.01019576834995025,-2.2059702397712346,0.00519816136811808,1.5956201400838257,0.802834655734224,0.032326379505627896,-0.024243100742097932,0.027002310398003885,-0.01563093154583182,0.013748562660620607,-0.011607143189811119,0.0075298030919361296,14.571571810952454,-16.81379921180617,8.686835721562229,16.224194908444282,3.3922398277672037,0.10166396812736034,1.5103282747846192
0.37,pd_gc,0.3278357755465712,29.105994114369327,0.012325570741479107,-0.7092319801830663,0.010249752113004062,-2.2060014912445673,0.005225650519060593,1.5955969314300185,0.8028497124021128,0.03231524925123822,-0.024234758903763396,0.02699188152690624,-0.015625736666313974,0.01374457547125669,-0.011604326903603062,0.007528333944397401,14.56655546748308,-16.808418707484094,8.682148248396805,16.225883645006732,3.391425695461967,0.10222048947056761,1.5100331809584897
0.372,pd_gc,0.32772777089798183,29.099814235353197,0.01239017898714017,-0.709280433022933,0.010303715026374585,-2.206032732331594,0.005253131697937613,1.5955737284074185,0.8028647661322798,0.032304122830531315,-0.024226419933305238,0.026981456685261473,-0.015620543513418312,0.013740589438510118,-0.011601511299979864,0.007526865083463261,14.561540851164336,-16.803040026135438,8.677462497877922,16.227571794280312,3.39061179737495,0.10277687016920067,1.509738144807735
0.374,pd_gc,0.3276198034492858,29.09363792305291,0.012454764987624541,-0.7093288691905925,0.010357657098117607,-2.206063963035767,0.005280604907061704,1.595550531014661,0.8028798169252979,0.032293000242185385,-0.024218083829739837,0.026971035871511662,-0.01561535208657035,0.013736604562045255,-0.011598696378776837,0.007525396509078839,14.556527961401349,-16.797663167174246,8.672778469417274,16.229259356473932,3.3897981334420324,0.10333311026028902,1.5094431663210317
0.376,pd_gc,0.3275118731873706,29.087465176171314,0.0125193287505943,-0.7093772886917766,0.010411578336285806,-2.2060951833605373,0.005308070148744757,1.5955273392503813,0.8028948647817402,0.03228188148487908,-0.024209750592084456,0.026960619084099472,-0.015610162385198145,0.013732620841526629,-0.01159588213982963,0.0075239282211864355,14.55151679759944,-16.79228813001467,8.668096162426739,16.230946331796474,3.388984703599106,0.1038892097808044,1.5091482454870586
0.378,pd_gc,0.3274039800991281,29.081295993411352,0.012583870283708883,-0.7094256915322154,0.010465478748928742,-2.2061263933093547,0.005335527425297994,1.5955041531132153,0.8029099097021797,0.03227076655729152,-0.024201420219356007,0.026950206321468214,-0.015604974408726735,0.013728638276618684,-0.011593068582972139,0.007522460219731841,14.54650735916415,-16.78691491407102,8.663415576318327,16.2326327204568,3.388171507782077,0.10444516876775456,1.5088533822945027
0.38,pd_gc,0.32729612417145515,29.075130373475968,0.012648389594625088,-0.7094740777176365,0.010519358344092867,-2.206157592885668,0.005362976739031967,1.595480972601799,0.802924951687189,0.03225965545810224,-0.02419309271057111,0.026939797582061793,-0.01559978815658214,0.013724656866986094,-0.011590255708040575,0.00752099250465801,14.541499645501208,-16.78154351875775,8.658736710504204,16.234318522663614,3.3873585459268667,0.10500098725810636,1.5085585767320422
0.382,pd_gc,0.3271883053912533,29.068968315068208,0.01271288669099707,-0.709522447253766,0.010573217129821516,-2.2061887820929242,0.005390418092256554,1.5954577977147695,0.8029399907373408,0.032248548185991266,-0.024184768064748164,0.02692939286432469,-0.015594603628191584,0.0137206766122936,-0.011587443514870274,0.0075195250759096,14.536493656016564,-16.776173943489493,8.65405956439671,16.236003738625563,3.386545817969412,0.10555666528882979,1.508263828788369
0.384,pd_gc,0.32708052374542856,29.062809816891164,0.012777361580476349,-0.7095708001463278,0.01062705511415492,-2.20621996093457,0.005417851487280966,1.5954346284507628,0.8029550268532076,0.03223744473963909,-0.02417644628090485,0.026918992166702006,-0.0155894208229824,0.01371669751220606,-0.011584632003295828,0.0075180579334302765,14.531489390116358,-16.770806187681004,8.64938413740833,16.237688368551233,3.385733323845665,0.10611220289687395,1.5079691384521718
0.386,pd_gc,0.3269727792208917,29.05665487764802,0.012841814270711802,-0.7096191364010439,0.010680872305130198,-2.206251129414051,0.005445276926413742,1.5954114648084166,0.802970060035362,0.03222634511772662,-0.02416812735805947,0.02690859548763946,-0.015584239740380501,0.013712719566388335,-0.01158182117315317,0.007516591077165406,14.526486847206947,-16.76544025074723,8.64471042895169,16.23937241264914,3.3849210634915936,0.10666760011919196,1.5076745057121421
0.388,pd_gc,0.32686507180455826,29.050503496042058,0.012906244769349673,-0.7096674560236343,0.010734668710781365,-2.2062822875348105,0.005472694411962753,1.595388306786368,0.8029850902843761,0.03221524931893525,-0.02415981129523062,0.026898202825583344,-0.01557906037981357,0.013708742774505508,-0.01157901102427725,0.007515124507057568,14.521486026694884,-16.760076132103254,8.640038438439616,16.24105587112779,3.384109036843179,0.1072228569927196,1.507379930556969
0.39,pd_gc,0.3267574014833483,29.044355670776486,0.012970653084033567,-0.7097157590198172,0.010788444339139327,-2.206313435300292,0.005500103946235199,1.595365154383255,0.8030001176008222,0.03220415734194683,-0.024151498091437438,0.026887814178980562,-0.015573882740709059,0.013704767136222694,-0.011576201556504106,0.007513658223052872,14.516486927986932,-16.754713831164267,8.635368165285037,16.242738744195435,3.3832972438364184,0.10777797355438734,1.5070854129753544
0.392,pd_gc,0.32664976824418673,29.03821140055475,0.013035039222404454,-0.7097640453953086,0.010842199198231884,-2.206344572713937,0.005527505531537609,1.5953420075977156,0.8030151419852725,0.032193069185443665,-0.024143187745698944,0.02687742954627862,-0.015568706822494038,0.013700792651205104,-0.011573392769669351,0.007512192225093762,14.511489550490062,-16.749353347345675,8.630699608901075,16.244421032060483,3.3824856844073237,0.10833294984108832,1.506790952955991
0.394,pd_gc,0.3265421720740028,29.032070684080242,0.013099403192100671,-0.7098123151558227,0.010895933296083736,-2.206375699779186,0.005554899170175845,1.5953188664283884,0.8030301634382987,0.0321819848481085,-0.024134880257034638,0.02686704892592564,-0.01556353262459562,0.01369681931911804,-0.01157058466360803,0.007510726513125338,14.506493893611434,-16.74399468006302,8.626032768700982,16.24610273493107,3.3816743584919204,0.10888778588976056,1.5064965504875842
0.396,pd_gc,0.32643461295973086,29.02593352005647,0.01316374500075792,-0.7098605683070716,0.010949646640716477,-2.206406816499479,0.005582284864455099,1.595295730873912,0.8030451819604729,0.03217090432862451,-0.024126575624465272,0.026856672316370313,-0.01555836014644326,0.013692847139626981,-0.011567777238155885,0.007509261087091742,14.501499956758428,-16.738637828731978,8.62136764409818,16.247783853015406,3.3808632660262514,0.10944248173727544,1.5062022055588353
0.398,pd_gc,0.3263270908883097,29.019799907187,0.013228064656009272,-0.7099088048547656,0.0110033392401486,-2.206437922878254,0.005609662616679894,1.5952726009329257,0.8030601975523668,0.032159827625675416,-0.024118273847010877,0.026846299716061922,-0.015553189387465105,0.013688876112397415,-0.01156497049314679,0.007507795946936184,14.496507739338623,-16.733282792768378,8.616704234506267,16.249464386521538,3.3800524069463744,0.10999703742052924,1.5059079181584467
0.4,pd_gc,0.3262196058466828,29.013669844175443,0.013292362165485162,-0.709957024804613,0.0110570111023955,-2.206469018918948,0.005637032429154084,1.5952494766040688,0.803075210214552,0.03214875473794531,-0.02410997492369162,0.026835931123450434,-0.015548020347087908,0.013684906237094894,-0.011562164428419446,0.007506331092604547,14.491517240759801,-16.727929571588213,8.612042539338946,16.25114433565748,3.3792417811883597,0.11055145297637914,1.5056136882751328
0.402,pd_gc,0.3261121578217981,29.007543329725515,0.0133566375368134,-0.71000522816232,0.011110662235469472,-2.2065001046249977,0.005664394304180855,1.595226357885981,0.8030902199476001,0.03213768566411881,-0.02410167885352907,0.026825566536986294,-0.01554285302474168,0.013680937513385215,-0.011559359043806507,0.007504866524040879,14.486528460429954,-16.722578164607654,8.607382558010123,16.252823700631147,3.378431388688296,0.11110572844170807,1.5053195158975952
0.404,pd_gc,0.32600474680060865,29.00142036254096,0.013420890777619161,-0.7100534149335911,0.011164292647379713,-2.2065311799998373,0.005691748244062723,1.5952032447773028,0.8031052267520825,0.03212662040288088,-0.024093385635544116,0.026815205955120665,-0.015537687419853686,0.013676969940934092,-0.01155655433914577,0.007503402241188312,14.481541397757265,-16.71722857124295,8.602724289933846,16.254502481650427,3.377621229382284,0.11165986385335414,1.505025401014545
0.406,pd_gc,0.3258973727700718,28.99530094132561,0.013485121895524995,-0.7101015851241286,0.011217902346132324,-2.206562245046901,0.005719094251101538,1.5951801372766743,0.8031202306285705,0.032115558952917046,-0.024085095268758593,0.02680484937630522,-0.01553252353185417,0.013673003519407534,-0.011553750314272394,0.007501938243991792,14.476556052150137,-16.711880790910605,8.5980677345243,16.25618067892307,3.3768113032064404,0.11221385924816607,1.5047313436147025
0.40800000000000003,pd_gc,0.3257900357171496,28.989185064783374,0.013549330898150821,-0.7101497387396329,0.01127149133973031,-2.2065932997696214,0.005746432327598481,1.5951570353827362,0.8031352315776353,0.03210450131291323,-0.024076807752194347,0.026794496798992276,-0.015527361360171523,0.013669038248471464,-0.011550946969021621,0.007500474532396258,14.471572423017161,-16.706534823027198,8.593412891195847,16.25785829265684,3.376001610096898,0.11276771466298197,1.5044373436867806
0.41000000000000003,pd_gc,0.32568273562880884,28.9830727316182,0.013613517793113932,-0.7101978757858027,0.01132505963617358,-2.2066243441714297,0.005773762475854065,1.5951339390941297,0.803150229599848,0.03209344748155583,-0.02406852308487374,0.02678414822163474,-0.015522200904234621,0.013665074127791969,-0.011548144303229951,0.007499011106344861,14.46659050976715,-16.701190667009485,8.588759759363004,16.259535323059353,3.375192149989804,0.11332143013462348,1.5041434012194956
0.41200000000000003,pd_gc,0.325575472492021,28.976963940534056,0.013677682588028995,-0.7102459962683344,0.011378607243458952,-2.2066553782557565,0.005801084698168136,1.5951108484094962,0.8031652246957797,0.032082397457531685,-0.024060241265820157,0.026773803642686094,-0.01551704216347447,0.013661111157035322,-0.011545342316731556,0.00749754796578258,14.461610311809107,-16.695848322274337,8.584108338440434,16.26121177033812,3.374382922821317,0.11387500569989628,1.5038495162015724
0.41400000000000003,pd_gc,0.32546824629376214,28.9708586902351,0.01374182529050805,-0.7102941001929225,0.011432134169580152,-2.206686402026031,0.005828398996839871,1.5950877633274776,0.8031802168660009,0.03207135123952813,-0.02405196229405519,0.026763463060600467,-0.015511885137318191,0.013657149335867699,-0.011542541009366022,0.007496085110653516,14.456631828552238,-16.690507788238854,8.579458627842957,16.262887634700725,3.3735739285276174,0.11442844139560249,1.5035556886217314
0.41600000000000004,pd_gc,0.325361057021013,28.96475697942546,0.013805945908160517,-0.7103421875652597,0.011485640422527817,-2.2067174154856812,0.005855705374167783,1.5950646838467157,0.8031952061110827,0.032060308826232876,-0.02404368616860363,0.026753126473832538,-0.015506729825198679,0.013653188663955632,-0.011539740380965061,0.007494622540901826,14.451655059405963,-16.685169064320256,8.574810626985558,16.264562916354535,3.3727651670448946,0.1149817372585411,1.5032619184687
0.418,pd_gc,0.3252539046607587,28.95865880680935,0.013870044448593185,-0.7103902583910366,0.011539126010289492,-2.2067484186381345,0.005883003832449714,1.595041609965853,0.8032101924315957,0.03204927021633417,-0.024035412888488046,0.026742793880837626,-0.01550157622654373,0.01364922914096547,-0.011536940431367744,0.007493160256472596,14.446680003779901,-16.679832149935866,8.570164335283373,16.26623761550692,3.371956638309357,0.11553489332548494,1.5029682057312046
0.42,pd_gc,0.3251467891999895,28.952564171091097,0.013934120919410226,-0.7104383126759422,0.011592590940849634,-2.2067794114868162,0.005910294373982841,1.5950185416835323,0.8032251758281104,0.03203823540852068,-0.024027142452732627,0.026732465280071605,-0.015496424340783898,0.01364527076656384,-0.011534141160409189,0.007491698257310062,14.441706661083868,-16.674497044503248,8.565519752151689,16.2679117323652,3.371148342257224,0.11608790963321258,1.5026745503979713
