Ovmem/robot-control-retargeting-framework/results/dynamics/joint_pd_only.csv
t,mode,err_norm,tau_norm,q1,q2,q3,q4,q5,q6,q7,qd1,qd2,qd3,qd4,qd5,qd6,qd7,tau1,tau2,tau3,tau4,tau5,tau6,tau7
0.0,pd_only,0.34835187547968927,23.749947368362736,3.618375894538981e-05,-0.7000303108381933,1.0494456479070783e-05,-2.200075575761522,1.4789279019121154e-05,1.5999794031114205,0.8000129514532157,0.018091879472694906,-0.015155419096675508,0.005247228239535392,-0.03778788076097404,0.007394639509560577,-0.010298444289776902,0.006475726607817755,16.0,-12.000000000000002,10.5,-6.000000000000005,3.0,-2.500000000000002,1.5999999999999992
0.002,pd_only,0.3482455659488465,23.33323500116316,8.618443268219162e-05,-0.7000690104663019,3.519626466566318e-05,-2.200186025069306,3.4022138506671925e-05,1.5999459603657866,0.8000282846769661,0.025000336868400905,-0.019349814054268055,0.012350904093296197,-0.05522465389205747,0.009616429743775384,-0.016721372816977956,0.00766661187518957,15.743818986666641,-11.785399265591074,10.43629864917204,-5.617586646698955,2.9551884845720635,-2.447992856336628,1.5738380645044148
0.004,pd_only,0.3481228404645373,23.146460330651767,0.00014305055080354053,-0.700108157875793,7.120752380791563e-05,-2.200313813057318,5.483448451334856e-05,1.5999058209529855,0.8000440144590644,0.028433059060674462,-0.019573704745549807,0.018005629571126232,-0.06389399400584744,0.010406173003338317,-0.02006970640053707,0.007864891049144533,15.643100529227812,-11.723581765936096,10.34932541235385,-5.436591956921072,2.9412807573821476,-2.415042145059776,1.5687678589599203
0.006,pd_only,0.34799137855563744,23.051667384770273,0.00020397364329935186,-0.7001452488992655,0.00011526701489216669,-2.2004509198653794,7.638773466819597e-05,1.599862307678929,0.8000597745006757,0.030461546247905667,-0.01854551173630131,0.022029745542125532,-0.06855340403067411,0.010776625077423706,-0.02175663702830734,0.007880020805661456,15.590493129086274,-11.717315503498865,10.27894791847993,-5.342231276502469,2.93591792744457,-2.397296991821952,1.5676601466221347
0.008,pd_only,0.3478549967765484,22.998067979173484,0.00026749363190656846,-0.7001798262041297,0.00016485363366166908,-2.200593432739877,9.837860677101032e-05,1.599817055872064,0.8000755049745014,0.0317599943036083,-0.017288652432038774,0.024793309384751192,-0.07125643724863091,0.010995436051407174,-0.022625903432473136,0.007865236912869942,15.557220461065373,-11.728742923750536,10.22757436245204,-5.287410767770508,2.933048617495412,-2.387774506831686,1.5672844267638408
0.01,pd_only,0.34771572828626046,22.964636761099953,0.0003327255063072244,-0.7002121331630156,0.00021818644096185223,-2.200739299648556,0.00012065602540246045,1.5997708608759376,0.8000912032232033,0.03261593720032799,-0.016153479442939024,0.02666640365009157,-0.07293345433970774,0.01113870931572507,-0.02309749806312392,0.007849124350902006,15.53396058919696,-11.743572769621082,10.19094053302667,-5.251829663121097,2.9310760254884274,-2.3822968796392323,1.567028952858492
0.012,pd_only,0.3475747211743267,22.94179021383737,0.00039909520684452493,-0.7002425925119874,0.0002740439316360856,-2.2008873592514133,0.00014312523634947612,1.599724120919421,0.800106875764086,0.03318485026865025,-0.01522967448592219,0.027928745337116707,-0.07402980142864583,0.01123460547350783,-0.02336997825825972,0.007836270441372676,15.516758838690832,-11.756880634757607,10.164730105331572,-5.226307477689567,2.929548063343576,-2.3787840315828195,1.5667794381323268
0.014,pd_only,0.34743265452060795,22.924802611473694,0.0004662209356143143,-0.700271617715553,0.00033159734312859947,-2.201036905358547,0.0001657215888968828,1.599677046605723,0.8001225291009673,0.03356286438489469,-0.014512601782839887,0.028776705746256924,-0.07477305356678425,0.011298176273703345,-0.023537156848990753,0.007826668440618901,15.503484479691336,-11.767377156238096,10.145671980740074,-5.206460430628758,2.928298610068469,-2.376253131694228,1.566517402952789
0.016,pd_only,0.3472899441962826,22.911188467148424,0.0005338466741447006,-0.7002995559294906,0.000390286828717562,-2.2011874820498867,0.000188400497514157,1.599629757183905,0.8001381682420675,0.03381286926519313,-0.013969106968752467,0.029344742794481266,-0.0752883456698752,0.011339454308637097,-0.023644710908941085,0.007819570550142005,15.492822223762328,-11.775094157795998,10.131467717025915,-5.190055142819353,2.9272392946908736,-2.374240380898123,1.5662427442181792
0.018000000000000002,pd_only,0.3471468512057486,22.89957059108968,0.0006018003647369231,-0.7003266804698237,0.0004497349431397138,-2.2013387815128556,0.00021113155172161981,1.5995823250185472,0.800153796766114,0.033976845296111245,-0.013562270166590262,0.02972405721107591,-0.07564973148453431,0.011365527103731407,-0.023716082678919264,0.007814262023239954,15.483912096355722,-11.78046802807822,10.120543008455996,-5.175867620308063,2.926311259222753,-2.3725203750529222,1.5659583529580818
0.02,pd_only,0.3470035420493602,22.889154391035273,0.0006699663504014096,-0.7003531997990767,0.0005096874786410454,-2.201490589448917,0.00023389430327630466,1.5995347967333367,0.8001694171499109,0.03408299283224326,-0.013259664626486992,0.029976267750665767,-0.07590396803072463,0.011381375777342424,-0.02376414260535,0.0078101918984375615,15.47618013667549,-11.783993780081838,10.111829867447309,-5.163175794383339,2.9254728908259633,-2.3709777120690845,1.5656670165847606
0.022,pd_only,0.34686012401890254,22.879467743346613,0.0007382669188209196,-0.7003792702646463,0.0005699733402586378,-2.2016427536702503,0.0002566751779152997,1.5994872037688932,0.8001850310785354,0.03415028420975502,-0.013035232784770779,0.03014293080879618,-0.07608211066661784,0.011390437319497538,-0.023796482221684616,0.007806964312286576,15.469240792316484,-11.786108711303042,10.104606663487136,-5.151524952757752,2.9246949162376565,-2.369549205306666,1.5653708894080327
0.024,pd_only,0.3467166666400991,22.870224631671956,0.0008066498848190368,-0.7004050080494034,0.0006304774301550993,-2.2017951647511405,0.0002794652628553025,1.5994395680073534,0.8002006396863782,0.034191482999058595,-0.01286889237854574,0.030252044948230774,-0.07620554044514144,0.011395042470001381,-0.023817880769916384,0.007804303921411979,15.462834667557757,-11.787165119841504,10.098386696476341,-5.1406136731188194,2.923957120745556,-2.3681976831139067,1.565071521180145
0.026000000000000002,pd_only,0.3465732150723779,22.8612499000199,0.0008750802281697163,-0.7004304990445677,0.0006911223546466384,-2.2019477434152286,0.00030225876278436244,1.599391904993498,0.8002162437316375,0.034215171675339745,-0.012745497582117321,0.030322462245769524,-0.07628933204409752,0.011396749964529974,-0.02383150692773595,0.007802022629634975,15.456787247227657,-11.787434862748084,10.092842040510375,-5.130234710480174,2.9232457872943325,-2.3668997963342537,1.5647699905867878
0.028,pd_only,0.3464297986480995,22.852435897451997,0.0009435344640391237,-0.7004558065625971,0.0007518560951897356,-2.2021004319650332,0.0003250519447823131,1.5993442259117618,0.8002318437183822,0.03422711793470373,-0.012653759014699797,0.03036687027154859,-0.07634427490236032,0.011396590998975331,-0.023839540868014812,0.007799993372371532,15.450981178291668,-11.787123110284943,10.087751888225501,-5.120242074645326,2.9225517373292895,-2.365640090198768,1.5644670348487109
0.03,pd_only,0.3462864363855486,22.843716638304052,0.0010119968545758565,-0.7004809771958912,0.0008126437033773996,-2.202253188291585,0.0003478424269826755,1.5992965388717635,0.8002474399802819,0.03423119526836635,-0.012585316647073559,0.03039380409383197,-0.07637816327569258,0.011395241100181194,-0.02384351999916915,0.007798130949839237,15.445337591791018,-11.786382848786433,10.082967630078134,-5.110531333074418,2.9218688956626786,-2.3644079434539718,1.5641631521428703
0.032,pd_only,0.34614314057488493,22.835052028439872,0.0010804568618508362,-0.7005060452007376,0.0008734617099017602,-2.2024059816107413,0.0003706287061239392,1.5992488497808794,0.8002630327373879,0.034230003637489834,-0.012534002423207883,0.03040900326218031,-0.07639665957836092,0.011393139570631844,-0.02384454544198953,0.007796378552963814,15.439803517876802,-11.785327391269673,10.078389291637599,-5.101027069748003,2.9211932805894327,-2.3631958717982413,1.5638586765950049
0.034,pd_only,0.3459999191209681,22.826418070271764,0.0011489074361544982,-0.7005310357506946,0.0009342943619522501,-2.202558789393994,0.00039340984582788603,1.5992011629540928,0.8002786221343205,0.03422528715183104,-0.012495274978533952,0.03041632602524493,-0.0764038916264026,0.011390569851973415,-0.023843413393293544,0.007794698466328049,15.434343400127077,-11.784040350016083,10.073949641160713,-5.091674507571929,2.920522301392491,-2.361998517312039,1.5635538310403876
0.036000000000000004,pd_only,0.3458567770769598,22.81780073271345,0.0012173438661515078,-0.7005559673398004,0.0009951310918069629,-2.202711595143782,0.0004161852721542662,1.599153481548311,0.8002942082658051,0.034218214998504845,-0.012465794552899423,0.030418364927356393,-0.07640287489417798,0.011387713163190098,-0.023840702890829207,0.007793065742286313,15.428933384982006,-11.782583290244952,10.069603482360403,-5.082433720096352,2.919854285513323,-2.360812006885851,1.5632487634482768
0.038,pd_only,0.3457137176480417,22.80919210171739,0.001285763006974318,-0.7005808535531322,0.0010559648143797318,-2.2028643867741358,0.0004389546406519248,1.5991058078753095,0.8003097911936792,0.0342095704114051,-0.01244310666588791,0.030416861286384485,-0.07639581517685443,0.011384684248829309,-0.023836836500722464,0.007791463937022961,15.423557480728812,-11.781001489075374,10.065320444445236,-5.073275542431309,2.9191881628562313,-2.35963352425363,1.5629435717147526
0.04,pd_only,0.3455707428473793,22.800587963898586,0.0013541627623518372,-0.7006057043693398,0.0011167907826981635,-2.20301715542888,0.00046171775053952414,1.599058143628823,0.8003253709581807,0.034199877688759636,-0.012425408103785642,0.030412984159215836,-0.076384327372124,0.011381554943799646,-0.023832123243292574,0.007789882250760602,15.418204973682386,-11.779328222426996,10.061080127556805,-5.064178641783326,2.9185232552874667,-2.358461014379126,1.5626383203783247
0.042,pd_only,0.34542785392373104,22.791986297775935,0.0014225417373866826,-0.7006305271180796,0.0011776058187652557,-2.2031698946177762,0.00048447448972915484,1.5990104900500424,0.800340947585416,0.03418948751742274,-0.012411374369928454,0.03040751803354609,-0.07636959444816642,0.011378369594815342,-0.0238267893903339,0.007788313617623162,15.41286869136922,-11.777587936999817,10.056868835300538,-5.0551274005459765,2.9178591378210164,-2.3572929745041105,1.562333051833344
0.044,pd_only,0.34528505163922085,22.783386340279858,0.0014908990059018146,-0.7006553271834619,0.0012384077968952544,-2.203322599584412,0.00050722479991049,1.5989628480485347,0.8003565210922843,0.034178634257566017,-0.012400032691159937,0.03040098906499942,-0.0763524833177363,0.011375155090667553,-0.023821000753818954,0.007786753434176372,15.407543835765148,-11.77579858937463,10.052677376283878,-5.046110378451777,2.9171955477392335,-2.3561283042993892,1.5620277938211882
0.046,pd_only,0.34514233644897063,22.774788016913426,0.0015592339546632455,-0.7006801085207617,0.0012991952967971725,-2.2034752668433466,0.0005299686546021976,1.598915218290731,0.8003720914897156,0.03416747438071546,-0.012390668649875872,0.030393749950959014,-0.07633362946733227,0.011371927345853773,-0.023814878901874857,0.007785198715627108,15.402227199921931,-11.773973367646807,10.04849958543734,-5.037119191757939,2.91653232545868,-2.3549661974442735,1.561722564417609
0.048,pd_only,0.3449997086167983,22.76619160047847,0.0016275461790430218,-0.7007048740359212,0.001359967370617161,-2.2036278938410354,0.0005527060453221523,1.5988676012647398,0.8003876587847877,0.034156112189888205,-0.012382757579756567,0.030386036909994262,-0.07631349884445252,0.01136869535997736,-0.02380851299557629,0.0077836475360376495,15.396916642296924,-11.772121957240802,10.044331329812689,-5.028147694725897,2.9158693762868118,-2.3538060627588986,1.5614173753431806
0.05,pd_only,0.3448571682883791,22.757597513131003,0.0016958354137446394,-0.7007296258642399,0.0014207233871664808,-2.203780478707338,0.0005754369740479287,1.5988199973278667,0.8004032229821217,0.0341446173508088,-0.012375914159383768,0.0303780082746599,-0.07629243315116103,0.011365464362888218,-0.023801968436553144,0.007782098667038847,15.391610735018126,-11.770251471009711,10.040169841136867,-5.019191381093366,2.915206646480472,-2.352647466640614,1.5611122341600958
0.052000000000000005,pd_only,0.34471471553870675,22.749006210891025,0.0017641014858100189,-0.7007543655750732,0.0014814629267896073,-2.2039330200733627,0.0005981614472338294,1.5987724067414335,0.8004187840847637,0.034133036032689724,-0.012369855416657242,0.030369769811563287,-0.07627068301232919,0.01136223659295036,-0.023795293216609194,0.007780551321003597,15.386308523989106,-11.768367132629432,10.036013263602428,-5.010246946048135,2.9145441046012333,-2.3514900910139023,1.56080714568941
0.054,pd_only,0.34457235040113937,22.740418132165843,0.0018323442837233635,-0.7007790943221386,0.0015421857112824986,-2.2040855169379174,0.0006208794733624414,1.598724829696335,0.8004343420947744,0.03412139895667232,-0.012364373532696952,0.030361392246445594,-0.07624843227744946,0.01135901306430598,-0.02378852254926553,0.007779005005301026,15.381009376677543,-11.76647277816094,10.031860357385968,-5.001311965474964,2.913881737025283,-2.350333702452792,1.5605021130207108
0.056,pd_only,0.34443007288547334,22.731833665987626,0.0019005637367490813,-0.700803812953903,0.0016028915569467255,-2.2042379685695694,0.0006435910613782146,1.5986772663317819,0.8004498970136019,0.03410972651285889,-0.012359315882244244,0.03035292283211347,-0.0762258158259809,0.011355794007886593,-0.023781682276581617,0.007777459413772539,15.375712871908718,-11.764571224771155,10.027710293252877,-4.992384660950475,2.913219537413291,-2.3491781296620475,1.5601971380833084
0.058,pd_only,0.34428788298895646,22.723253143594498,0.0019687598011602645,-0.7008285220946526,0.0016635803431612288,-2.2043903744348117,0.0006662962198431086,1.5986297167490522,0.8004654488423195,0.034098032205591634,-0.012354570374783361,0.03034439310725168,-0.07620293262100629,0.01135257923244701,-0.023774791364845033,0.0077759143588207475,15.37041872988005,-11.762664541336335,10.023562517028367,-4.983463727566041,2.9125575041113336,-2.3480232469116387,1.5598922220728715
0.06,pd_only,0.34414578070283414,22.714676839028787,0.002036932451080202,-0.7008532222040305,0.0017242519913605223,-2.204542734145371,0.0006889949565501758,1.5985821810215823,0.8004809975817752,0.03408632495996869,-0.012350054688908589,0.03033582409964672,-0.07617985527974615,0.011349368353533626,-0.023767863734907867,0.007774369727805398,15.365126765028897,-11.76075424718082,10.019416658691693,-4.974548207701253,2.9118956380100247,-2.3468689619020795,1.5595873657183268
0.062,pd_only,0.3440037660161135,22.706104974309657,0.0021050816724028872,-0.7008779136207626,0.0017849064509867622,-2.204695047419554,0.0007116872784007994,1.5985346592023724,0.8004965432326852,0.03407461066134271,-0.012345708366040433,0.03032722981311992,-0.07615663709150085,0.011346160925311783,-0.0237609096049595,0.007772825454976089,15.359836854474024,-11.758841458032842,10.015272471409002,-4.965637398480284,2.911233941182293,-2.3457152068650187,1.5592825694532755
0.064,pd_only,0.3438618389176228,22.697537726470532,0.0021732074587646542,-0.7009025965947706,0.0018455436901113644,-2.2048473140538833,0.0007343731914227596,1.598487151329421,0.8005120857956921,0.03406289318088348,-0.012341487004041226,0.030318619562301072,-0.07613331716466139,0.011342956510980093,-0.023753936475717965,0.007771281503497423,15.354548916948971,-11.756926993214426,10.011129790673488,-4.95673078391176,2.9105724160961053,-2.344561932034512,1.5589778335263926
0.066,pd_only,0.3437199993970468,22.688975234925977,0.0022413098088800375,-0.7009272713107565,0.0019061636891804852,-2.2049995339022876,0.0007570527008558967,1.5984396574297144,0.8005276252714002,0.03405117505769159,-0.012337357992967098,0.030309999534560456,-0.07610992420211281,0.011339754716568565,-0.02374694985334147,0.007769737854042631,15.34926289876646,-11.755011454361773,10.006988506944593,-4.9478279851204015,2.909911065191437,-2.3434091008569347,1.5586731580721682
0.068,pd_only,0.34357824744536686,22.68041760836948,0.002309388724783591,-0.7009519379055231,0.0019667664368484385,-2.2051517068608293,0.0007797258112634584,1.5983921775221546,0.8005431616603954,0.034039457951776805,-0.012333297383338103,0.030301373833976717,-0.07608647927087424,0.011336555203780893,-0.023739953779953082,0.007768194497618456,15.343978764481914,-11.75309528323794,10.00284854734264,-4.938928723841629,2.909249890674912,-2.3422566864761523,1.5583685431558256
0.07,pd_only,0.3434365830549661,22.6718649308446,0.00237744421067234,-0.7009765964806954,0.002027351927205341,-2.205303832856498,0.0008023925266463074,1.5983447116197085,0.8005586949632576,0.03402774294437445,-0.012329287586130515,0.030292745178451132,-0.07606299783414387,0.011333357691424496,-0.0237329512229887,0.007766651431121296,15.338696490692438,-11.751178804191415,9.99870986341289,-4.930032795641516,2.9085888944394114,-2.341104669154099,1.5580639888016181
0.07200000000000001,pd_only,0.34329500621956127,22.663317266882384,0.0024454762721457125,-0.7010012471120626,0.002087920157934832,-2.2054559118389823,0.0008250528505485188,1.5982972597309866,0.8005742251805669,0.03401603073668625,-0.012325315683586434,0.030284115364745595,-0.07603949124230418,0.011330161951105734,-0.023725944360973018,0.007765108654626978,15.33341606192497,-11.749262255338536,9.994572422954212,-4.92114005026871,2.907928078052064,-2.3399530343777686,1.5577594950103628
0.074,pd_only,0.34315351693405244,22.654774665732955,0.002513484915707979,-0.7010258898564398,0.0021484711290915767,-2.2056079437746363,0.0008477067861494806,1.5982498218614,0.8005897523129064,0.034004321781133225,-0.012321372188621813,0.030275485578372393,-0.076015967827056,0.011326967800480885,-0.023718934793282118,0.007763566169770618,15.328137467914736,-11.747345811464783,9.990436204567615,-4.912250377238038,2.9072674427769107,-2.3388017714697993,1.5574550617701548
0.076,pd_only,0.3430121151943474,22.646237164782406,0.002581470148443658,-0.7010505247567071,0.002209004842291291,-2.205759928642045,0.0008703543363412653,1.5982023980140119,0.800605276360864,0.03399261636783956,-0.012317450133695545,0.030266856599857207,-0.07599243370436212,0.011323775095892375,-0.023711923694115348,0.007762023978811118,15.322860701807496,-11.745429600844112,9.98630119402312,-4.903363695251278,2.9066069896126305,-2.3376508725685916,1.5571506890627893
0.078,pd_only,0.34287080099718675,22.63770479227125,0.002649431977806599,-0.7010751518455104,0.0022695213001749995,-2.2059118664287727,0.0008929955037919593,1.5981549881901609,0.8006207973250322,0.03398091468147037,-0.012313544401644614,0.030258228941854176,-0.07596889336374535,0.011320583725346986,-0.023704911925524912,0.00776048208411587,15.317585758974756,-11.74351371759169,9.982167381841323,-4.894479944433691,2.9059467193344077,-2.3365003318797197,1.556846376867476
0.08,pd_only,0.3427295743399857,22.629177569431736,0.0027173704114835523,-0.7010997711479788,0.0023300205060553347,-2.2060637571289745,0.0009156302909965128,1.5981075923899202,0.800636315206008,0.03396921683847661,-0.012309651234230242,0.030249602940167635,-0.07594535010081276,0.011317393602276769,-0.023697900120395604,0.007758940487892998,15.31231263623489,-11.741598230736143,9.978034761685501,-4.885599080636202,2.905286632534159,-2.3353501451263976,1.5565421251628921
0.082,pd_only,0.34258843522069726,22.620655512152627,0.002785285457306392,-0.7011243826837212,0.002390502463683502,-2.206215600741644,0.0009382587003169769,1.5980602106124335,0.8006518300043921,0.033957522911419916,-0.01230576787120287,0.030240978814083583,-0.07592180633473163,0.01131420466023208,-0.023690888743356266,0.0077573991920756955,15.307041331342642,-11.739683190882468,9.973903329294115,-4.876721071253417,2.9046267296564436,-2.334200309146026,1.5562379339282686
0.084,pd_only,0.3424473836376975,22.612138632265967,0.002853177123195989,-0.7011489864682917,0.002450967177096086,-2.2063673972693265,0.0009608807340139742,1.5980128428561624,0.8006673417207887,0.033945832944798505,-0.012301892285219848,0.03023235670629222,-0.07589826384126018,0.011311016848498645,-0.02368387813551088,0.007755858198286803,15.301771842655612,-11.737768635105459,9.969773081773152,-4.8678458921540715,2.9039670110290983,-2.333050821594057,1.5559338031438552
0.08600000000000001,pd_only,0.3423064195896934,22.603626938535356,0.0029210454171265865,-0.7011735825142661,0.0025114146505145992,-2.206519146717174,0.000983496394271084,1.597965489119068,0.8006828503558043,0.03393414696529858,-0.012298022987168792,0.030223736709256512,-0.0758747239238149,0.011307830128554975,-0.023676868547261427,0.007754317507850309,15.296504168917144,-11.735854590543584,9.965644017127767,-4.858973525427824,2.903307476888589,-2.3319016807265056,1.5556297327910793
0.088,pd_only,0.3421655430756469,22.595120437410955,0.0029888903471033883,-0.7011981708320325,0.002571844888279786,-2.206670849092252,0.0010061056832135924,1.597918149398743,0.800698355910048,0.033922464988400944,-0.012294158883194,0.030215118882593334,-0.07585118753904785,0.011304644471254231,-0.023669860162424214,0.0077527771218218015,15.291238309115693,-11.733941077038347,9.9615161339529,-4.850103957731422,2.902648127400538,-2.330752885240393,1.5553257228525121
0.09,pd_only,0.3420247540947168,22.586619133603527,0.0030567119211486146,-0.7012227514303719,0.0026322578948087955,-2.20682250440303,0.0010287086029228134,1.5978708236925112,0.8007138583841301,0.03391078702261315,-0.012290299169697656,0.030206503264504744,-0.07582765538903187,0.011301459854610488,-0.02366285311591972,0.007751237041026018,15.285974262394115,-11.732028109072681,9.957389431229295,-4.841237179074419,2.901988962676067,-2.3296044341564563,1.5550217733117526
0.092,pd_only,0.34188405264621213,22.578123030519357,0.003124510147292938,-0.7012473243168844,0.0026926536745673505,-2.2069741126590077,0.0010513051554469684,1.5978235119974977,0.8007293577786623,0.03389911307216164,-0.01228644325622895,0.030197889879277448,-0.07580412798893661,0.011298276262077493,-0.023655847506774776,0.007749697266096661,15.280712027991529,-11.730115697194476,9.953263908189328,-4.832373181927906,2.901329982784653,-2.3284563267331815,1.5547178841532936
0.094,pd_only,0.34174343872955637,22.569632130588506,0.003192285033570317,-0.7012718894983021,0.0027530322320517293,-2.2071256738704412,0.0010738953428094113,1.5977762143106824,0.8007448540942573,0.033887443138689584,-0.01228259070885614,0.03018927874218936,-0.07578060571671551,0.011295093681221415,-0.023648843407660297,0.0077481577975134185,15.275451605206303,-11.728203849062039,9.949139564228954,-4.8235119605701895,2.9006711877641265,-2.3273085624035694,1.554414055362368
0.096,pd_only,0.3416029123442603,22.56114643551191,0.0032600365880149505,-0.7012964469807192,0.002813393571777149,-2.2072771880481405,0.00109647916701482,1.5977289306289386,0.8007603473315286,0.033875777222316716,-0.012278741208582352,0.030180669862709935,-0.07575708884958407,0.011291912102704272,-0.023641840871893804,0.007746618635633007,15.27019299337272,-11.726292570211845,9.945016398850106,-4.814653510606387,2.9000125776283894,-2.326161140728759,1.5541102869247998
0.098,pd_only,0.34146247348990033,22.552665946446837,0.0033277648186595355,-0.7013209967697609,0.0028737376982703104,-2.207428655203322,0.0011190566300538394,1.5976816609490614,0.8007758374910899,0.03386411532229243,-0.012274894520805853,0.030172063246580578,-0.07573357759079458,0.011288731519509711,-0.023634839938589502,0.007745079780712078,15.26493619184637,-11.724381864622305,9.940894411623079,-4.805797828615742,2.89935415237333,-2.325014061363996,1.5538065788268967
0.1,pd_only,0.3413221221661024,22.544190664145873,0.0033954697335343187,-0.7013455388707067,0.0029340646160646343,-2.207580075347501,0.0011416277339065535,1.5976344052677884,0.8007913245735558,0.03385245743739163,-0.012271050472894956,0.030163458897161908,-0.07571007208930093,0.011285551926357017,-0.023627840636426298,0.007743541232934391,15.259681199995144,-11.722471735127845,9.936773602162111,-4.796944911892751,2.8986959119813265,-2.3238673240335874,1.553502931055353
0.10200000000000001,pd_only,0.3411818583725306,22.535720589060695,0.003463151340666618,-0.7013700732885821,0.0029943743296972393,-2.2077314484924093,0.001164192480545071,1.5975871635818155,0.8008068085795407,0.03384080356614966,-0.012267208937720021,0.030154856816302585,-0.07568657245419123,0.011282373319258764,-0.023620842986428088,0.007742002992424565,15.25442801719377,-11.720562183722931,9.932653970109534,-4.7880947582569595,2.8980378564246614,-2.3227209285125796,1.5531993435971456
0.10400000000000001,pd_only,0.34104168210887714,22.527255721419632,0.0035308096480806133,-0.7013946000282253,0.003054666843707033,-2.20788277464994,0.0011867508719354484,1.5975399358878075,0.8008222895096592,0.033829153706997524,-0.012263369821562016,0.03014625700489694,-0.07566307876528713,0.011279195695188694,-0.02361384700399382,0.007740465059259381,15.249176642820576,-11.718653211785346,9.928535515125564,-4.779247365913545,2.8973799856680955,-2.3215748746132476,1.5528958164394884
0.106,pd_only,0.34090159337485526,22.51879606128531,0.0035984446637972864,-0.7014191190943357,0.0031149421626335155,-2.208034053832102,0.0012093029100391144,1.5974927221824067,0.8008377673645262,0.033817507858336586,-0.012259533055232549,0.030137659463241033,-0.0756395910809227,0.011276019051832929,-0.023606852700395923,0.007738927433484149,15.243927076255586,-11.716744820240107,9.924418236881744,-4.770402733350752,2.896722299670804,-2.320429162175219,1.552592349569779
0.108,pd_only,0.3407615921701951,22.5103416085976,0.0036660563958344403,-0.7014436304915108,0.003175200291016033,-2.2081852860509894,0.0012318485968139234,1.597445522462239,0.8008532421447564,0.033805866018577005,-0.012255698587553961,0.030129064191258607,-0.07561610944365824,0.011272843387404464,-0.02359986008387469,0.007737390115118008,15.238679316879507,-11.714837009679883,9.92030213505676,-4.761560859264673,2.8960647983878296,-2.3192837910581874,1.5522889429755402
0.11,pd_only,0.34062167849463865,22.501892363205517,0.0037336448522067504,-0.701468134224272,0.00323544123339332,-2.2083364713187583,0.001254387934214933,1.5973983367239182,0.8008687138509647,0.033794228186155115,-0.012251866380572254,0.030120471188643538,-0.0755926338844724,0.011269668700504897,-0.02359286916044454,0.007735853104157629,15.233433364073166,-11.712929780453377,9.916187209333774,-4.752721742504069,2.8954074817711555,-2.3181387611366024,1.5519855966444003
0.112,pd_only,0.3404818523479374,22.49344832489087,0.003801210040925829,-0.7014926302970841,0.0032956649943032177,-2.20848760964761,0.001276920924194977,1.5973511649640493,0.8008841824837659,0.03378259435953918,-0.012248036406042355,0.030111880454948992,-0.07556916442584262,0.011266494990021966,-0.023585879934489185,0.0077343164005871335,15.228189217217288,-11.711023132730226,9.912073459398746,-4.743885382029792,2.894750349770523,-2.316994072295732,1.5516823105640756
0.114,pd_only,0.3403421137298501,22.485009493385785,0.003868751970000287,-0.7015171187143697,0.0033558715782825033,-2.208638701049778,0.0012994475687050841,1.5973040071792308,0.8008996480437747,0.03377096453722894,-0.012244208642846047,0.03010329198964277,-0.07554570108400314,0.011263322255053563,-0.02357889240919227,0.0077327800043799,15.222946875692388,-11.709117066548679,9.907960884939385,-4.735051776884988,2.8940934023340192,-2.315849724428786,1.5513790847223332
0.116,pd_only,0.3402024626401409,22.476575868385684,0.003936270647435791,-0.70154159948052,0.0034160609898667856,-2.208789745537519,0.0013219678696947876,1.597256863366057,0.8009151105316057,0.03375933871775221,-0.0122403830750999,0.030094705792141213,-0.07552224387060923,0.011260150494851778,-0.02357190658685629,0.007731243915497929,15.217706338878774,-11.707211581850576,9.903849485644509,-4.726220926173311,2.8934366394085265,-2.3147057174348094,1.5510759191069872
0.11800000000000001,pd_only,0.34006289907857856,22.46814744955888,0.004003766081235112,-0.7015660725999014,0.0034762332335904456,-2.208940743123107,0.0013444818291123502,1.5972097335211188,0.8009305699478735,0.03374771689966054,-0.012236559690760755,0.03008612186182997,-0.07549879279395064,0.011256979708781334,-0.023564922469135587,0.007729708133900851,15.212467606156606,-11.705306678507002,9.89973926120363,-4.717392829042773,2.892780060940046,-2.313562051217146,1.5507728137058945
0.12,pd_only,0.33992342304493506,22.459724236553697,0.004071238279398161,-0.7015905380768627,0.0035363883139865986,-2.2090916938188268,0.0013669894489049287,1.5971626176410043,0.8009460262931926,0.03373609908152477,-0.012232738480605644,0.030077540198076364,-0.07547534785984683,0.01125380989628928,-0.0235579400572125,0.007728172659540744,15.207230676905944,-11.703402356337232,9.89563021130671,-4.708567484674079,2.892123666873941,-2.312418725682293,1.550469768506927
0.122,pd_only,0.3397840345389851,22.451306229003684,0.0041386872499220234,-0.7016149959157376,0.003596526235587072,-2.209242597636971,0.0013894907310186943,1.5971155157223005,0.8009614795681773,0.03372448526193095,-0.012228919437483683,0.03006896080023675,-0.07545190907230746,0.01125064105688277,-0.0235509593519216,0.007726637492367754,15.201995550506801,-11.701498615122505,9.891522335644021,-4.6997448922719425,2.891467457155117,-2.311275740739045,1.550166783497986
0.124,pd_only,0.3396447335605056,22.442893426531473,0.004206113000800977,-0.7016394461208492,0.003656647002922394,-2.209393454589839,0.0014119856773989192,1.5970684277615927,0.8009769297734419,0.03371287543947686,-0.012225102555763215,0.0300603836676609,-0.07542847643400986,0.011247473190112463,-0.023543980353839564,0.007725102632327367,15.196762226339207,-11.699595454616217,9.887415633906064,-4.690925051058671,2.890811431728143,-2.310133096297904,1.5498638586669828
0.126,pd_only,0.3395055201092755,22.43448582875164,0.004273515540026516,-0.701663888696511,0.003716750620521783,-2.2095442646897325,0.0014344742899900407,1.597021353755466,0.8009923769096007,0.033701269612769265,-0.012221287830928509,0.030051808799694456,-0.07540504994665505,0.011244306295560762,-0.02353700306335509,0.007723568079366253,15.191530703783247,-11.69769287455138,9.8833101057835,-4.682107960269574,2.890155590537358,-2.3089907922706208,1.5495609940018522
0.128,pd_only,0.3393663941850751,22.42608343527281,0.004340894875587359,-0.7016883236470295,0.0037768370929131437,-2.209695027948955,0.0014569565707357067,1.5969742937005047,0.8010078209772675,0.033689667780421595,-0.012217475259283682,0.03004323619568041,-0.07538162961122774,0.011241140372832994,-0.023530027480722884,0.007722033833428498,15.186300982219109,-11.695790874646121,9.879205750967142,-4.673293619149514,2.8894999335269347,-2.3078488285698757,1.5492581894905215
0.13,pd_only,0.3392273557876859,22.41768624569918,0.004408251015469464,-0.7017127509767049,0.0038369064246230634,-2.2098457443798116,0.0014794325215788087,1.5969272475932925,0.8010232619770564,0.03367806994105231,-0.012213664837734233,0.030034665854959865,-0.07535821542818527,0.011237975421551014,-0.02352305360609119,0.007720499894455838,15.18107306102711,-11.693889454607667,9.875102569147915,-4.664482026950432,2.8888444606409314,-2.306707205109003,1.5489554451209355
0.132,pd_only,0.3390884049168909,22.409294259631686,0.004475583967656031,-0.7017371706898322,0.0038969586201768086,-2.209996413994607,0.0015019021444615062,1.5968802154304134,0.8010386999095812,0.033666476093283486,-0.012209856563627438,0.030026097776872616,-0.07533480739759983,0.011234811441348727,-0.023516081439535614,0.0077189662623897955,15.175846939587712,-11.691988614135324,9.871000560016867,-4.6556731829294655,2.8881891718233295,-2.305565921801857,1.5486527608810483
0.134,pd_only,0.33894954157247387,22.400907476668817,0.004542893740127511,-0.7017615827907014,0.003956993684098324,-2.2101470368056453,0.0015243654413252432,1.5968331972084513,0.8010541347754555,0.03365488623573993,-0.012206050434634918,0.03001753196075738,-0.07531140551925841,0.011231648431868553,-0.023509110981078284,0.0077174329371721756,15.170622617281548,-11.690088352922636,9.866899723265153,-4.646867086347604,2.8875340670180623,-2.3044249785626563,1.5483501367588168
0.136,pd_only,0.33881076575421926,22.392525896407243,0.004610180340861607,-0.7017859872835988,0.004017011620910228,-2.2102976128252307,0.0015468224141107617,1.59678619292399,0.801069566575293,0.03364330036704841,-0.012202246448667183,0.030008968405952026,-0.07528800979274156,0.011228486392759208,-0.023502142230701607,0.007715899918744766,15.16540009348944,-11.688188670658993,9.862800058584028,-4.638063736468715,2.8868791461690315,-2.303284375305891,1.5480475727422012
0.138,pd_only,0.3386720774619125,22.384149518442225,0.004677443777833282,-0.7018103841728064,0.004077012435133815,-2.210448142065666,0.0015692730647581094,1.5967392025736131,0.8010849953097071,0.033631718485837146,-0.012198444603809248,0.030000407111793737,-0.07526462021747618,0.011225325323673792,-0.023495175188356584,0.0077143672070473296,15.160179367592393,-11.686289567030757,9.858701565664859,-4.629263132558756,2.886224409220122,-2.3021441119462405,1.54774506881916
0.14,pd_only,0.3385334766953399,22.375778342368008,0.004744684059014753,-0.7018347734626029,0.004136996131289053,-2.2105986245392515,0.0015917173952066466,1.5966922261539052,0.8011004209793111,0.033620140590735446,-0.012194644898274813,0.029991848077619163,-0.07524123679277644,0.011222165224268584,-0.023488209853973957,0.007712834802021078,15.154960438971619,-11.684391041722158,9.854604244199109,-4.620465273885302,2.885569856115214,-2.3010041883985455,1.5474426249776685
0.14200000000000002,pd_only,0.33839496345428827,22.36741236777802,0.0048119011923755,-0.7018591551572637,0.004196962713894582,-2.210749060258287,0.001614155407395051,1.5966452636614503,0.8011158435847183,0.03360856668037345,-0.012190847330373412,0.02998329130276445,-0.07521785951787627,0.011219006094202216,-0.02348124622746683,0.007711302703605834,15.149743307008523,-11.682493094415918,9.850508093878336,-4.611670159717162,2.884915486798189,-2.2998646045777593,1.5471402412056936
0.14400000000000002,pd_only,0.33825653773854486,22.359051594265058,0.0048790951858822635,-0.7018835292610607,0.004256912187467713,-2.210899449235071,0.0016365871032613208,1.596598315092833,0.8011312631265418,0.03359699675338197,-0.012187051898483162,0.029974736786565474,-0.0751944883919481,0.011215847933134931,-0.02347428430873869,0.007709770911741759,15.144527971084731,-11.680595724793672,9.846413114394204,-4.602877789324027,2.8842613012129354,-2.298725360398924,1.5468379174912104
0.146,pd_only,0.33811819954789757,22.350696021421435,0.0049462660474990485,-0.7019078957782627,0.004316844556524429,-2.211049791481899,0.001659012484742777,1.5965513804446376,0.8011466796053945,0.03358543080839235,-0.012183258601033552,0.029966184528357868,-0.07517112341411862,0.01121269074072807,-0.023467324097681333,0.0077082394263693205,15.139314430582074,-11.67869893253638,9.842319305438474,-4.594088161976283,2.8836072993033506,-2.297586455777129,1.5465356538221968
0.148,pd_only,0.3379799488821348,22.34234564883903,0.0050134137851871215,-0.7019322547131357,0.0043767598255793835,-2.211200087011066,0.0016814315537760649,1.5965044597134492,0.8011620930218893,0.0335738688440364,-0.012179467436492479,0.029957634527477083,-0.07514776458348332,0.011209534516643936,-0.023460365594183494,0.007706708247427427,15.134102684882585,-11.67680271732451,9.838226666702996,-4.585301276944879,2.8829534810133484,-2.2964478906275336,1.546233450186632
0.15,pd_only,0.33784178574104534,22.334000476109416,0.005080538406905014,-0.7019566060699424,0.004436657999145901,-2.2113503358348643,0.0017038443122971557,1.596457552895853,0.8011775033766391,0.033562310858946405,-0.012175678403356129,0.029949086783258517,-0.07512441189911383,0.011206379260545428,-0.023453408798126355,0.00770517737485793,15.128892733368522,-11.674907078838247,9.834135197879718,-4.576517133501212,2.8822998462868545,-2.295309664865313,1.5459313065725035
0.152,pd_only,0.33770371012441835,22.325660502823858,0.005147639920608524,-0.7019809498529427,0.0044965390817359755,-2.2115005379655845,0.0017262507622413477,1.596410659988434,0.8011929106702562,0.033550756851755,-0.012171891500140678,0.029940541295037603,-0.07510106536006449,0.011203224972095928,-0.023446453709387884,0.007703646808600159,15.12368457542235,-11.673012016757623,9.830044898660685,-4.56773573091702,2.8816463950678126,-2.2941717784056905,1.545629222967787
0.154,pd_only,0.3375657220320436,22.31732572857338,0.005214718334250715,-0.7020052860663935,0.004556403077860275,-2.2116506934155153,0.0017486509055432658,1.5963637809877784,0.8012083149033534,0.033539206821095256,-0.012168106725377804,0.029931998062149856,-0.07507772496537402,0.011200071650959053,-0.023439500327848344,0.007702116548593658,15.11847821042675,-11.671117530762615,9.825955768738032,-4.558957068464299,2.8809931273001843,-2.293034231163911,1.5453271993604751
0.156,pd_only,0.3374278214637109,22.30899615294878,0.005281773655781916,-0.7020296147145487,0.004616249992028137,-2.2118008021969433,0.0017710447441368637,1.5963169158904718,0.801223716076543,0.033527660765600584,-0.012164324077611498,0.029923457083930908,-0.0750543907140756,0.01119691929679889,-0.02343254865337771,0.007700586594778178,15.113273637764609,-11.669223620533232,9.821867807803981,-4.550181145415355,2.8803400429279478,-2.291897023055219,1.545025235738557
0.158,pd_only,0.33729000841921025,22.300671775540657,0.005348805893149725,-0.7020539358016595,0.00467607982874757,-2.2119508643221537,0.001793432279955423,1.5962700646931,0.8012391141904371,0.03351611868390483,-0.012160543555394115,0.029914918359716592,-0.0750310626051931,0.011193767909279577,-0.02342559868584934,0.007699056947094561,15.108070856819038,-11.66733028574954,9.81778101555086,-4.541407961042662,2.879687141895101,-2.2907601539949054,1.544723332090028
0.16,pd_only,0.33715228289833227,22.292352595939402,0.00541581505429901,-0.702078249331974,0.0047358925925252565,-2.212100879803429,0.0018158135149315539,1.5962232273922499,0.8012545092456481,0.03350458057464225,-0.01215676515728382,0.029906381888842995,-0.07500774063774415,0.01119061748806546,-0.023418650425135405,0.0076975276054829355,15.102869866973355,-11.665437526091718,9.81369539167107,-4.532637514618862,2.8790344241456602,-2.289623623898255,1.544421488402879
0.162,pd_only,0.3370146449008673,22.284038613735234,0.005482801147171905,-0.7021025553097378,0.004795688287866549,-2.2122508486530506,0.0018381884509971963,1.5961764039845077,0.8012699012427879,0.033493046436447446,-0.01215298888184546,0.02989784767064645,-0.07498442481074619,0.011187468032821172,-0.02341170387110554,0.00769599856988272,15.09767066761109,-11.6635453412401,9.809610935857116,-4.523869805416824,2.8783818896236606,-2.28848743268057,1.544119704665106
0.164,pd_only,0.33687709442660624,22.275729828518177,0.005549764179707816,-0.702126853739193,0.004855466919275477,-2.212400770883297,0.0018605570900836188,1.5961295944664604,0.8012852901824683,0.033481516267955466,-0.012149214727646363,0.029889315704463626,-0.07496111512320995,0.011184319543211288,-0.02340475902362944,0.0076944698402335605,15.092473258115986,-11.661653730875141,9.805527647801583,-4.515104832709521,2.877729538273157,-2.2873515802571642,1.5438179808647121
0.166,pd_only,0.33673963147533986,22.26742623987809,0.00561670415984342,-0.7021511446245795,0.00491522849125474,-2.212550646506445,0.00188291943412142,1.5960827988346953,0.8013006760653013,0.0334699900678018,-0.01214544269325758,0.029880785989631484,-0.07493781157414627,0.011181172018900669,-0.023397815882578506,0.007692941416476193,15.087277637871999,-11.659762694677505,9.801445527197155,-4.506342595770103,2.8770773700382235,-2.2862160665433633,1.5435163169896997
0.168,pd_only,0.3366022560468591,22.25912784740467,0.005683621095512664,-0.702175427970134,0.004974973008305714,-2.21270047553477,0.0019052754850405287,1.5960360170857997,0.8013160588918984,0.03345846783462233,-0.012141672777253044,0.029872258525487354,-0.07491451416256519,0.01117802545955428,-0.02339087444781763,0.0076914132985506705,15.082083806263302,-11.657872232328032,9.797364573736589,-4.4975830938718495,2.8764253848629537,-2.2850808914544896,1.5432147130280691
0.17,pd_only,0.33646496814095495,22.250834650687416,0.005750514994646771,-0.7021997037800904,0.005034700474928452,-2.212850257980545,0.0019276252447702029,1.5959892492163612,0.8013314386628712,0.033446949567053394,-0.012137904978207251,0.029863733311368976,-0.0748912228874719,0.011174879864837051,-0.02338393471921736,0.007689885486396372,15.076891762674277,-11.655982343507736,9.793284787112752,-4.488826326288157,2.8757735826914583,-2.2839460549059036,1.5429131689678297
0.17200000000000001,pd_only,0.3363277677574184,22.24254664931569,0.005817385865174235,-0.7022239720586798,0.005094410895621681,-2.2129999938560405,0.0019499687152390315,1.595942495222968,0.801346815378831,0.03343543526373173,-0.012134139294698415,0.029855210346614425,-0.07486793774787502,0.011171735234414273,-0.02337699669664541,0.0076883579799537985,15.07170150648951,-11.654093027897861,9.789206167018579,-4.480072292292602,2.8751219634678713,-2.2828115568129435,1.5426116847969915
0.17400000000000002,pd_only,0.3361906548960402,22.234263842878644,0.005884233715020824,-0.7022482328101304,0.005154104274882805,-2.2131496831735262,0.001972305898374934,1.595895755102208,0.8013621890403894,0.03342392492329457,-0.012130375725305039,0.029846689630562192,-0.07484465874278072,0.011168591567951195,-0.02337006037996929,0.007686830779162789,15.066513037093817,-11.652204285179835,9.785128713147108,-4.4713209911588345,2.8744705271363435,-2.2816773970909714,1.5423102605035646
0.176,pd_only,0.3360536295566115,22.225986230965294,0.005951058552109583,-0.7022724860386675,0.0052137806172079075,-2.2132993259452687,0.0019946367961051602,1.59584902885067,0.8013775596481573,0.03341241854437957,-0.012126614268606645,0.029838171162551205,-0.07482138587119286,0.01116544886511315,-0.023363125769056144,0.007685303883963424,15.061326353872209,-11.650316115035297,9.781052425191458,-4.462572422160635,2.8738192736410446,-2.280543575655352,1.5420088960755618
0.178,pd_only,0.33591669173892286,22.21771381316447,0.006017860384360833,-0.7022967317485139,0.005273439927091749,-2.2134489221835327,0.0020169614103562918,1.5958023164649424,0.8013929272027459,0.033400916125624826,-0.012122854923184644,0.029829654941920778,-0.07479811913211777,0.011162307125565736,-0.02335619286377163,0.007683777294296033,15.05614145620992,-11.648428517146101,9.776977302844832,-4.453826584571966,2.8731682029261663,-2.2794100924214673,1.541707591501001
0.18,pd_only,0.33577984144276485,22.20944658906481,0.006084639219692171,-0.7023209699438892,0.00533308220902777,-2.213598471900582,0.0020392797430542407,1.5957556179416144,0.8014082917047661,0.033389417665668907,-0.012119097687621622,0.029821140968010636,-0.07477485852456041,0.011159166348974577,-0.023349261663983833,0.007682251010100289,15.050958343492386,-11.646541491194299,9.772903345800527,-4.445083477666874,2.872517314935917,-2.278276947304702,1.5414063467678978
0.182,pd_only,0.3356430786679278,22.201184558254806,0.006151395066018472,-0.7023452006290102,0.005392707467508092,-2.213747975108677,0.0020615917961242514,1.5957089332772751,0.8014236531548288,0.033377923163150816,-0.012115342560500451,0.02981262924016099,-0.07475160404752434,0.011156026535005371,-0.023342332169558118,0.007680725031317048,15.04577701510526,-11.644655036862163,9.768830553751929,-4.436343100719498,2.871866609614526,-2.2771441402204395,1.5411051618642764
0.184,pd_only,0.33550640341420207,22.192927720322757,0.006218127931251893,-0.702369423808091,0.005452315707023517,-2.2138974318200773,0.0020838975714908997,1.5956622624685144,0.8014390115535446,0.033366432616710025,-0.012111589540405653,0.029804119757712424,-0.07472835570001506,0.011152887683324057,-0.02333540438036125,0.007679199357884726,15.040597470434413,-11.642769153832177,9.764758926392501,-4.4276054530041495,2.8712160869062404,-2.276011671084088,1.5408040367781564
0.186,pd_only,0.33536981568137764,22.18467607485678,0.006284837823301866,-0.7023936394853428,0.005511906932063529,-2.2140468420470394,0.002106197071078093,1.595615605511922,0.801454366901524,0.03335494602498648,-0.012107838625921923,0.029795612520006023,-0.07470511348103522,0.011149749793596536,-0.02332847829626065,0.007677673989745627,15.035419708865907,-11.64088384178704,9.760688463415805,-4.41887053379523,2.8705657467553287,-2.2748795398110535,1.5405029714975695
0.188,pd_only,0.33523331546924384,22.176429621444836,0.006351524750075107,-0.7024178476649741,0.005571481147116295,-2.2141962058018185,0.002128490296809071,1.5955689624040876,0.8014697191993777,0.03334346338662056,-0.012104089815636161,0.02978710752638322,-0.074681877389591,0.011146612865489035,-0.023321553917121148,0.007676148926837831,15.030243729786042,-11.638999100409665,9.756619164515481,-4.410138342367301,2.869915589106078,-2.2737477463167455,1.5402019660105366
0.19,pd_only,0.3350969027775901,22.168188359674662,0.006418188719475613,-0.7024420483511903,0.005631038356668667,-2.214345523096668,0.0021507772506064063,1.595522333141602,0.8014850684477159,0.033331984700253114,-0.012100343108134529,0.029778604776185984,-0.07465864742468432,0.01114347689866765,-0.023314631242806527,0.0076746241691024435,15.025069532581304,-11.637114929383166,9.752551029385259,-4.401408877994994,2.8692656139027934,-2.272616290516585,1.5399010203050947
0.192,pd_only,0.3349605776062053,22.15995228913386,0.0064848297394046635,-0.7024662415481943,0.00569057856520618,-2.2144947939438384,0.002173057934392004,1.5954757177210557,0.8015004146471489,0.03332050996452548,-0.012096598502004813,0.02977010426875667,-0.0746354235853198,0.011140341892798812,-0.023307710273184474,0.007673099716479929,15.01989711663841,-11.635231328390892,9.74848405771896,-4.392682139953093,2.868615821089802,-2.2714851723260168,1.5396001343692716
0.194,pd_only,0.33482433995487765,22.151721409409802,0.006551447817760822,-0.702490427260186,0.005750101777213057,-2.2146440183555796,0.0021953323500871016,1.5954291161390395,0.8015157577982868,0.033309039178079404,-0.012092855995835754,0.029761606003438103,-0.07461220587050078,0.011137207847548947,-0.02330079100811912,0.007671575568909286,15.014726481344269,-11.63334829711639,9.744418249210486,-4.383958127516513,2.8679662106114474,-2.270354391660469,1.5392993081911015
0.196,pd_only,0.3346881898233953,22.143495720089707,0.006618042962439936,-0.7025146054913624,0.005809607997172204,-2.214793196344138,0.002217600499612271,1.5953825283921446,0.8015310979017394,0.03329757233955715,-0.012089115588216853,0.029753109979573544,-0.07458899427923095,0.011134074762584649,-0.02329387344747537,0.007670051726332532,15.009557626086025,-11.631465835243421,9.740353603553828,-4.375236839960235,2.867316782412093,-2.2692239484353913,1.5389985417586276
0.198,pd_only,0.3345521272115457,22.13527522076059,0.006684615181335139,-0.7025387762459179,0.005869097229565217,-2.2149423279217593,0.0022398623848874162,1.5953359544769623,0.8015464349581167,0.0332861094476014,-0.012085377277738334,0.02974461619650668,-0.07456578881051336,0.011130942637572612,-0.02328695759111736,0.007668528188687505,15.004390550251006,-11.629583942455975,9.736290120443064,-4.366518276559423,2.8666675364361245,-2.268093842566237,1.5386978350598826
0.2,pd_only,0.33441615211911585,22.12705991100927,0.00675116448233685,-0.7025629395280438,0.00592856947887238,-2.215091413100686,0.0022621180078317756,1.5952893943900845,0.8015617689680286,0.03327465050085534,-0.012081641062991009,0.029736124653581688,-0.07454258946335116,0.011127811472179665,-0.023280043438911394,0.007667004955915981,14.999225253226768,-11.627702618438231,9.732227799572353,-4.357802436589326,2.866018472627942,-2.2669640739684707,1.5383971880829155
0.202,pd_only,0.3342802645458919,22.118849790422395,0.0068176908733327745,-0.702587095341929,0.005988024749572666,-2.2152404518931594,0.002284367370363921,1.5952428481281031,0.8015770999320845,0.033263195497962604,-0.01207790694256704,0.029727635350143142,-0.07451939623674728,0.01112468126607274,-0.023273130990721026,0.007665482027957371,14.994061734401079,-11.625821862874618,9.728166640635951,-4.349089319325357,2.8653695909319694,-2.2658346425575564,1.538096600815765
0.20400000000000001,pd_only,0.3341444644916598,22.11064485858639,0.006884194362207909,-0.7026112436917591,0.006047463046143738,-2.215389444311419,0.002306610474401759,1.5951963156876103,0.801592427850894,0.033251744437567274,-0.012074174915059332,0.029719148285536075,-0.07449620912970603,0.011121552018918957,-0.023266220246408134,0.007663959404752344,14.988899993161901,-11.62394167544974,9.724106643328195,-4.340378924042977,2.8647208912926465,-2.264705548248973,1.537796073246481
0.20600000000000002,pd_only,0.3340087519562045,22.102445115087505,0.006950674956844537,-0.7026353845817173,0.006106884373061949,-2.2155383903677013,0.00232884732186253,1.5951497970651987,0.8016077527250665,0.03324029731831392,-0.012070444979061184,0.029710663459105988,-0.07447302814122932,0.011118423730385433,-0.02325931120584018,0.007662437086241005,14.983740028897426,-11.62206205584844,9.720047807343505,-4.331671250017827,2.864072373654434,-2.2635767909582176,1.5374956053631104
0.20800000000000002,pd_only,0.33387312693931037,22.094250559511785,0.007017132665122232,-0.7026595180159836,0.006166288734802347,-2.215687290074242,0.002351077914662809,1.5951032922574608,0.8016230745552112,0.033228854138847554,-0.012066717133167284,0.029702180870198797,-0.07444985327032104,0.011115296400139533,-0.023252403868877586,0.007660915072363847,14.978581840996045,-11.620183003755761,9.71599013237639,-4.322966296525646,2.8634240379618117,-2.2624483706007656,1.537195197153707
0.21,pd_only,0.3337375894407611,22.086061191445072,0.007083567494917859,-0.7026836439987355,0.006225676135838669,-2.215836143443274,0.0023733022547185066,1.59505680126099,0.8016383933419373,0.03321741489781368,-0.012062991375972497,0.029693700518160875,-0.07442668451598361,0.011112170027848658,-0.02324549823538586,0.007659393363059916,14.973425428846356,-11.61830451885697,9.71193361812145,-4.31426406284229,2.8627758841592787,-2.261320287092133,1.5368948486063208
0.212,pd_only,0.3336021394603395,22.077877010473014,0.007149979454105576,-0.7027077625341477,0.006285046580643347,-2.2159849504870284,0.0023955203439448673,1.5950103240723796,0.8016537090858539,0.03320597959385824,-0.01205926770607256,0.029685222402339066,-0.07440352187721871,0.011109044613180317,-0.02323859430522873,0.007657871958270459,14.968270791837181,-11.616426600837542,9.707878264273363,-4.305564548243736,2.862127912191353,-2.2601925403478216,1.536594559709014
0.214,pd_only,0.33346677699782756,22.06969801618105,0.007216368550556831,-0.7027318736263918,0.0063444000736875075,-2.2161337112177346,0.0024177321842564718,1.594963860688223,0.8016690217875697,0.03319454822562765,-0.012055546122064716,0.029676746522080598,-0.07438036535302965,0.011105920155802222,-0.023231692078267464,0.007656350857935299,14.963117929357539,-11.614549249383167,9.703824070526895,-4.2968677520061265,2.8614801220025723,-2.2590651302833473,1.5362943304498409
0.216,pd_only,0.3333315020530066,22.06152420815442,0.007282734792140369,-0.7027559772796369,0.006403736619440974,-2.2162824256476195,0.002439937777567236,1.5949174111051143,0.8016843314476937,0.03318312079176879,-0.012051826622546464,0.029668272876733206,-0.0743572149424195,0.011102796655382182,-0.02322479155436441,0.007654830061995556,14.957966840796669,-11.61267246417975,9.699771036576909,-4.288173673405643,2.860832513537493,-2.2579380568142384,1.5359941608168646
0.218,pd_only,0.33319631462565674,22.05335558597815,0.007349078186722226,-0.7027800734980492,0.006463056222372265,-2.2164310937889082,0.002462137125790412,1.5948709753196475,0.8016996380668344,0.033171697290929,-0.012048109206116287,0.029659801465645015,-0.07433407064439009,0.011099674111588067,-0.02321789273338471,0.007653309570390037,14.95281752554401,-11.610796244913395,9.695719162118333,-4.279482311718653,2.8601850867406897,-2.256811319856036,1.535694050798144
0.22,pd_only,0.33306121471555744,22.04519214923705,0.007415398742165739,-0.7028041622857919,0.006522358886948594,-2.216579715653824,0.0024843302308385877,1.594824553328417,0.8017149416456005,0.033160277721756094,-0.012044393871373175,0.029651332288164616,-0.07431093245794351,0.01109655252408792,-0.023210995615189186,0.007651789383059794,14.947669982989217,-11.608920591270437,9.6916684468462,-4.270793666221621,2.8595378415567594,-2.255684919324264,1.5353940003817517
0.222,pd_only,0.332926202322487,22.037033897515744,0.007481696466331535,-0.7028282436470258,0.006581644617635877,-2.2167282912545883,0.0025065170946236876,1.5947781451280179,0.8017302421846004,0.03314886208289834,-0.01204068061691727,0.029642865343641057,-0.07428780038208183,0.01109343189254988,-0.023204100199640972,0.0076502694999453676,14.942524212522157,-11.60704550293742,9.687618890455623,-4.262107736191138,2.858890777930315,-2.2545588551344813,1.5350940095557504
0.224,pd_only,0.3327912774462228,22.028880830398617,0.007547971367077544,-0.7028523175859085,0.006640913418898724,-2.21687682060342,0.0025286977190569723,1.5947317507150447,0.8017455396844424,0.033137450373004466,-0.012036969441349764,0.02963440063142379,-0.0742646744158083,0.011090312216642277,-0.023197206486600053,0.007648749920986833,14.9373802135329,-11.605170979601093,9.683570492641795,-4.253424520903902,2.85824389580599,-2.2534331272022414,1.5347940783082101
0.226,pd_only,0.3326564400865411,22.020732947469856,0.007614223452258991,-0.702876384106595,0.006700165295200449,-2.217025303712536,0.002550872106049039,1.5946853700860928,0.8017608341457346,0.03312604259072367,-0.012033260343271722,0.029625938150862754,-0.07424155455812326,0.011087193496033418,-0.02319031447593061,0.007647230646123798,14.932237985411733,-11.603297020948423,9.679523253100005,-4.244744019636736,2.857597195128437,-2.252307735443117,1.5344942066272047
0.228,pd_only,0.3325216902432171,22.01259024831343,0.007680452729728403,-0.7029004432132376,0.006759400251003066,-2.217173740594152,0.002573040257509823,1.5946390032377578,0.8017761255690852,0.03311463873470562,-0.012029553321286225,0.02961747790130828,-0.07421844080802988,0.011084075730391888,-0.02318342416749306,0.00764571167529812,14.92709752754915,-11.601423626666591,9.675477171525616,-4.236066231666621,2.8569506758423286,-2.2511826797726666,1.5341943945008123
0.23,pd_only,0.3323870279160248,22.004452732513073,0.007746659207335604,-0.7029244949099857,0.006818618290767288,-2.217322131260481,0.0025952021753485955,1.5945926501666354,0.8017914139551021,0.03310323880360043,-0.012025848373996405,0.02960901988211118,-0.07419533316452964,0.011080958919386293,-0.023176535561148185,0.007644193008448496,14.921958839335852,-11.59955079644298,9.671432247614085,-4.227391156270594,2.8563043378923543,-2.2500579601064783,1.5338946419171042
0.232,pd_only,0.3322524531047371,21.99632039965232,0.007812842892927722,-0.7029485392009857,0.0068778194189525335,-2.2174704757237342,0.0026173578614739662,1.5945463108693219,0.8018066993043932,0.033091842796058674,-0.012022145500006458,0.029600564092622683,-0.07417223162662492,0.011077843062685418,-0.023169648656758052,0.007642674645515881,14.916821920162747,-11.597678529965195,9.667388481060955,-4.218718792725863,2.855658181223224,-2.248933576360145,1.5335949488641638
0.234,pd_only,0.3321179658091257,21.98819324931447,0.007879003794349184,-0.7029725760903816,0.006937003640016923,-2.217618773996121,0.0026395073177938825,1.5944999853424136,0.801821981617566,0.033080450710731436,-0.012018444697920856,0.029592110532194457,-0.07414913619331644,0.011074728159958096,-0.023162763454184734,0.0076411565864399015,14.911686769420962,-11.595806826921056,9.66334587156185,-4.210049140309713,2.8550122057796687,-2.247809528449256,1.5332953153300728
0.23600000000000002,pd_only,0.33198356602896095,21.98007128108261,0.007945141919441725,-0.7029966055823142,0.00699617095841728,-2.217767026089848,0.0026616505462156294,1.594453673582507,0.8018372608952283,0.033069062546270185,-0.01201474596634575,0.029583659200178632,-0.0741260468636063,0.011071614210873352,-0.023155879953287946,0.007639638831162467,14.906553386501825,-11.593935686998583,9.659304418812482,-4.201382198299601,2.8543664115064353,-2.2466858162894154,1.5329957413029203
0.23800000000000002,pd_only,0.33184925376401203,21.97195449453959,0.008011257276044379,-0.703020627680922,0.007055321378609135,-2.2179152320171207,0.00268378754864583,1.5944073755861992,0.8018525371379875,0.03305767830132692,-0.012011049303887342,0.029575210095927736,-0.0741029636364959,0.011068501215100304,-0.023148998153926872,0.007638121379622346,14.90142177079688,-11.592065109886018,9.655264122508648,-4.19271796597308,2.8537207983482915,-2.245562439796235,1.5326962267707835
0.24,pd_only,0.3317150290140464,21.963842889268054,0.008077349871993487,-0.7030446423903403,0.007114454905046725,-2.218063391790143,0.0027059183269904463,1.5943610913500872,0.801867810346451,0.03304629797455406,-0.012007354709153336,0.029566763218794773,-0.07407988651098645,0.011065389172308156,-0.0231421180559634,0.007636604231761505,14.896291921697873,-11.590195095271817,9.651224982346227,-4.184056442607814,2.8530753662500232,-2.2444393988853446,1.53239677172176
0.242,pd_only,0.33158089177883077,21.955736464850375,0.008143419715122696,-0.7030686497147017,0.007173571542182991,-2.218211505421115,0.002728042883154779,1.5943148208707687,0.801883080521226,0.033034921564604525,-0.012003662180750945,0.029558318568133166,-0.07405681548607819,0.011062278082166279,-0.023135239659256932,0.0076350873875188,14.891163838596764,-11.58832564284463,9.64718699802119,-4.175397627481578,2.8524301151564377,-2.2433166934723627,1.5320973761439332
0.244,pd_only,0.33144684205812985,21.94763522086875,0.008209466813262959,-0.7030926496581363,0.0072326712944695845,-2.2183595729222363,0.0027501612190434675,1.5942685641448413,0.8018983476629197,0.03302354907013165,-0.011999971717290182,0.02954987614329675,-0.07403375056077394,0.011059167944344205,-0.02312836296366867,0.0076335708468353945,14.886037520885722,-11.586456752293346,9.643150169229594,-4.166741519872341,2.8517850450123587,-2.2421943234729325,1.5317980400254043
0.246,pd_only,0.33131287985170715,21.939539156905088,0.008275491174242538,-0.7031166422247711,0.007291754166356864,-2.2185075943057044,0.0027722733365604904,1.5942223211689033,0.8019136117721389,0.03301218048978926,-0.01199628331738078,0.029541435943639824,-0.07401069173407451,0.011056058758511494,-0.023121487969057317,0.007632054609651165,14.880912967957123,-11.584588423307029,9.639114495667569,-4.1580881190581,2.851140155762631,-2.2410722888026893,1.531498763354265
0.248,pd_only,0.3311790051593247,21.93144827254109,0.008341492805887002,-0.7031406274187304,0.007350820162293898,-2.2186555695837145,0.0027943792376091663,1.5941760919395527,0.8019288728494908,0.03300081582223164,-0.011992596979632836,0.029532997968517136,-0.07398763900498107,0.011052950524337886,-0.023114614675281815,0.007630538675907409,14.87579017920355,-11.58272065557498,9.63507997703134,-4.149437424317005,2.8504954473521162,-2.2399505893772953,1.5311995461186167
0.25,pd_only,0.3310452179807429,21.92336256735822,0.00840747171601923,-0.7031646052441357,0.007409869286728466,-2.2188034987684593,0.002816478924092153,1.5941298764533882,0.8019441308955818,0.03298945506611354,-0.011988912702657879,0.029524562217283848,-0.07396459237249431,0.011049843241493197,-0.023107743082202994,0.007629023045543234,14.870669154017799,-11.580853448786707,9.63104661301722,-4.1407894349273375,2.849850919725698,-2.2388292251124082,1.530900388306555
0.252,pd_only,0.3309115183157206,21.915282040937715,0.00847342791245941,-0.7031885757051058,0.007468901544107057,-2.2189513818721305,0.002838572397911448,1.5940836747070088,0.8019593859110188,0.03297809822009014,-0.011985230485068039,0.029516128689295564,-0.07394155183561439,0.011046736909647373,-0.023100873189680165,0.007627507718500108,14.865549891792872,-11.578986802631931,9.627014403321601,-4.132144150167516,2.849206572828277,-2.2377081959236906,1.530601289906191
0.254,pd_only,0.3307779061640149,21.90720669286054,0.008539361403025044,-0.7032125388057568,0.007527916938874874,-2.219099218906917,0.0028606596609683887,1.5940374866970137,0.8019746378964082,0.03296674528281712,-0.011981550325475904,0.02950769738390833,-0.07391851739334182,0.01104363152847051,-0.023094004997570756,0.007625992694718226,14.860432391921984,-11.577120716800579,9.622983347640957,-4.123501569316043,2.848562406604773,-2.23658750172682,1.5303022509056239
0.256,pd_only,0.3306443815253815,21.899136522707458,0.008605272195530946,-0.7032364945502019,0.007586915475475831,-2.2192470098850063,0.0028827407151636544,1.5939913124200022,0.8019898868523565,0.03295539625295064,-0.011977872222495571,0.02949926830047858,-0.07389548904467756,0.011040527097632822,-0.0230871385057351,0.007624477974138324,14.855316653798557,-11.575255190982787,9.61895344567186,-4.11486169165158,2.847918421000125,-2.2354671424374892,1.5300032712929628
0.258,pd_only,0.33051094439957407,21.89107153005894,0.00867116029778924,-0.7032604429425514,0.007645897158352557,-2.2193947548185835,0.0029048155623972636,1.5939451518725742,0.8020051327794699,0.03294405112914723,-0.011974196174742185,0.029490841438363218,-0.07387246678862328,0.011037423616804664,-0.023080273714029664,0.007622963556699906,14.850202676816217,-11.573390224868911,9.61492469711095,-4.10622451645286,2.8472746159592934,-2.2343471179713807,1.5297043510563166
0.26,pd_only,0.33037759478634476,21.883011714495247,0.008737025717609368,-0.7032843839869131,0.007704861991946396,-2.219542453719832,0.0029268842045685763,1.5938990050513295,0.8020203756783546,0.03293270991006397,-0.011970522180830376,0.029482416796919587,-0.07384945062417804,0.011034321085656417,-0.023073410622314144,0.007621449442344839,14.8450904603688,-11.571525818149494,9.610897101654961,-4.097590042998773,2.8466309914272547,-2.2332274282442075,1.5294054901838017
0.262,pd_only,0.33024433268544384,21.87495707559638,0.008802868462798085,-0.7033083176873918,0.007763809980697407,-2.219690106600933,0.002948946643576294,1.5938528719528686,0.8020356155496167,0.032921372594358365,-0.01196685023937676,0.02947399437550544,-0.07382644055034285,0.011031219503858672,-0.02306654923044545,0.007619935631011967,14.839980003850355,-11.569661970515329,9.606870659000718,-4.0889582705683125,2.8459875473490044,-2.2321080731716676,1.5291066886635287
0.264,pd_only,0.3301111580966198,21.866907612942093,0.008868688541159462,-0.7033322440480898,0.007822741129044365,-2.219837713474065,0.0029710028813184582,1.593806752573792,0.802050852393862,0.03291003918068837,-0.011963180348998344,0.02946557417347896,-0.0738034365661186,0.011028118871082147,-0.023059689538282902,0.007618422122642509,14.834871306655135,-11.567798681657383,9.602845368845117,-4.080329198440613,2.8453442836695593,-2.2309890526694884,1.5288079464836188
0.266,pd_only,0.32997807101961907,21.858863326111877,0.008934485960494887,-0.7033561630731064,0.007881655441424763,-2.2199852743514064,0.0029930529196924532,1.5937606469107006,0.8020660862116963,0.032898709667712425,-0.011959512508312146,0.02945715619019882,-0.07378043867050303,0.011025019186997533,-0.023052831545683827,0.007616908917177384,14.829764368177607,-11.565935951266837,9.598821230885148,-4.071702825894917,2.8447012003339536,-2.229870366653386,1.5285092636321904
0.268,pd_only,0.3298450714541864,21.850824214684987,0.009000260728603066,-0.7033800747665383,0.00794055292227481,-2.2201327892451315,0.003015096760595005,1.5937145549601957,0.8020813170037254,0.03288738405408942,-0.011955846715937945,0.029448740425024007,-0.073757446862499,0.011021920451275896,-0.023045975252506585,0.007615396014556292,14.824659187812435,-11.564073779035112,9.594798244817879,-4.063079152210604,2.8440582972872415,-2.2287520150390967,1.528210640097365
0.27,pd_only,0.32971215940006454,21.842790278240408,0.009066012853280023,-0.7034039791324793,0.007999433576029438,-2.2202802581674135,0.003037134405922181,1.5936684767188785,0.8020965447705549,0.032876062338478694,-0.011952182970494626,0.029440326877314037,-0.07373446114110471,0.011018822663588172,-0.023039120658605902,0.007613883414720452,14.819555764954503,-11.562212164653802,9.590776410340474,-4.054458176667138,2.843415574474495,-2.227633997742358,1.5279120758672664
0.272,pd_only,0.3295793348569941,21.834761516356874,0.009131742342319104,-0.7034278761750206,0.008058297407122295,-2.220427681130424,0.003059165857569392,1.5936224121833509,0.8021117695127902,0.03286474451954006,-0.011948521270602159,0.029431915546428822,-0.07371148150532042,0.011015725823605566,-0.02303226776384117,0.007612371117609873,14.814454098998898,-11.560351107814729,9.58675572715017,-4.04583989854416,2.8427730318408058,-2.226516314678932,1.5276135709300198
0.274,pd_only,0.3294465978247136,21.826737928612857,0.009197449203510972,-0.7034517658982503,0.008117144419985753,-2.2205750581463324,0.003081191117431391,1.5935763613502147,0.8021269912310365,0.03285343059593378,-0.011944861614882384,0.029423506431728686,-0.07368850795414686,0.011012629930999393,-0.023025416568070077,0.007610859123165198,14.80935418934091,-11.558490608209922,9.582736194944292,-4.037224317121372,2.8421306693312847,-2.2253989657645663,1.5273151252737571
0.276,pd_only,0.32931394830295985,21.818719514586565,0.009263133444643613,-0.7034756483062542,0.008175974619050902,-2.2207223892273054,0.003103210187402273,1.5935303242160725,0.8021422099258991,0.03284212056632059,-0.011941204001955912,0.029415099532574422,-0.07366554048658214,0.011009534985440989,-0.0230185670711457,0.00760934743132771,14.80425603537605,-11.55663066553162,9.578717813420251,-4.028611431678605,2.841488486891062,-2.2242819509150182,1.5270167388866098
0.278,pd_only,0.3291813862914669,21.810706273855963,0.009328795073502337,-0.7034995234031151,0.008234788008747556,-2.2208696743855088,0.0031252230693754766,1.5934843007775268,0.8021574255979832,0.032830814429361664,-0.011937548430446436,0.029406694848327197,-0.07364257910162698,0.011006440986601924,-0.023011719272927094,0.007607836042036598,14.799159636500024,-11.55477127947228,9.574700582275545,-4.020001241495873,2.8408464844652865,-2.2231652700460853,1.5267184117567068
0.28,pd_only,0.32904891178996726,21.802698205998706,0.009394434097869775,-0.703523391192913,0.008293584593504254,-2.2210169136331053,0.0031472297652437842,1.5934382910311802,0.8021726382478936,0.032819512183718653,-0.011933894898976987,0.029398292378348657,-0.07361962379828045,0.011003347934153822,-0.02300487317327144,0.00760632495523351,14.794064992108751,-11.552912449724543,9.570684501207745,-4.011393745853221,2.8402046619991244,-2.222048923073534,1.5264201438721898
0.28200000000000003,pd_only,0.3289165247981909,21.79469531059222,0.009460050525525883,-0.7035472516797253,0.008352364377748256,-2.2211641069822563,0.003169230276899321,1.593392294973636,0.8021878478762353,0.03280821382805367,-0.011930243406171319,0.02938989212200083,-0.07359667457554174,0.01100025582776845,-0.022998028772032005,0.00760481417085805,14.788972101598358,-11.551054175981283,9.566669569914517,-4.002788944030895,2.839563019437764,-2.2209329099131474,1.5261219352211932
0.28400000000000003,pd_only,0.3287842253158656,21.786697587213666,0.00952564436424794,-0.7035711048676266,0.008411127365905548,-2.221311254445121,0.0031912246062335563,1.593346312601498,0.8022030544836131,0.03279691936102927,-0.011926593950654948,0.02938149407864621,-0.07357373143240978,0.010997164667117674,-0.022991186069068137,0.007603303688852265,14.78388096436518,-11.549196457935574,9.562655788093613,-3.9941868353092205,2.83892155672641,-2.219817230480743,1.5258237857918615
0.28600000000000003,pd_only,0.32865201334271676,21.778705035439906,0.009591215621810558,-0.7035949507606888,0.008469873562400844,-2.2214583560338568,0.0032132127551373034,1.5933003439113695,0.8022182580706314,0.032785628781308446,-0.011922946531053889,0.029373098247647673,-0.07355079436788488,0.01099407445187355,-0.02298434506423136,0.00760179350915527,14.778791579805757,-11.547339295280699,9.558643155442857,-3.9855874189686578,2.8382802738102875,-2.2187018846921083,1.5255256955723298
0.28800000000000003,pd_only,0.32851988887846756,21.770717654847534,0.009656764305985667,-0.7036187893629807,0.00852860297165758,-2.2216054117606188,0.0032351947255007197,1.5932543888998547,0.8022334586378949,0.03277434208755472,-0.011919301145994226,0.02936470462836855,-0.07352786338096506,0.01099098518170814,-0.022977505757380945,0.007600283631707758,14.773703947316838,-11.545482687710141,9.554631671660168,-3.9769906942897606,2.8376391706346396,-2.217586872463082,1.5252276645507508
0.29,pd_only,0.3283878519228388,21.7627354450129,0.009722290424542531,-0.703642620678569,0.008587315598097925,-2.22175242163756,0.003257170519213307,1.593208447563558,0.8022486561860077,0.03276305927843201,-0.01191565779410392,0.029356313220172573,-0.07350493847065011,0.010987896856293727,-0.02297066814836968,0.007598774056451114,14.768618066295382,-11.54362663491762,9.550621336443546,-3.9683966605532395,2.8369982471447295,-2.2164721937094627,1.5249296927152718
0.292,pd_only,0.3282559024755488,21.75475840551204,0.00978779398524774,-0.703666444711517,0.008646011446142772,-2.221899385676832,0.0032791401381639124,1.5931625198990838,0.8022638507155744,0.032751780352604704,-0.011912016474011161,0.029347924022423935,-0.07348201963593909,0.010984809475302662,-0.022963832237052582,0.007597264783326495,14.76353393613855,-11.541771136597026,9.546612149491075,-3.9598053170399194,2.836357503285839,-2.2153578483471,1.5246317800540414
0.294,pd_only,0.32812404053631333,21.746786535920727,0.009853274995865215,-0.7036902614658856,0.008704690520211746,-2.2220463038905836,0.003301103584240727,1.5931166059030373,0.8022790422271989,0.03274050530873767,-0.011908377184344674,0.029339537034487235,-0.07345910687583035,0.010981723038407417,-0.022956998023286577,0.007595755812273043,14.758451556243717,-11.539916192442485,9.54260411050092,-3.9512166630307126,2.835716939003267,-2.214243836291831,1.5243339265552065
0.296,pd_only,0.3279922661048459,21.73881983581446,0.009918733464156207,-0.7037140709457331,0.008763352824723201,-2.222193176290962,0.0033230608593312885,1.5930707055720235,0.8022942307214854,0.03272923414549621,-0.011904739923734782,0.029331152255727456,-0.07343620018932354,0.010978637545280627,-0.022950165506925187,0.007594247143231534,14.753370926008456,-11.538061802148322,9.538597219171331,-3.9426306978066994,2.8350765542423337,-2.213130157459499,1.5240361322069294
0.298,pd_only,0.32786057918085715,21.730858304768432,0.0099841693978793,-0.7037378731551147,0.008821998364094221,-2.222340002890113,0.0033450119653224784,1.593024818902648,0.8023094161990377,0.032717966861546106,-0.011901104690811057,0.029322769685510064,-0.07341329957541498,0.010975552995594917,-0.022943334687824085,0.007592738776143448,14.748292044830558,-11.53620796540906,9.534591475200646,-3.9340474206490526,2.8344363489483775,-2.2120168117659604,1.5237383969973655
0.3,pd_only,0.32772897976405524,21.722901942357595,0.010049582804790408,-0.7037616680980832,0.008880627142740623,-2.2224867837001794,0.003366956904100525,1.5929789458915162,0.8023245986604596,0.03270670345555356,-0.011897471484205903,0.02931438932320091,-0.07339040503310584,0.010972469389023265,-0.02293650556583448,0.007591230710949175,14.74321491210801,-11.534354681919467,9.530586878287282,-3.9254668308390848,2.8337963230667564,-2.210903799127077,1.5234407209146716
0.302,pd_only,0.3275974678541459,21.71495074815656,0.010114973692642778,-0.7037854557786882,0.008939239165076955,-2.222633518733302,0.0033888956775510017,1.5929330865352347,0.8023397781063547,0.032695443926185265,-0.011893840302551197,0.029306011168166272,-0.0733675165613927,0.010969386725238511,-0.022929678140813144,0.007589722947588942,14.738139527239017,-11.532501951374464,9.526583428129745,-3.916888927658195,2.833156476542845,-2.209791119458733,1.5231431039470118
0.304,pd_only,0.3274660434508319,21.7070047217397,0.010180342069186995,-0.7038092362009772,0.008997834435516501,-2.2227802080016206,0.0034108282875588295,1.5928872408304096,0.8023549545373267,0.032684188272108367,-0.011890211144480349,0.029297635219772855,-0.07334463415927525,0.010966305003913816,-0.022922852412614,0.007588215486003708,14.733065889621985,-11.530649773469223,9.522581124426615,-3.908313710387959,2.832516809322039,-2.208678772676801,1.5228455460825503
0.306,pd_only,0.3273347065538133,21.699063862681065,0.010245687942170977,-0.7038330093689945,0.009056412958471276,-2.222926851517272,0.0034327547360082744,1.5928414087736473,0.802370127953979,0.03267293649199047,-0.011886584008626796,0.029289261477387765,-0.07332175782575132,0.010963224224722352,-0.022916028381089023,0.007586708326134272,14.727993998655524,-11.528798147899094,9.51857996687657,-3.899741178310029,2.8318773213497526,-2.207566758697169,1.5225480473094504
0.308,pd_only,0.32720345716278754,21.691128170554414,0.010311011319339976,-0.7038567752867818,0.009114974738352034,-2.2230734492923916,0.003454675024782949,1.5927955903615552,0.8023852983569149,0.03266168858449961,-0.01188295889362534,0.029280889940378557,-0.07329888755981918,0.01096014438733744,-0.022909206046092576,0.007585201467921284,14.722923853738456,-11.526947074359661,9.514579955178355,-3.8911713307061837,2.831238012571418,-2.206455077435738,1.522250607615883
0.31,pd_only,0.3270722952774493,21.683197644933237,0.010376312208436584,-0.703880533958378,0.00917351977956826,-2.2232200013391124,0.003476589155765814,1.5927497855907402,0.8024004657467375,0.032650444548304326,-0.011879335798110981,0.029272520608113188,-0.07327602336047635,0.010957065491432492,-0.022902385407478267,0.007583694911306145,14.71785545426981,-11.5250965525467,9.510581089030813,-3.8826041668583287,2.8305988829324873,-2.205343728808416,1.5219532269900178
0.312,pd_only,0.3269412208974901,21.675272285390704,0.010441590617200732,-0.7039042853878195,0.00923204808652818,-2.223366507669566,0.003498497130839176,1.59270399445781,0.8024156301240499,0.032639204382073544,-0.011875714720720302,0.02926415347996004,-0.07325316522672107,0.01095398753668108,-0.02289556646509851,0.0075821886562283235,14.712788799648814,-11.523246582156203,9.506583368132862,-3.8740396860485116,2.829959932378431,-2.204232712731114,1.5216559054200252
0.314,pd_only,0.32681023402259873,21.667352091499698,0.010506846553369685,-0.7039280295791397,0.009290559663638755,-2.223512968295881,0.0035203989518846897,1.5926582169593724,0.8024307914894552,0.032627968084476704,-0.011872095660090254,0.02925578855528791,-0.07323031315755055,0.010950910522756862,-0.02288874921880629,0.0075806827026289846,14.707723889274913,-11.521397162884357,9.502586792183505,-3.8654778875588516,2.829321160854738,-2.2031220291197595,1.5213586428940882
0.316,pd_only,0.32667933465246135,21.659437062832794,0.010572080024678052,-0.7039517665363694,0.009349054515305688,-2.223659383230185,0.003542294620783357,1.5926124530920354,0.8024459498435561,0.0326167356541837,-0.011868478614858772,0.029247425833465995,-0.07320746715196341,0.01094783444933369,-0.022881933668454486,0.007579177050448258,14.702660722547751,-11.51954829442756,9.498591360881832,-3.8569187706716392,2.8286825683069186,-2.202011677890278,1.5210614394003807
0.318,pd_only,0.3265485227867604,21.65152719896228,0.010637291038857782,-0.7039754962635367,0.009407532645933416,-2.223805752484603,0.003564184139415528,1.5925667028524075,0.8024611051869553,0.03260550708986488,-0.01186486358366436,0.029239065313863916,-0.07318462720895742,0.010944759316085453,-0.022875119813896377,0.007577671699627963,14.697599298867186,-11.517699976482426,9.494597073927011,-3.8483623346692837,2.8280441546804975,-2.2009016589586117,1.520764294927085
0.32,pd_only,0.3264177984251761,21.64362249946012,0.010702479603638163,-0.703999218764667,0.009465994059925119,-2.2239520760712583,0.0035860675096609004,1.5925209662370976,0.8024762575202555,0.032594282390191,-0.011861250565146737,0.029230706995851737,-0.07316179332753074,0.0109416851226862,-0.02286830765498345,0.007576166650108912,14.69253961763327,-11.515852208745759,9.490603931018294,-3.8398085788342557,2.8274059199210213,-2.1997919722407064,1.5204672094623812
0.322,pd_only,0.326287161567385,21.635722963897983,0.01076764572674583,-0.7040229340437829,0.009524438761682718,-2.2240983540022716,0.0036079447333985204,1.5924752432427145,0.8024914068440592,0.032583061553833316,-0.011857639557945266,0.029222350878799933,-0.07313896550667906,0.010938611868810016,-0.02286149719156751,0.00757466190183093,14.687481678246273,-11.514004990914586,9.48661193185502,-3.8312575024492084,2.826767863974056,-2.198682617652523,1.5201701829944538
0.324,pd_only,0.3261566122130608,21.627828591847244,0.010832789415904756,-0.7040466421049043,0.009582866755606876,-2.2242445862897626,0.003629815812506783,1.5924295338658676,0.8025065531589687,0.03257184457946354,-0.011854030560701766,0.029213996962079353,-0.0731161437454022,0.010935539554131285,-0.022854688423499234,0.007573157454735551,14.682425480106668,-11.512158322686131,9.48262107613661,-3.8227091047969277,2.826129986785184,-2.1975735951100246,1.519873215511493
0.326,pd_only,0.32602615036187405,21.61993938287894,0.010897910678836263,-0.7040703429520484,0.009641278046097,-2.224390772945848,0.0036516807488634314,1.5923838381031663,0.8025216964655862,0.03256063146575383,-0.01185042357205757,0.029205645245061314,-0.07309332804269501,0.010932468178324266,-0.022847881350633224,0.007571653308763317,14.67737102261513,-11.51031220375783,9.478631363562567,-3.8141633851602363,2.825492288300009,-2.196464904529194,1.5195763070016843
0.328,pd_only,0.32589577601349196,21.61205533656382,0.010963009523259017,-0.7040940365892298,0.009699672637551233,-2.224536913982643,0.0036735395443455586,1.5923381559512206,0.8025368367645139,0.032549422211376806,-0.011846818590655547,0.02919729572711749,-0.07307051839755617,0.010929397741063577,-0.022841075972819255,0.0075701494638547116,14.672318305172544,-11.50846663382732,9.474642793832473,-3.805620342822194,2.8248547684641516,-2.1953565458259914,1.519279457453222
0.33,pd_only,0.3257654891675785,21.60417645247231,0.011028085956889028,-0.70411772302046,0.009758050534366474,-2.224683009412261,0.003695392200829606,1.5922924874066409,0.8025519740563538,0.03253821681500552,-0.011843215615138562,0.029188948407620034,-0.07304771480898174,0.010926328242023782,-0.022834272289908576,0.007568645919951061,14.667267327180005,-11.50662161259244,9.470655366646003,-3.797079977065876,2.824217427223252,-2.1942485189164196,1.5189826668543027
0.332,pd_only,0.32563528982379464,21.59630273017452,0.011093139987439654,-0.7041414022497483,0.009816411740938356,-2.224829059246813,0.0037172387201913656,1.5922468324660373,0.8025671083417077,0.03252701527531351,-0.011839614644151607,0.029180603285941447,-0.07302491727597053,0.010923259680879715,-0.022827470301752736,0.007567142676992715,14.6622180880388,-11.504777139751255,9.466669081702905,-3.7885422871745424,2.823580264522969,-2.1931408237164787,1.5186859351931197
0.334,pd_only,0.32550517798179746,21.58843416924024,0.011158171622621603,-0.704165074281101,0.009874756261661266,-2.224975063498408,0.0037390791043059777,1.5922011911260208,0.8025822396211776,0.032515817590974744,-0.011836015676338778,0.029172260361454698,-0.07300212579751733,0.010920192057306129,-0.02282067000820296,0.00756563973492,14.657170587150437,-11.502933215002011,9.462683938703018,-3.7800072724315332,2.822943280308981,-2.192033460142168,1.5183892624578743
0.336,pd_only,0.32537515364124125,21.58057076923895,0.011223180870142931,-0.7041887391185216,0.009933084100928332,-2.2251210221791533,0.003760913355047934,1.5921555633832025,0.802597367895365,0.03250462376066366,-0.011832418710346832,0.029163919633533132,-0.07297934037262092,0.01091712537097812,-0.022813871409108538,0.007564137093674984,14.652124823916624,-11.501089838043177,9.458699937346255,-3.771474932120362,2.8223064745269846,-2.1909264281095044,1.5180926486367683
0.338,pd_only,0.3252452168017764,21.572712529739803,0.011288167737709041,-0.7042123967660113,0.009991395263131433,-2.225266935301154,0.0037827414742910757,1.592109949234194,0.8026124931648714,0.032493433783055144,-0.01182882374482141,0.029155581101550518,-0.07295656100027693,0.010914059621570719,-0.022807074504319694,0.0075626347531979,14.647080797739276,-11.49924700857341,9.454717077332619,-3.7629452655246083,2.8216698471226933,-2.18981972753452,1.517796093718001
0.34,pd_only,0.3251153674630502,21.56485945031162,0.01135313223302269,-0.7042360472275682,0.010049689752661196,-2.2254128028765128,0.0038045634639085942,1.5920643486756065,0.8026276154302983,0.03248224765682455,-0.01182523077841029,0.029147244764881047,-0.07293378767948219,0.010910994808759181,-0.02280027929368996,0.007561132713429846,14.642038508020505,-11.497404726291592,9.450735358362191,-3.7544182719280172,2.821033398041844,-2.1887133583332496,1.517499597689781
0.342,pd_only,0.32498560562470624,21.557011530522917,0.011418074363783986,-0.7042596905071877,0.010107967573906994,-2.225558624917331,0.003826379325773032,1.5920187617040524,0.8026427346922469,0.03247106538064766,-0.01182163980976181,0.029138910622899288,-0.07291102040923372,0.010907930932218854,-0.022793485777066205,0.007559630974311024,14.63699795416264,-11.4955629908968,9.446754780135144,-3.7458939506144278,2.820397127230187,-2.1876073204217135,1.5172031605403156
0.34400000000000003,pd_only,0.32485593128638446,21.549168769941865,0.011482994137690387,-0.7042833266088627,0.010166228731256954,-2.225704401435708,0.003848189061756282,1.5919731883161439,0.8026578509513185,0.03245988695320072,-0.011818050837524746,0.029130578674980274,-0.07288825918852768,0.010904867991625192,-0.022786693954300354,0.007558129535783411,14.631959135568215,-11.493721802088315,9.442775342351718,-3.7373723008678104,2.819761034633496,-2.1865016137159796,1.5169067822578182
0.34600000000000003,pd_only,0.3247263444477213,21.54133116813631,0.011547891562436708,-0.7043069555365834,0.010224473229097952,-2.2258501324437407,0.0038699926737295895,1.5919276285084933,0.8026729642081141,0.03244871237316045,-0.011814463860348267,0.029122248920499392,-0.07286550401636015,0.010901805986653782,-0.022779903825239096,0.007556628397786295,14.626922051639959,-11.491881159565633,9.438797044712251,-3.728853321972251,2.8191251201975605,-2.185396238132095,1.516610462830497
0.34800000000000003,pd_only,0.3245968451083496,21.53349872467378,0.011612766645715115,-0.7043305772943371,0.010282701071815618,-2.225995817953524,0.0038917901635635503,1.5918820822777138,0.8026880744632346,0.032437541639204,-0.01181087887688365,0.02911392135883248,-0.0728427548917281,0.010898744916980332,-0.022773115389735265,0.007555127560261658,14.621886701780818,-11.49004106302845,9.43481988691715,-3.7203370132119695,2.81848938386819,-2.184291193586138,1.5163142022465734
0.35000000000000003,pd_only,0.3244674332678984,21.525671439121446,0.011677619395215133,-0.7043541918861087,0.010340912263794329,-2.2261414579771515,0.003913581533128111,1.5918365496204185,0.802703181717281,0.03242637475000899,-0.011807295885781608,0.029105595989355745,-0.07282001181362664,0.010895684782280618,-0.0227663286476381,0.007553627023150594,14.616853085393934,-11.488201512176657,9.430843868666917,-3.7118233738712836,2.817853825591212,-2.1831864799941676,1.5160180004942605
0.352,pd_only,0.32433810892599313,21.517849311046163,0.01174244981862364,-0.7043777993158801,0.01039910680941722,-2.2262870525267138,0.003935366784292573,1.591791030533221,0.8027182859708537,0.03241521170425347,-0.011803714885694453,0.02909727281144586,-0.0727972747810521,0.010892625582230605,-0.022759543598794386,0.0075521267863933265,14.611821201882664,-11.486362506710359,9.426868989662127,-3.703312403234662,2.817218445312473,-2.1820820972722728,1.5157218575617788
0.354,pd_only,0.32420887208225535,21.510032340014448,0.01180725792362487,-0.7044013995876306,0.01045728471306618,-2.2264326016142997,0.003957145918925585,1.5917455250127348,0.8027333872245536,0.03240405250061597,-0.011800135875275551,0.02908895182447982,-0.07277454379300133,0.01088956731650637,-0.022752760243053286,0.0075506268499318996,14.606791050650562,-11.48452404632987,9.422895249603444,-3.6948041005866687,2.8165832429778397,-2.1809780453365537,1.5154257734373526
0.356,pd_only,0.32407972273630276,21.502220525592463,0.011872043717900422,-0.704424992705337,0.01051544597912185,-2.2265781052519964,0.003978918938895153,1.5917000330555742,0.8027484854789809,0.03239289713777545,-0.011796558853177815,0.02908063302783512,-0.07275181884846901,0.010886509984784055,-0.022745978580265017,0.007549127213705687,14.601762631101389,-11.482686130735694,9.41892264819161,-3.686298465212022,2.8159482185331943,-2.1798743241031038,1.5151297481092012
0.358,pd_only,0.32395066088774926,21.494413867346044,0.011936807209129244,-0.7044485786729731,0.010573590611963628,-2.2267235634518894,0.004000685846068633,1.5916545546583536,0.8027635807347362,0.03238174561441134,-0.011792983818056166,0.029072316420889584,-0.07272909994645205,0.01088345358674,-0.02273919861027828,0.007547627877655926,14.596735942639109,-11.48084875962855,9.414951185127448,-3.677795496395542,2.815313371924441,-2.178770933488029,1.5148337815655588
0.36,pd_only,0.32382168653620474,21.48661236484069,0.012001548404987652,-0.7044721574945102,0.010631718615969671,-2.2268689762260614,0.004022446642312734,1.5916090898176878,0.8027786729924197,0.032370597929203514,-0.011789410768566357,0.029064002003021477,-0.07270638708594693,0.010880398122050614,-0.022732420332938978,0.007546128841724798,14.591710984667904,-11.479011932709367,9.41098086011187,-3.669295193422133,2.8146787030975013,-2.1776678734074486,1.5145378737946524
0.362,pd_only,0.32369279968127534,21.478816017641517,0.012066267313149316,-0.7044957291739169,0.01068982999551689,-2.2270143435865934,0.004044201329493519,1.5915636385301917,0.8027937622526313,0.03235945408083229,-0.011785839703363023,0.029055689773609533,-0.07268368026594622,0.010877343590392316,-0.022725643748099017,0.007544630105851826,14.58668775659214,-11.477175649679253,9.407011672845865,-3.6607975555768633,2.814044211998315,-2.1765651437774993,1.5142420247847075
0.364,pd_only,0.32356400032256283,21.47102482531335,0.012130963941285273,-0.7045192937151591,0.010747924754980957,-2.2271596655455643,0.004065949909476403,1.5915182007924804,0.8028088485159713,0.03234831406797848,-0.011782270621104363,0.029047379732032745,-0.07266097948544883,0.01087428999144193,-0.022718868855602512,0.007543131669979323,14.581666257816403,-11.475339910239564,9.403043623030502,-3.652302582144947,2.813409898572841,-2.175462744514297,1.5139462345239663
0.366,pd_only,0.32343528845966535,21.463238787420625,0.01219563829706392,-0.7045428511221999,0.010806002898736298,-2.227304942115051,0.004087692384126155,1.5914727766011698,0.8028239317830395,0.032337177889323304,-0.011778703520447326,0.029039071877670648,-0.07263828474344747,0.010871237324876055,-0.022712095655299837,0.007541633534046952,14.576646487745482,-11.47350471409181,9.39907671036694,-3.643810272411668,2.8127757627670564,-2.1743606755339973,1.513650503000656
0.368,pd_only,0.32330666409217657,21.45545790352745,0.012260290388151017,-0.7045664013990001,0.010864064431156104,-2.227450173307129,0.004109428755306899,1.5914273659528757,0.8028390120544354,0.03232604554354843,-0.0117751384000507,0.029030766209903094,-0.07261559603893905,0.0108681855903717,-0.02270532414703699,0.007540135697996285,14.571628445784363,-11.47167006093774,9.395110934556412,-3.6353206256624793,2.8121418045269593,-2.173258936752746,1.513354830203023
0.37,pd_only,0.3231781272196862,21.447682173197546,0.01232492022220969,-0.7045899445495172,0.010922109356612324,-2.2275953591338706,0.004131159024882111,1.5913819688442143,0.802854089330759,0.03231491702933602,-0.01177157525857362,0.02902246272811037,-0.07259291337091947,0.01086513478760587,-0.022698554330661525,0.007538638161768074,14.56661213133824,-11.469835950479283,9.391146295300237,-3.6268336411828974,2.811508023798563,-2.1721575280867076,1.5130592161193066
0.372,pd_only,0.3230496778417797,21.439911595994314,0.012389527806900428,-0.7046134805777066,0.010980137679475671,-2.2277404996073473,0.004152883194714622,1.5913365852718022,0.8028691636126096,0.032303792345368655,-0.011768014094675558,0.029014161431673197,-0.07257023673838144,0.010862084916255559,-0.02269178620602122,0.007537140925304068,14.561597543812521,-11.468002382418593,9.38718279229981,-3.6183493182585833,2.810874420527902,-2.171056449452051,1.5127636607377484
0.374,pd_only,0.3229213159580384,21.432146171480795,0.012454113149881086,-0.7046370094875206,0.011038149404115617,-2.227885594739628,0.004174601266666618,1.5912912152322563,0.8028842349005867,0.03229267149032938,-0.01176445490701792,0.029005862319972636,-0.07254756614032166,0.010859035975998124,-0.022685019772962438,0.007535643988544313,14.556584682612806,-11.466169356458016,9.383220425256624,-3.6098676561753624,2.810240994661028,-2.1699557007649495,1.5124681640465913
0.376,pd_only,0.3227930415680391,21.424385899219647,0.012518676258806889,-0.7046605312829092,0.011096144534900397,-2.2280306445427795,0.004196313242599639,1.5912458587221936,0.8028993031952896,0.03228155446290169,-0.011760897694262522,0.02899756539239019,-0.07252490157573573,0.010855987966510935,-0.02267825503133273,0.007534147351430778,14.551573547144903,-11.464336872300098,9.379259193872235,-3.6013886542191265,2.809607746144013,-2.168855281941594,1.512172726034089
0.378,pd_only,0.3226648546713547,21.416630778773182,0.012583217141330427,-0.7046840459678193,0.011154123076197012,-2.228175649028867,0.004218019124374582,1.5912005157382316,0.8029143684973173,0.0322704412617695,-0.011757342455070829,0.028989270648307787,-0.07250224304361685,0.010852940887471386,-0.02267149198097752,0.007532651013903751,14.546564136814824,-11.462504929647588,9.37529909784829,-3.592912311675886,2.808974674922945,-2.167755192898176,1.5118773466884856
0.38,pd_only,0.32253675526755327,21.408880809703373,0.012647735805101661,-0.7047075535461955,0.011212085032371227,-2.2283206082099527,0.004239718913851696,1.5911551862769882,0.8029294308072692,0.03225933188561725,-0.011753789188106729,0.028980978087107687,-0.07247959054296109,0.010849894738557145,-0.022664730621744043,0.007531154975904549,14.541556451028793,-11.460673528203461,9.371340136886516,-3.584438627831834,2.8083417809439344,-2.1666554335509027,1.5115820259980381
0.382,pd_only,0.3224087433561988,21.401135991571778,0.01271223225776792,-0.7047310540219796,0.011270030407787573,-2.228465522098098,0.004261412612890587,1.5911098703350812,0.802944490125744,0.03224822633312977,-0.011750237892033558,0.02897268770817261,-0.07245694407276189,0.010846849519445865,-0.02265797095347886,0.007529659237374617,14.536550489193226,-11.458842667670863,9.367382310688722,-3.575967601973243,2.8077090641531064,-2.1655560038159836,1.511286763950998
0.384,pd_only,0.3222808189368505,21.393396323939626,0.012776706506973904,-0.7047545473991106,0.011327959206809344,-2.228610390705362,0.004283100223350218,1.591064567909129,0.8029595464533404,0.03223712460299236,-0.01174668856551615,0.028964399510885655,-0.07243430363201424,0.01084380522981542,-0.022651212976026933,0.007528163798254649,14.53154625071475,-11.457012347753164,9.363425618956798,-3.567499233386517,2.807076524496607,-2.1644569036096364,1.510991560535622
0.386,pd_only,0.3221529820090634,21.385661806367764,0.012841158560361686,-0.704778033681525,0.011385871433798605,-2.2287552140438014,0.004304781747088906,1.5910192789957507,0.8029745997906574,0.03222602669389076,-0.011743141207220397,0.028956113494630304,-0.07241166921971316,0.010840761869343771,-0.022644456689233452,0.0075266686584846065,14.526543735000196,-11.455182568153925,9.359470061392718,-3.5590335213581508,2.8064441619206013,-2.163358132848092,1.5106964157401725
0.388,pd_only,0.32202523257238763,21.377932438416675,0.012905588425570708,-0.7048015128731566,0.011443767093116185,-2.2288999921254713,0.004326457185964324,1.5909740035915647,0.8029896501382935,0.03221493260451117,-0.011739595815812784,0.028947829658790464,-0.0723890408348534,0.010837719437708981,-0.022637702092945387,0.007525173818007297,14.521542941456595,-11.45335332857691,9.355515637698534,-3.550570465174801,2.80581197637127,-2.1622596914475998,1.5104013295529128
0.39,pd_only,0.32189757062636903,21.370208219646443,0.012969996110237789,-0.7048249849779366,0.011501646189121686,-2.2290447249624243,0.0043481265418335024,1.5909287416931908,0.803004697496847,0.032203842333540254,-0.011736052389959593,0.028939548002750445,-0.07236641847642714,0.010834677934589153,-0.022630949187008486,0.007523679276762992,14.516543869491187,-11.451524628726089,9.351562347576381,-3.542110064123204,2.805179967794817,-2.1611615793243906,1.510106301962101
0.392,pd_only,0.32176999617054863,21.36248914961682,0.013034381621997118,-0.7048484499997932,0.011559508726173475,-2.2291894125667113,0.004369789816552828,1.5908834932972482,0.8030197418669164,0.03219275587966508,-0.011732510928329647,0.028931268525894914,-0.07234380214343152,0.01083163735966276,-0.022624197971267267,0.007522185034693042,14.511546518511413,-11.449696468305639,9.347610190728476,-3.5336523174902843,2.8045481361374605,-2.1600637963947267,1.5098113329560081
0.394,pd_only,0.3216425092044628,21.354775227887146,0.013098744968480265,-0.7048719079426524,0.011617354708628694,-2.229334054950381,0.004391447011978044,1.590838258400357,0.8030347832490998,0.03218167324157324,-0.011728971429590701,0.028922991227608996,-0.07232119183485855,0.010828597712608065,-0.022617448445565316,0.007520691091738983,14.50655088792492,-11.447868847019924,9.343659166857117,-3.5251972245630214,2.8039164813454387,-2.158966342574869,1.5095164225229003
0.396,pd_only,0.3215151097276432,21.347066454016403,0.013163086157316171,-0.7048953588104373,0.01167518414084325,-2.22947865212548,0.004413098129964252,1.5907930369991377,0.8030498216439955,0.03217059441795272,-0.011725433892412521,0.028914716107278162,-0.07229858754970242,0.01082555899310367,-0.022610700609750282,0.007519197447840731,14.501556977139554,-11.446041764573534,9.339709275664681,-3.51674478462858,2.8032850033650103,-2.1578692177811005,1.5092215706510477
0.398,pd_only,0.3213877977396165,21.339362827563185,0.013227405196131156,-0.7049188026070682,0.011732997027171828,-2.2296232041040542,0.0044347431723659085,1.5907478290902104,0.8030648570522014,0.03215951940749194,-0.011721898315465365,0.028906443164288302,-0.07227598928695726,0.010822521200828243,-0.022603954463664193,0.007517704102940217,14.496564785563368,-11.44421522067124,9.335760516853634,-3.508294996974184,2.8026537021424507,-2.15677242192969,1.5089267773287267
0.4,pd_only,0.32126057323990476,21.331664348085695,0.013291702092548915,-0.704942239336463,0.01179079337196788,-2.2297677108981455,0.00445638214103683,1.590702634670196,0.8030798894743154,0.03214844820887985,-0.011718364697420597,0.028898172398025675,-0.07225339704561785,0.010819484335460585,-0.02259721000715316,0.00751621105697866,14.491574312604621,-11.442389215018029,9.331812890126512,-3.499847860887189,2.8020225776240535,-2.155675954936939,1.5086320425442106
0.402,pd_only,0.32113343622802515,21.32397101514175,0.013355976854190528,-0.704965669002537,0.011848573179583634,-2.229912172519795,0.004478015037830189,1.5906574537357159,0.8030949189109352,0.032137380820805764,-0.01171483303694955,0.028889903807877,-0.07223081082467638,0.010816448396679503,-0.022590467240061227,0.007514718309897499,14.486585557671768,-11.440563747319066,9.327866395185941,-3.4914033756551066,2.8013916297561314,-2.154579816719134,1.5083373662857773
0.404,pd_only,0.32100638670348985,21.31628282828881,0.013420229488674447,-0.7049890916092024,0.011906336454370092,-2.230056588981041,0.004499641864598517,1.5906122862833914,0.8031099453626585,0.03212631724195948,-0.011711303332725173,0.028881637393229326,-0.0722082306231282,0.010813413384164132,-0.02258372616223075,0.007513225861636599,14.48159852017348,-11.438738817279745,9.32392103173462,-3.482961540565552,2.8007608584850177,-2.1534840071925907,1.508042748541706
0.406,pd_only,0.32087942466580593,21.308599787083903,0.01348446000361651,-0.7050125071603692,0.011964083200677033,-2.2302009602939212,0.004521262623193704,1.5905671323098443,0.8031249688300828,0.032115257471031285,-0.01170777558342019,0.028873373153470123,-0.07218565643996559,0.010810379297593502,-0.022576986773506832,0.007511733712138757,14.476613199518614,-11.436914424605652,9.319976799475342,-3.4745223549062687,2.80013026375706,-2.15238852627363,1.5077481893002846
0.40800000000000003,pd_only,0.3207525501144758,21.3009218910837,0.013548668406629934,-0.7050359156599446,0.012021813422853007,-2.23034528647047,0.004542877315466998,1.5905219918116968,0.8031399893138055,0.03210420150671183,-0.011704249787709174,0.028865111087987266,-0.07216308827418191,0.010807346136646877,-0.02257024907373471,0.007510241861343388,14.471629595116243,-11.435090569002577,9.316033698110965,-3.4660858179650864,2.7994998455186284,-2.151293373878572,1.5074536885497896
0.41000000000000003,pd_only,0.3206257630489964,21.29324913984446,0.01361285470532532,-0.7050593171118331,0.012079527125245345,-2.2304895675227194,0.0045644859432690055,1.5904768647855714,0.8031550068144239,0.03209314934769228,-0.011700725944266964,0.028856851196169004,-0.07214052612477119,0.010804313901003658,-0.022563513062754663,0.007508750309192885,14.466647706375639,-11.4332672501765,9.312091727344443,-3.457651929030008,2.7988696037161085,-2.1501985499237475,1.5071592462785168
0.41200000000000003,pd_only,0.32049906346885976,21.285581532922055,0.013677018907310648,-0.7050827115199366,0.012137224312200153,-2.230633803462701,0.004586088508449692,1.5904317512280906,0.8031700213325351,0.032082100992664224,-0.011697204051769305,0.02884859347740398,-0.0721179699907266,0.010801282590343315,-0.022556778740412183,0.0075072590556289585,14.461667532706285,-11.431444467833611,9.308150886878797,-3.4492206873891385,2.798239538295908,-2.149104054325511,1.5068648624747512
0.41400000000000003,pd_only,0.32037245137355275,21.277919069871952,0.013741161020191286,-0.7051060988881545,0.012194904988062315,-2.230777994302443,0.004607685012858383,1.5903866511358775,0.8031850328687363,0.03207105644031969,-0.01169368410889244,0.02884033793108126,-0.07209541987103975,0.01079825220434539,-0.02255004610655132,0.007505768100590895,14.45668907351785,-11.429622221680297,9.304211176417141,-3.4407920923306956,2.7976096492044493,-2.1480098870002027,1.506570537126782
0.41600000000000004,pd_only,0.320245926762557,21.270261750249233,0.013805281051569989,-0.705129479220383,0.012252569157175496,-2.230922140053972,0.004629275458343763,1.5903415645055554,0.8032000414236243,0.03206001568935122,-0.011690166114314369,0.02883208455659023,-0.07207287576470654,0.010795222742689733,-0.022543315161011664,0.007504277444021858,14.451712328220223,-11.427800511423147,9.300272595662664,-3.4323661431430486,2.796979936388176,-2.146916047864181,1.50627627022291
0.418,pd_only,0.32011948963534864,21.262609573608557,0.013869379009046893,-0.7051528525205165,0.012310216823882138,-2.2310662407293136,0.004650859846753875,1.590296491333748,0.8032150469977961,0.032048978738451715,-0.011686650066712689,0.02882383335332075,-0.07205033767071836,0.010792194205056076,-0.02253658590363676,0.0075027870858625665,14.446737296223484,-11.425979336768954,9.296335144318633,-3.423942839114628,2.796350399793549,-2.1458225368338275,1.505982061751426
