Ovmem/robot-control-retargeting-framework/results/dynamics/joint_pd_gc.csv
t,mode,err_norm,tau_norm,q1,q2,q3,q4,q5,q6,q7,qd1,qd2,qd3,qd4,qd5,qd6,qd7,tau1,tau2,tau3,tau4,tau5,tau6,tau7
0.0,pd_gc,0.34865936960739874,30.79704527069373,3.9691229518651985e-05,-0.6995316755497971,1.8621647397453158e-05,-2.1992294458865103,-2.3021627108664793e-06,1.5991331757225988,0.7996162399920554,0.019845614759325992,0.2341622251014315,0.00931082369872658,0.3852770567450568,-0.0011510813554332397,-0.4334121387005939,-0.19188000397228222,16.0,-18.18819175748791,9.913309156892522,15.73617614807137,3.63220732116954,-0.0634632076936037,1.5968037424994141
0.002,pd_gc,0.34914932155261735,31.13611934893723,9.453124659295335e-05,-0.6986208248579581,5.559846797240835e-05,-2.197736227841385,-1.2993498530528063e-06,1.5974991176431788,0.7988836811937075,0.02742000853715068,0.4554253459195249,0.018488410287477598,0.7466090225627992,0.0005014064289068365,-0.8170290397100428,-0.3662793991739966,15.718986095007944,-21.51495562151668,9.800273643385475,11.834253706818844,3.6391495386706216,2.1244504798011787,2.37201715252068
0.004,pd_gc,0.34991936784005134,32.45439019842677,0.0001565398230108721,-0.6972915324399379,0.0001057417917373849,-2.1955644764866364,2.962022062705046e-06,1.5951878131598143,0.7978350150264581,0.03100428820895938,0.6646462090100629,0.02507166188248828,1.0858756773741844,0.002130685957878926,-1.1556522416821904,-0.5243330836246393,15.608557380752456,-24.707060938631862,9.687532770232494,8.125762787040777,3.629146676303776,4.081861928673525,3.0842997535523886
0.006,pd_gc,0.3509971713556812,34.463645714762166,0.00022226366330170162,-0.69556643223787,0.00016435922628142122,-2.192755034812095,9.814674716075106e-06,1.5922806485028231,0.7965003804893603,0.03286192014541476,0.8625501010339638,0.029308717272018163,1.4047208372707942,0.0034263263266850305,-1.453582328495556,-0.6673172685488784,15.5534167792337,-27.77410934146822,9.605059942845903,4.594782453536315,3.6191661127156483,5.830627649989784,3.7375350549555213
0.008,pd_gc,0.3524121589137735,36.93339149595129,0.0002898094417171024,-0.6934668748556889,0.0002279939708437936,-2.1893458018626024,1.870146622013928e-05,1.5888512270122115,0.7949074367732875,0.033772889207700364,1.0497786910905396,0.03181737228118619,1.7046164747463723,0.004443395752032086,-1.7147107453058708,-0.7964718580364285,15.522152024900059,-30.72400002930646,9.550276107912769,1.2275281449134425,3.6110943257226236,7.390304057210066,4.336223095859873
0.01,pd_gc,0.35419398580677375,39.690231269812934,0.00035800171718603885,-0.6910130554791506,0.0002942459207424012,-2.1853720241692782,2.9214922266611356e-05,1.5849660942163595,0.7930815158189645,0.03409613773446824,1.2269096882691872,0.03312597494930379,1.9868888466620471,0.0052567280232360385,-1.9425663979259624,-0.9129604771615074,15.503994795754826,-33.563584091362365,9.51605888825415,-1.9882655281738373,3.6046203756495414,8.778587518874774,4.8847684809163665
0.012,pd_gc,0.3563711882699546,42.611084863312136,0.0004260763463561274,-0.6882241184648125,0.00036148863849556787,-2.1808665513410666,4.1056652691368144e-05,1.580685392027748,0.79104579005858,0.03403731458504426,1.3944685071690472,0.03362135887658333,2.252736414105883,0.0059208652123783935,-2.1403510943058106,-1.0178628801922358,15.494013934342561,-36.29892746600711,9.496267306569775,-5.063585691414918,3.5993093573990578,10.0115303820231,5.387317421108767
0.014,pd_gc,0.35897008463044167,45.61169983234963,0.0004935320860811195,-0.685118245123079,0.0004286370536878508,-2.1758600621060697,5.400301731448003e-05,1.5760634512951173,0.7888214383800018,0.03372786986249605,1.5529366708667345,0.033574207596141485,2.503244617498492,0.006473182311555943,-2.3109703663152854,-1.1121758392890955,15.48939148810089,-38.935464375833995,9.486391321498562,-8.00830260033069,3.5948441887404834,11.103702772252898,5.8477239951923785
0.016,pd_gc,0.3620136870503637,48.6186556780327,0.0005600448661407377,-0.6817126496139997,0.0004949819711886874,-2.170380961628799,6.78738444912054e-05,1.5711473536187495,0.7864277801958275,0.03325639002980905,1.7027977545396384,0.03317245875041828,2.7395502386353128,0.0069354135883626915,-2.4580488381838714,-1.1968290920872018,15.488327255038566,-41.47810667696282,9.483267772599449,-10.831301711075305,3.591008078522222,12.0,6.269550370739988
0.018000000000000002,pd_gc,0.36551917407268725,51.42433975133025,0.0006254295407104793,-0.6780228188018493,0.0005601034698360147,-2.164452412222161,8.243837759756442e-05,1.5659568696117119,0.7838821690880843,0.03269233728487079,1.844915406075186,0.03256074932366361,2.9642747033189107,0.007282266553179508,-2.5952420035187553,-1.2728055538716296,15.489606950291416,-43.931884410369975,9.484694064941282,-13.542135894881202,3.5876764169292032,12.0,6.65612795595668
0.02,pd_gc,0.36950168335136574,54.23788249616863,0.0006895662517005186,-0.6740636594453625,0.0006237344930578615,-2.158096613146025,9.758952345290838e-05,1.560510933417477,0.7812004833448459,0.032068355495019664,1.9795796782434336,0.031815511610923435,3.177899538068097,0.0075755729276719835,-2.7229680971174637,-1.3408428716191865,15.49227291475497,-46.30727824901676,9.488963073117473,-16.16557957793488,3.5850077193832846,12.0,7.0110409447894115
0.022,pd_gc,0.3739738514458627,57.038992978055475,0.0007523838646844221,-0.6698495230674651,0.0006857128295805508,-2.1513348643140335,0.00011325865108527447,1.5548276861967523,0.778397246602789,0.031408806491951755,2.1070681889486718,0.03098916826134466,3.3808744159958124,0.007834563816183046,-2.8416236103623196,-1.4016183710284538,15.495877722933683,-48.606798613801246,9.495172944184993,-18.705069416819853,3.5826340623360338,12.0,7.336921978001159
0.024,pd_gc,0.3789454584185863,59.81277527493505,0.000813844738889659,-0.6653942290989652,0.000745947999580249,-2.1441876254013357,0.0001293928623221155,1.5489245167174444,0.7754857390797718,0.03073043710261843,2.227646984249967,0.03011758499984912,3.5736194563488777,0.008067105618420514,-2.9515847396539163,-1.4557537615086076,15.500085999937923,-50.83283913325111,9.50270102452798,-21.16378048344325,3.580441908863268,12.0,7.636189518453687
0.026000000000000002,pd_gc,0.384423187398481,62.54830947819588,0.0008739338348286751,-0.6607110864115207,0.0008043982434891874,-2.13667456979728,0.0001459477639623189,1.5428180986353004,0.7724781002651364,0.03004454796950806,2.341571343722251,0.029225121954469177,3.7565278020277515,0.008277450820101699,-3.0532090410720274,-1.5038194073176796,15.504666301452172,-52.98768614928711,9.511117327371169,-23.544645306485826,3.5783853771610064,12.0,7.911064446375377
0.028,pd_gc,0.3904104971926446,65.23761665357412,0.0009326512504080422,-0.6558129134595554,0.0008610546153021209,-2.12881463373631,0.00016288446456602583,1.536524424649152,0.7693854235949474,0.02935870778968359,2.4490864759826043,0.02832818590646673,3.929968030485106,0.008468350301853465,-3.1468369930741567,-1.5463383350945155,15.509461621640595,-55.07352760922961,9.520125917315506,-25.850376045022855,3.5764399684557424,12.0,8.163585090043009
0.03,pd_gc,0.39690760001307096,67.87490500310369,0.0009900071702211445,-0.6507120572266204,0.0009159300773139757,-2.1206260610766288,0.00018016802840186823,1.530058837808178,0.7662178436117189,0.028677959906551143,2.550428116467508,0.027437731005927404,4.094286329840611,0.008641781917921193,-3.232793420486938,-1.58378999161429,15.514365990911788,-57.092460590265226,9.529523657943082,-28.08348532436174,3.5745899986751395,12.0,8.395621362343292
0.032,pd_gc,0.40391153269182273,70.45601876357665,0.001046018387539822,-0.6454204111358467,0.0009690519878592307,-2.112126444169067,0.00019776642369422732,1.5234360602489079,0.7629846160993605,0.028005608659338793,2.645823045386859,0.026560955272627525,4.2498084537809815,0.008799197646179542,-3.3113887796351027,-1.6166137561791747,15.519307987690592,-59.04649760471777,9.539171140586337,-30.246305020109318,3.572824283943788,12.0,8.608888048401083
0.034,pd_gc,0.41141630689532593,72.97803327355977,0.0011007059628472234,-0.6399494320443431,0.0010204569844315299,-2.103332761207647,0.00021564988036119518,1.5166702196033848,0.7596941917002449,0.027343787653700765,2.7354895457518156,0.0257024982861496,4.39684148070985,0.00894172833348393,-3.3829203227615054,-1.645212199557849,15.524240007766071,-60.93757191955109,9.548972965657663,-32.34100309591227,3.571134699538477,12.0,8.804957252405929
0.036000000000000004,pd_gc,0.4194131225158422,75.43895511679054,0.00115409362991245,-0.6343101564179336,0.0010701874921610953,-2.094261410399848,0.00023379043277125134,1.5097748732980218,0.7563542834943063,0.026693833532613356,2.8196378132046926,0.024865253864782753,4.535675403899627,0.009070276205028076,-3.4476731526815154,-1.66995410296928,15.529130495820413,-62.76754215494205,9.558863801748094,-34.36959872268868,3.5695149776352535,12.0,8.98526996088126
0.038,pd_gc,0.4278906279015533,77.83749872000563,0.00120620671529784,-0.6285132157605521,0.0011182893472091837,-2.084928241252568,0.000252161596934336,1.5027630309394384,0.7529719290036199,0.026056542692695,2.8984703286907725,0.024050927524044165,4.66658457363997,0.00918558208154232,-3.5059211792917475,-1.6911772453432532,15.533958840150419,-64.5381963145482,9.568798923662623,-36.333975923754245,3.567960171530701,12.0,9.15114676688979
0.04,pd_gc,0.43683521110570134,80.17291867004815,0.0012570714095556641,-0.6225688513567396,0.0011648101848759321,-2.075348583232899,0.0002707381418929302,1.4956471749640627,0.749553547060347,0.025432347128912045,2.97218220190627,0.023260418833374267,4.789829009834598,0.009288272479297099,-3.5579279876877927,-1.7091909716363873,15.538711865078444,-66.25125539258629,9.578747716724308,-38.2358959355478,3.5664662665570397,12.0,9.303797778829352
0.042,pd_gc,0.44623130763818464,82.44488301126412,0.0013067142789303225,-0.616486928373605,0.0012097983520995242,-2.0655372720320706,0.00028949592662140495,1.4884392797117922,0.7461049899483929,0.024821434687329114,3.0409614915673067,0.02249408361179606,4.905655600414146,0.009378892364237374,-3.6039476261352528,-1.7242785559770724,15.543381427430779,-67.90837666090825,9.588689216639496,-40.07700845076769,3.5650299081165158,12.0,9.444331756173698
0.044,pd_gc,0.45606171207203705,84.65337691684516,0.0013551619412914295,-0.6102769493593997,0.0012533021794437832,-2.0555086736350283,0.0003084117825092244,1.4811508290697706,0.7426315912010139,0.024223831180553525,3.1049895071026423,0.02175191367212951,5.014299198521142,0.009457927943909714,-3.64422532101082,-1.7366993736895588,15.547962772062968,-69.5111567140248,9.598609046680362,-41.858861882011155,3.5636482132598344,12.0,9.57376451904423
0.046,pd_gc,0.466307883058517,86.79862905102318,0.001402440854011581,-0.6039480671688741,0.0012953694994210156,-2.045276706376073,0.0003274634276553764,1.4737928328198697,0.7391382094089016,0.023639456360075813,3.164441095262814,0.021033659988616265,5.115983629477643,0.009525822573076008,-3.678998124950433,-1.7466908960560938,15.552453408168937,-71.06113433079604,9.60849731408211,-43.58291276168502,3.5623186402390803,12.0,9.69302668016838
0.048,pd_gc,0.476950233620229,88.8810550149838,0.0014485771779578196,-0.5975090973403181,0.0013360473334911413,-2.034854861142174,0.0003466294034410386,1.466375841812397,0.7356292683665183,0.02306816197311931,3.219484914277976,0.020338917035062902,5.210922616949445,0.00958298789283111,-3.708495503736335,-1.7544705211916356,15.556852342638013,-72.55979319672802,9.61834716501964,-45.25053437602443,3.561038898086122,12.0,9.802970747569656
0.05,pd_gc,0.4879684008410979,90.90121375211005,0.0014935966930480868,-0.5909685299452659,0.0013753816944183381,-2.024256219869386,0.0003658890267645298,1.4589099620786428,0.7321087938590208,0.022509757545133593,3.2702836975260836,0.019667180463598367,5.299320636393978,0.009629811661745622,-3.7329398668771203,-1.7602372537487587,15.561159558139705,-74.0085645193754,9.62815379194206,-46.86302471639408,3.559806883847254,12.0,9.904377644932172
0.052000000000000005,pd_gc,0.4993414911222359,92.85977385437516,0.0015375247485596682,-0.5843345409289703,0.00141341746735889,-2.013493472463857,0.00038522235333445117,1.4514048679859384,0.7285804473681765,0.021964027755790656,3.316994508147813,0.01901788647027599,5.381373702764573,0.00966666328496067,-3.752547046352175,-1.7641732454221508,15.565375658924284,-75.40882956044355,9.637913751830157,-48.42161381889886,3.5586206389644266,12.0,9.997962694463506
0.054,pd_gc,0.5110482989402111,94.75748748398014,0.001580386236681842,-0.5776150029577064,0.0014501983445050258,-2.002578932266859,0.0004046101488086163,1.443869814530775,0.7250475569533038,0.021430744061086884,3.359768985631934,0.018390438573067925,5.457270098499021,0.009693897737082586,-3.767526727581696,-1.7664452074363655,15.569501631534157,-76.76192210121702,9.647624498363285,-49.92747055315105,3.5574783189342125,12.0,10.084381104565837
0.056,pd_gc,0.5230674984896028,96.59517018792596,0.0016222055814443085,-0.5708174957875659,0.0014857667959688973,-1.9915245501728327,0.00042403386553173546,1.4363136488581156,0.7215131455424797,0.020909672381233313,3.398753585070247,0.017784225731935683,5.527191047013123,0.009711858361559555,-3.7780828363296326,-1.7672057054120642,15.573538684210238,-78.0691308524707,9.65728406142636,-51.38170891242725,3.556378172184476,12.0,10.164233001929727
0.058,pd_gc,0.535377808711112,98.37368529764085,0.0016630067376502014,-0.5639493161685136,0.001520164064988595,-1.9803419275003813,0.00044347562329608963,1.4287448210882396,0.7179799568500062,0.020400578102946463,3.434089809526154,0.017198634509848914,5.591311336225747,0.009720878882177078,-3.784413884937948,-1.7665943462367888,15.57748814014719,-79.33170181572221,9.666890828249883,-52.78539385009472,3.555318525351854,12.0,10.238068044927097
0.06,pd_gc,0.5479581330212332,100.09393191282787,0.0017028131961562539,-0.5570174872969909,0.0015534301792481911,-1.9690423277082971,0.00046291819301722204,1.421171394526203,0.714450479118347,0.019903229253026258,3.4659144357613956,0.01663305712979802,5.649799896042042,0.009721284860566193,-3.786713281018369,-1.7647388658295786,15.581351367546732,-80.55084059930715,9.676443394774042,-54.139546700868664,3.55429777300073,12.0,10.306389652488221
0.062,pd_gc,0.5607876756066079,101.75683569787836,0.001741647993018759,-0.5500287678301696,0.001585603972656285,-1.9576366870418946,0.00048234498254326946,1.4136010553232305,0.7109269668663631,0.01941739843125264,3.4943597334106204,0.01608689670404699,5.702820333201286,0.009713394763023697,-3.7851696014861984,-1.7617561259919337,15.585129734765133,-81.72771469012002,9.685940465630022,-55.44515022000044,3.5533143704176826,12.0,10.369658880056267
0.064,pd_gc,0.573846036470245,103.36334189150178,0.0017795337208307582,-0.54298966047502,0.0016167231136855298,-1.9461356241890069,0.0005017400240449284,1.4060411216540198,0.7074114608105946,0.01894286390599951,3.5195536775748475,0.015559570514622355,5.7505314264439225,0.009697520750829467,-3.77996683460539,-1.7577530278842746,15.588824582520964,-82.86345567981498,9.695380787856136,-56.7031532687609,3.552366828527216,12.0,10.428297971753397
0.066,pd_gc,0.5871132875637918,104.9144100606949,0.0018164925411289549,-0.535906420165588,0.0016468241375879216,-1.9345494490198876,0.0005210879625928966,1.3984985524689768,0.703905806112478,0.018479410149098312,3.5416201547159676,0.015050511951195876,5.793087584559632,0.009673969273984137,-3.771284592521487,-1.7528273490582842,15.592437207649548,-83.95916144269604,9.704763108080476,-57.914475170463454,3.551453710261237,12.0,10.482693615580576
0.068,pd_gc,0.6005700323532912,106.4110102296576,0.0018525461971274878,-0.528785061842248,0.0016759424806378918,-1.9228881704808125,0.000540374045641543,1.3909799558758036,0.7004116690916564,0.018026827999266477,3.560679161669956,0.014559171524985096,5.8306392695375155,0.009643041524323187,-3.7592982965866115,-1.7470685104107986,15.595968854622308,-85.0158982613526,9.714086146072292,-59.08000975769214,3.550573627914865,12.0,10.533199926315497
0.07,pd_gc,0.6141974510834988,107.85412009064272,0.0018877160262943662,-0.5216313678471434,0.0017041125151344766,-1.911161503707323,0.0005595841132158477,1.383491597200551,0.6969305525338508,0.017584914583439266,3.576846997552324,0.014085017248292399,5.863333386744698,0.009605033787152351,-3.7441793376262664,-1.7405582789027676,15.59942071224007,-86.0347028952506,9.723348579742979,-60.200629128287936,3.5497252411614273,12.0,10.580141178768622
0.07200000000000001,pd_gc,0.6279773992191874,109.23151341938826,0.0019220236277910688,-0.5144508432782101,0.0017313682366628582,-1.8993788244373981,0.0005787042520510487,1.3760393816854875,0.6934638099069508,0.01715380074835133,3.5902622844666547,0.013627860764190826,5.891339634962449,0.009560069417600525,-3.726107757531762,-1.7333713134500517,15.602793913728302,-87.0,9.73254903817684,-61.277187124956335,3.5489072554981043,12.0,10.623814312202704
0.074,pd_gc,0.6418960678996185,109.81987424489077,0.001955526679724272,-0.507245879971317,0.0017577789875713149,-1.8875462915701389,0.0005977028892911765,1.368627470584769,0.6900126690235237,0.016751525966601535,3.602481653446553,0.013205375454228287,5.916266433629687,0.009499318620063863,-3.7059555503592136,-1.7255704417135864,15.606084899299796,-87.0,9.741682174645296,-62.3107856270891,3.5481194396897706,12.0,10.664490830054175
0.076,pd_gc,0.6559401651279161,110.39880706547072,0.0019882618757310093,-0.500018824865393,0.0017834032459646773,-1.8756699542511455,0.0006165721649767263,1.3612598293551372,0.6865782305761191,0.016367598003368494,3.6135275529619917,0.012812129196681185,5.938168659496676,0.009434637842774896,-3.683820614815851,-1.7172192237022903,15.609036502089639,-87.0,9.75052785384604,-63.31710919715109,3.5474157782008904,12.0,10.702397476241037
0.078,pd_gc,0.6700969074924271,110.9678500147936,0.002020257962031266,-0.49277197978800724,0.0018082883603389246,-1.863755751784584,0.0006353084949661664,1.3539402305696133,0.6831614796711794,0.015998043150128427,3.623422538692866,0.012442557187123731,5.957101233280746,0.009368164994720053,-3.6597993927619052,-1.7083754524698649,15.61179267789436,-87.0,9.759144106035697,-64.2963131286823,3.5467255155380872,12.0,10.737766470810666
0.08,pd_gc,0.684354009280006,111.52656518401973,0.0020515391428854862,-0.48550760130788956,0.0018324731618864542,-1.8518095138013164,0.0006539085742341213,1.3466722570673488,0.6797632960847187,0.015640590427110065,3.6321892400588394,0.012092400773764804,5.973118991633798,0.00930003963397746,-3.633986751132238,-1.6990917932303136,15.614406758935703,-87.0,9.767591489043223,-65.24855933262822,3.5460361308515775,12.0,10.770809282048555
0.082,pd_gc,0.6986996700988267,112.07454326885822,0.0020821265109771444,-0.4782279005511981,0.0018559902513528724,-1.8398369603445917,0.0006723687045017952,1.3394593051379753,0.6763844635437807,0.01529368404582902,3.639850378345717,0.011758544733209147,5.986276728362335,0.009230065133836939,-3.6064759646867506,-1.6894162704690165,15.616908602589621,-87.0,9.775915601619234,-66.17401506371694,3.5453471260976874,12.0,10.801718977736423
0.084,pd_gc,0.7131225616015806,112.61140439422763,0.002112038905088855,-0.4709350429584757,0.0018788676837807907,-1.8278437017977491,0.000690684806002169,1.332304587697354,0.673025678163548,0.014956197055855425,3.6464287963612025,0.011438716213959088,5.996629273421296,0.009158050750186884,-3.577358720310671,-1.679392690116362,15.619318302480224,-87.0,9.784148841880825,-67.07285334717503,3.544660069161909,12.0,10.830671987851952
0.08600000000000001,pd_gc,0.7276118136897964,113.13679821803396,0.00214129349761628,-0.4636311479773585,0.0019011301740101533,-1.8158352386403092,0.0007088525393378684,1.325211137447082,0.6696875561312527,0.014627296263712451,3.6519474905586105,0.011131245114681351,6.004231578719952,0.009083866667849678,-3.54672512513593,-1.6690610161476152,15.621650128810916,-87.0,9.792313877486302,-67.94525379557867,3.543976538849167,12.0,10.857829624397029
0.088,pd_gc,0.7421570004831594,113.6504038323158,0.002169906211425608,-0.4563182886914343,0.0019227999564368175,-1.8038169610351316,0.0007268674196979476,1.3181818100190195,0.6663706407126976,0.014306356904664018,3.6564296429620775,0.010834891213332141,6.009138802588806,0.009007440180039622,-3.5146637140312937,-1.6584577092775847,15.623914372498726,-87.0,9.800426420035063,-68.79140350694776,3.5432977892936983,12.0,10.883339433990544
0.09,pd_gc,0.756748126277153,114.1519295669963,0.002197892018353525,-0.4489984913879725,0.0019438973991018759,-1.7917941482547322,0.0007447249056639336,1.311219287108889,0.6630754086470427,0.013992903463958494,3.65989865173091,0.010548721332529168,6.011406390199666,0.008928742982993017,-3.4812614550651793,-1.6476160328274287,15.626118506420656,-87.0,9.80849722840964,-69.61149796227596,3.542624768045833,12.0,10.907336412385103
0.092,pd_gc,0.771375611665114,114.64111273257022,0.0022252651537468717,-0.4416737350686324,0.001964441443271584,-1.7797719679573978,0.0007624204651710331,1.304326079604161,0.6598022759874854,0.013686567696673197,3.66237815967005,0.010272022084853989,6.011090148667202,0.008847779753549721,-3.446603752364009,-1.6365663297786606,15.628267990036301,-87.0,9.816533532977797,-70.40574189477998,3.5419581883459923,12.0,10.929944099904406
0.094,pd_gc,0.7860302799608647,115.11771932129778,0.0022520392711079325,-0.43434595090821837,0.001984449918811315,-1.7677554753253486,0.0007799496239986113,1.2975045307119926,0.6565516034388312,0.013387058680530408,3.6638920802070056,0.010004237769865485,6.008246316024543,0.008764579413789131,-3.4107744460841873,-1.625336274327068,15.630366839946825,-87.0,9.824540047965296,-71.17435011735145,3.541298594437715,12.0,10.951275572709365
0.096,pd_gc,0.8007033440238802,115.58154367844169,0.002278227553913729,-0.42701702166725153,0.0020039397709711,-1.7557496120784082,0.0007973080014553434,1.2907568190932563,0.6533237012373994,0.013094141402898345,3.6644646204834324,0.009744926079892587,6.002931623470171,0.008679188728366066,-3.373855809368089,-1.6139511007159562,15.632418036783942,-87.0,9.83251969277733,-71.91754829923323,3.5406464112954237,12.0,10.971434342124043
0.098,pd_gc,0.8153863935599196,116.03240814973437,0.0023038427967541747,-0.41968878106465723,0.002022927223857803,-1.7437592053775979,0.0008144913367870164,1.2840849620087467,0.6501188336139754,0.012807621420222888,3.664120301297134,0.00949372644335135,5.995203350405194,0.008591667665836555,-3.3359285422548717,-1.6024338117120092,15.634423816046324,-87.0,9.84047410729518,-72.635573684909,3.5400019807286496,12.0,10.990515172230452
0.1,pd_gc,0.8300713829456999,116.47016270757165,0.002328897464443529,-0.412363013117269,0.002041427898564658,-1.7317889666338615,0.0008314955088757092,1.2774908184835643,0.6469372228764587,0.01252733384467724,3.6628839736941345,0.009250337353427712,5.985119371868164,0.008502086044346347,-3.297071762591232,-1.5908053687583041,15.636385876376547,-87.0,9.848404021008905,-73.32867574935162,3.5393655871533563,12.0,11.00860482437129
0.10200000000000001,pd_gc,0.8447506196060797,116.89468455595396,0.002353403735280391,-0.40504145145315046,0.00205945689875815,-1.71984349023777,0.0008483165510792623,1.2709760924954738,0.6437790531453076,0.012253135418430804,3.660780832059257,0.009014500096745823,5.972738198045737,0.008410521101776583,-3.2573629940451676,-1.5790848655755736,15.638305529019036,-87.0,9.85630951824986,-73.99711678460167,3.538737475821545,12.0,11.025782735966027
0.10400000000000001,pd_gc,0.8594167529558172,117.3058777126097,0.0023773735328683617,-0.39772577860596525,0.002077028872855024,-1.7079272522265712,0.000864950662536794,1.2645423361927288,0.6406444737717708,0.01198489879398545,3.657836423592594,0.008785987048436953,5.958119005599381,0.008317055728765855,-3.216878151372543,-1.567289686768392,15.640183805319538,-87.0,9.864190229431335,-74.6411724133154,3.538117865607887,12.0,11.042121640062833
0.106,pd_gc,0.8740627639047909,117.70367256579345,0.00240081854965409,-0.39041762529778146,0.0020941580593173284,-1.6960446089053607,0.0008813942168890679,1.2581909531464792,0.6375336024661397,0.011722508392864175,3.654076654091908,0.008564593231152254,5.941321660605236,0.008221777176136882,-3.175691523124759,-1.5554356528155795,15.642021534254738,-87.0,9.87204546950067,-75.26113202550452,3.5375069578809395,12.0,11.05768813125345
0.108,pd_gc,0.8886819549151482,118.08802540276284,0.0024237502644443164,-0.383118569717802,0.0021108583197403333,-1.6841997954394432,0.0008976437690913712,1.2519232016424426,0.6344465281607895,0.011465857395113166,3.6495277899897176,0.008350130211502481,5.922406732958763,0.008124776101151665,-3.1338757520182785,-1.5435371526751045,15.643819398527574,-87.0,9.879874338657041,-75.85729913522977,3.536904942561566,12.0,11.072543182923711
0.11,pd_gc,0.9032601212288709,118.45891790678249,0.0024461119909800454,-0.3758354266882377,0.00212707786546026,-1.6724030566359303,0.0009137215898885882,1.2457430784536225,0.6313832905715099,0.011180863267864537,3.641571514782135,0.008109772859963373,5.898369401756504,0.008038910398608507,-3.0900615944101,-1.531618794639804,15.64557797531287,-87.0,9.8876757960375,-76.42999165453331,3.53631200216355,12.0,11.086742620265635
0.112,pd_gc,0.9177119533635025,118.79634559957923,0.002467264937895872,-0.3686229604890347,0.002142185355959593,-1.6607205180316567,0.000929843711524714,1.2396805540810902,0.6283436975769883,0.010576473457913172,3.606233099601498,0.0075537452496664695,5.841269302136755,0.00806106081806288,-3.0312621862661393,-1.5197964972608307,15.647778954971493,-87.0,9.89584093203218,-76.94850042710075,3.5356511977644804,12.0,11.100384068452632
0.114,pd_gc,0.9319882056913713,118.91664541624378,0.0024871908798474534,-0.3615118469389588,0.0021559667905169636,-1.6491897640121194,0.0009457885238866263,1.2337511027828598,0.6253276681742693,0.009962970975790806,3.555556775037943,0.006890717278685374,5.765377009768673,0.007972406180956145,-2.9647256491151857,-1.508014701359453,15.654548176557547,-87.0,9.907846819018735,-77.12928864759823,3.534337729360474,12.0,11.113934469018849
0.116,pd_gc,0.9460609714200611,118.90914101298772,0.002506011186277496,-0.3545187269114531,0.002168475559001804,-1.6378315903478426,0.0009613758044200248,1.227961734040155,0.6223351703152757,0.009410153215021269,3.4965600137528607,0.006254384242420289,5.679086832138404,0.007793640266699276,-2.894684371352447,-1.4962489294968029,15.661543135951135,-87.0,9.921176923091203,-77.11270435380838,3.533692249329394,12.0,11.127172949012433
0.11800000000000001,pd_gc,0.9599149978810282,118.82712779500655,0.0025238764127141285,-0.3476520793533908,0.0021798800045253063,-1.6266569164568634,0.0009765096100359316,1.2223145322243818,0.6193661884975971,0.008932613218316296,3.4333237790311273,0.005702222761751014,5.5873369454895885,0.00756690280795336,-2.8236009078866036,-1.4844909088393454,15.667776960087503,-87.0,9.93420535580294,-76.98137876256388,3.53359657444697,12.0,11.140002161231376
0.12,pd_gc,0.9735425584115277,118.70222048429794,0.00254093135424479,-0.34091565055699136,0.0021903786513138485,-1.6156708530397879,0.0009911524449642867,1.2168087338607452,0.6164207069097842,0.008527470765330634,3.3682143981997275,0.005249323394271148,5.493031708537726,0.0073214174641775594,-2.7528991818183353,-1.4727407939063888,15.673033301926443,-87.0,9.946219033758885,-76.7839980929196,3.5338011713845376,12.0,11.152389344876575
0.122,pd_gc,0.9869404209035787,118.55313133994738,0.0025573027358785777,-0.334310454970859,0.0022001601414260792,-1.6048750955622124,0.001005299713955502,1.2114419460468564,0.6134987012410144,0.008185690816893958,3.3025977930661927,0.004890745056115342,5.397878738787672,0.007073634495607631,-2.683393906944379,-1.4610028343849206,15.677340900945788,-87.0,9.95701553463718,-76.5492736520026,3.534132202322926,12.0,11.164335508782582
0.124,pd_gc,1.0001080532014122,118.39093570953,0.0025730961281077505,-0.3278359414579514,0.002209387311644015,-1.5942693323097066,0.001018963229395016,1.2062108606672866,0.6106001352536614,0.007896696114586377,3.237256756453795,0.004613585108967882,5.302881626252949,0.006831757719756983,-2.6155426897849385,-1.4492829936764593,15.6808161096932,-87.0,9.966636290382258,-76.29416352538368,3.5344914638584695,12.0,11.175858240923294
0.126,pd_gc,1.0130465582874932,118.2222015715618,0.0025883969335927094,-0.3214906723315387,0.0022181933372140278,-1.5838520726597665,0.0010321618485990285,1.201111672817235,0.6077249598813468,0.007650402742479447,3.172634563206348,0.0044030127850064466,5.208629824970102,0.006599309602006335,-2.549593925025777,-1.4375876861573154,15.683598564147173,-87.0,9.97522196086492,-76.02871190918322,3.5348297279610637,12.0,11.186982236594979
0.128,pd_gc,1.0257580401279178,118.05084011220846,0.0026032729929306633,-0.31527271817839686,0.0022266834233178614,-1.5736211344690698,0.0010449165422128106,1.196140325839408,0.6048731135921998,0.007438029668977037,3.108977076570934,0.004245043051916687,5.115469095348278,0.006377346806891019,-2.4856734889134753,-1.425923144573504,15.685822606917872,-87.0,9.982939702122918,-75.75889630601671,3.535125633507489,12.0,11.197734257242047
0.13,pd_gc,1.0382452237548012,117.87919661788759,0.0026177776018912907,-0.309179887037222,0.002234938660288065,-1.5635739311906536,0.0010572479897461545,1.1912926547974279,0.6020445233249239,0.007252304480313644,3.0464155705874423,0.00412761848510171,5.023601639208139,0.006165723766671988,-2.4238355209900733,-1.4142951336379328,15.68760574519987,-87.0,9.989949358338444,-75.48830146877684,3.5353725398555054,12.0,11.208140588121891
0.132,pd_gc,1.050511225582181,117.70869227008943,0.0026319523777538893,-0.30320985712497445,0.0022430203664145104,-1.5537076414171678,0.0010691755450271453,1.1865644704856315,0.5992391056293489,0.00708738793129925,2.9850149561237638,0.004040853063222891,4.933144886742903,0.0059637776404954275,-2.3640921558981787,-1.4027088477875054,15.689045529124307,-87.0,9.996389937023661,-75.2191027627756,3.5355710158710805,12.0,11.218225871383783
0.134,pd_gc,1.0625594126707496,117.54020126794049,0.002645829749338881,-0.29736025345437467,0.0022509741528138534,-1.5440193094371417,0.001080716909117841,1.1819516086260802,0.5964567678246808,0.006938685792495906,2.9248018352998946,0.003976893199671414,4.84416599001308,0.005770682045347805,-2.306430929775621,-1.3911689023340592,15.6902203787415,-87.0,10.002376194043052,-74.95264338827474,3.535724759538491,12.0,11.228012672874252
0.136,pd_gc,1.0743933148371543,117.37427230075048,0.0026594350148186428,-0.29162869184336637,0.0022588334165382215,-1.5345059053214214,0.0010918881448323597,1.1774499586719156,0.593697409088173,0.00680263273988084,2.8657808055041603,0.003929631862184064,4.756702057860171,0.005585617857259358,-2.2508249770823037,-1.3796793682538784,15.691192018957947,-87.0,10.00799988953339,-74.68977298032475,3.5358384839945654,12.0,11.237521422834405
0.138,pd_gc,1.0860165683342449,117.21125862583905,0.0026727879904075475,-0.28601280399348056,0.0022666222011218447,-1.5251643612599866,0.0011027038373189137,1.1730554806437912,0.5909609214399338,0.006676487794452356,2.807943924942914,0.0038943922918115662,4.67077203071739,0.005407846243276981,-2.197239014062242,-1.3682438241195864,15.692008340456178,-87.0,10.013332886043877,-74.43104615499897,3.53591689124828,12.0,11.246770532924378
0.14,pd_gc,1.097432878557184,117.0513945413381,0.002685904304471196,-0.2805102515892648,0.002274357469461927,-1.5159915939427484,0.001113177300458669,1.168764214920804,0.5882471906166019,0.006558157031824114,2.751276202107886,0.003867634170041287,4.586383658619034,0.005236731569877594,-2.1456328614936186,-1.3568654116659724,15.692706131645064,-87.0,10.018430682386333,-74.17683894224336,3.535964228483155,12.0,11.25577658411086
0.14200000000000002,pd_gc,1.1086459943646707,116.89484044277569,0.002698796399136669,-0.27511873403808607,0.002282050873753722,-1.5069845187156117,0.0011233207809258872,1.164572287859363,0.585556096839417,0.006446047332736515,2.6957587755893755,0.0038467021458975714,4.503537613568362,0.0050717402336091085,-2.0959635307204993,-1.3455468885924655,15.69331345719677,-87.0,10.023335737429447,-73.92741712593764,3.53598414403586,12.0,11.264554531435083
0.14400000000000002,pd_gc,1.1196596896238586,116.74170947526044,0.0027114742979342174,-0.26983599253117596,0.0022897101146055784,-1.498140058863383,0.0011331456394478344,1.1604759149182693,0.5828875154874313,0.006338949398774225,2.6413707534550475,0.003829620425928181,4.422229926114336,0.004912429260973572,-2.048186470546876,-1.3342906759928117,15.693851625410757,-87.0,10.028080333293328,-73.68297644404942,3.5359796881700984,12.0,11.273117899908096
0.146,pd_gc,1.1304777493634397,116.59208340370809,0.0027239461900758315,-0.2646598119804646,0.0022973399742825967,-1.4894551519787065,0.0011426625029494902,1.1564714022715519,0.5802413176879565,0.006235946070807118,2.5880902753556807,0.003814929838509161,4.342453442338329,0.004758431750827884,-2.0022563233587367,-1.3230988997374116,15.694336764582424,-87.0,10.032688923222892,-73.44366633743641,3.5359533761272037,12.0,11.281478960850086
0.148,pd_gc,1.1411039589647207,116.4460221627776,0.002736218873043021,-0.2595880217319382,0.002304943096471663,-1.480926754562419,0.0011518813880380175,1.1525551474847995,0.5776173708358465,0.006136341483594765,2.535895124263221,0.0038015610945331584,4.264198708143786,0.004609442544263587,-1.9581273933761743,-1.3119734260549998,15.694781059802635,-87.0,10.037179998641426,-73.20960408649152,3.535907271158277,12.0,11.289648885716334
0.15,pd_gc,1.1515420954369087,116.3035696965399,0.002748298086769689,-0.25461849557708893,0.00231252057153379,-1.4725518455256272,0.0011608117991406845,1.1487236395945173,0.5750155390519629,0.006039606863333865,2.4847630774246325,0.003788737531063492,4.1874545183958345,0.004465205551333491,-1.9157539451410819,-1.3009158919418136,15.695193709386233,-87.0,10.041567543857704,-72.98088333271451,3.5358430671765424,12.0,11.297637878154607
0.152,pd_gc,1.1617959201873915,116.16475761422097,0.002760188765473064,-0.2497491513643315,0.0023200723739206317,-1.464327428986722,0.0011694628054759613,1.144973458792564,0.5724356835896988,0.0059453393516876694,2.4346721063787036,0.0037759011934208444,4.112208269452595,0.004325503167638416,-1.8750904009766378,-1.2899277311320942,15.69558165697175,-87.0,10.045862153620442,-72.75757931861673,3.5357621623233313,12.0,11.305455286594038
0.154,pd_gc,1.1718691729144444,116.02960755463954,0.0027718952272397417,-0.24497795038507075,0.0023275976880039488,-1.4562505365950849,0.0011778431009532636,1.1413012758376728,0.5698776631970228,0.0058532308833387165,2.385600489630378,0.0037626570416585585,4.038446195818607,0.004190147738651125,-1.8360914774455832,-1.2790101963379954,15.695950147838527,-87.0,10.050071883124367,-72.53975220669551,3.535665720699461,12.0,11.313109700120002
0.156,pd_gc,1.1817655663795303,115.89813278160149,0.002783421316730837,-0.24030289663552254,0.0023350951500967425,-1.4483182295192165,0.0011859610506139266,1.1377038512693578,0.5673413344402498,0.005763044745547729,2.3375268747741016,0.0037487310463968164,3.9661535379342174,0.004058974830331536,-1.798712284157489,-1.2681643783864918,15.696303149454078,-87.0,10.054202889895283,-72.32744927023779,3.535554722372348,12.0,11.320609030316248
0.158,pd_gc,1.1914887818948983,115.77033931615796,0.0027947705126620055,-0.2357220360128421,0.002342563027753676,-1.440527600182269,0.0011938247266248308,1.1341780344721646,0.56482655199468,0.00567459796558419,2.290430311340212,0.0037339388284667596,3.895314668473728,0.003931838005452173,-1.7629083985966147,-1.2573912227849,15.696643668223865,-87.0,10.058259916004234,-72.12070641745102,3.5354300029838286,12.0,11.327960581459362
0.16,pd_gc,1.2010424654104692,115.64622678526437,0.002805946008854965,-0.23123345547951646,0.002349999352250489,-1.432875773796076,0.0012014419362498833,1.1307207626221079,0.5623331689063724,0.0055877480964797235,2.244290266662826,0.003718162248406577,3.825913193096534,0.0038086048125262287,-1.7286359250283443,-1.2466915441537985,15.696973987468862,-87.0,10.06224664897922,-71.91954931744914,3.5352922846598447,12.0,11.335171111088526
0.162,pd_gc,1.2104302241143436,115.52578909255271,0.002816950775474583,-0.2268352822157561,0.002357402016171725,-1.4253599097261707,0.0012088202437087797,1.1273290595375345,0.559861036828604,0.005502383309808977,2.1990866318801796,0.0037013319606180625,3.757932034952639,0.0036891537294481765,-1.6958515422867075,-1.2360660388842322,15.697295845940886,-87.0,10.066165991213753,-71.72399428433629,3.5351421998985626,12.0,11.342246882619982
0.164,pd_gc,1.2196556234808615,115.4090149737752,0.0028277876054113625,-0.2225256827713914,0.0023647688450256113,-1.4179772027093978,0.0012159669874032065,1.1240000344508219,0.5574100062359894,0.005418414968389754,2.154799722182353,0.0036834144269430333,3.6913535083864675,0.0035733718472133963,-1.6645125433563426,-1.225515296307331,15.69761057162471,-87.0,10.07002026070456,-71.53404901037084,3.534980309919689,12.0,11.34919371136247
0.166,pd_gc,1.228722184713255,115.29588847422238,0.0028384591495219757,-0.2183028622240079,0.0023720976495375697,-1.410724883939308,0.0012228892936453112,1.1207308807136942,0.5549799266187726,0.005335772055306693,2.1114102736917464,0.003664402255979102,3.6261593850448075,0.003461153121052341,-1.6345768685638762,-1.2150398086083958,15.697919182009636,-87.0,10.073811340445518,-71.3497132012987,3.534807118712613,12.0,11.356017005026466
0.168,pd_gc,1.2376333825370551,115.18638937061037,0.00284896794350378,-0.21416506334728097,0.0023793862635745015,-1.4036002220307144,0.0012295940877515964,1.1175188744465891,0.5525706466594273,0.005254396990902099,2.06889943836347,0.0036443070184659413,3.562330954296835,0.003352397053142628,-1.6060031335525367,-1.2046399796726013,15.69822245926395,-87.0,10.077540789534762,-71.17097914496448,3.534623083780835,12.0,11.362721799605097
0.17,pd_gc,1.24639264330704,115.08049355122407,0.00285931642847768,-0.21011056579184786,0.0023866325713828946,-1.3966005238724708,0.001236088103154919,1.1143613731409154,0.5501820143933996,0.005174242486950204,2.0272487777165593,0.0036231539041966278,3.4998490791217822,0.003247007701661281,-1.5787506528368471,-1.1943161330138783,15.698521006647068,-87.0,10.081209925785025,-70.99783223156554,3.5344286243682452,12.0,11.369312791332584
0.17200000000000001,pd_gc,1.2550033433955419,114.97817336296302,0.002869506966829308,-0.20613768528009993,0.0023938345268784576,-1.389723135376104,0.0012423778890259724,1.1112558142218958,0.5478138773555786,0.005095269175813933,1.9864402558739709,0.0036009777477814388,3.4386942481833884,0.003144892935526667,-1.5527794595098643,-1.1840685189104927,15.698815290904484,-87.0,10.084819887149763,-70.83025143653438,3.534224127776261,12.0,11.375794365289616
0.17400000000000002,pd_gc,1.263468807833873,114.87939793088327,0.002879541854467041,-0.20224477281570674,0.0024009901670220724,-1.3829654421269904,0.0012484698167729853,1.1081997135788173,0.5454660827138811,0.0050174438188667035,1.946456232196598,0.0035778200718073337,3.3788466245568154,0.0030459638735064656,-1.5280503215392478,-1.1738973208487749,15.699105674192262,-87.0,10.08837167741285,-70.66820977275597,3.5340099542387575,12.0,11.382170621118101
0.176,pd_gc,1.2717923091818653,114.78413345400132,0.002889423330363478,-0.19843021390833748,0.002408097620794845,-1.3763248699441384,0.001254370085695649,1.1051906640688107,0.5431384773911629,0.004940737948218241,1.9072794536846336,0.003553726886386312,3.320286091426031,0.0029501344613318595,-1.5045247550033103,-1.1638026613590844,15.699392438178505,-87.0,10.091866200192122,-70.51167471634868,3.5337864407098927,12.0,11.388445396223338
0.178,pd_gc,1.2799770666032,114.69234348002111,0.002899153584029367,-0.19469242781382898,0.002415155114897651,-1.3697988853541723,0.0012600847279994898,1.1022263339996854,0.5408309081765342,0.0048651268329447765,1.8688930472542513,0.003528747051403085,3.2629922949831065,0.0028573211519203326,-1.482165034562718,-1.1537846073143647,15.699675802295866,-87.0,10.095304284264254,-70.36060860879816,3.5335539038333197,12.0,11.39462228677563
0.18,pd_gc,1.2880262451265077,114.6039891609647,0.0029087347614068395,-0.19102986678991077,0.002422160977013213,-1.363384995984753,0.0012656196133245335,1.0993044655968347,0.5385432218270327,0.0047905886887362244,1.8312805119591007,0.0035029310577810403,3.2069446847096,0.002767442662521905,-1.4609342014253812,-1.1438431747507352,15.699955937616425,-87.0,10.098686702442041,-70.21496903739398,3.533312642294874,12.0,11.400704666771356
0.182,pd_gc,1.2959429550742112,114.51902949126323,0.0029181689695478756,-0.18744101536750446,0.0024291136372555826,-1.3570807508823746,0.0012709804529029097,1.0964228734587662,0.536275265160511,0.00471710407051803,1.7944257112031476,0.0034763301211847173,3.152122551189288,0.0026804197891881695,-1.4407960690342212,-1.1339783332608373,15.700232977445147,-87.0,10.10201418565824,-70.07470919542712,3.5330629387104073,12.0,11.406695705372073
0.184,pd_gc,1.303730251642831,114.43742152958963,0.0029274582803538235,-0.18392438963754962,0.002436011628273733,-1.35088374075921,0.001276172803430748,1.0935794430053944,0.5340268851405038,0.004644655402973853,1.7583128649774145,0.003448995509075301,3.098505061582296,0.002596175263919169,-1.421715226685836,-1.1241900100036109,15.700507025448918,-87.0,10.105287433482344,-69.93977822331411,3.532805061162302,12.0,11.412598382707541
0.186,pd_gc,1.311391134620013,114.35912060553365,0.0029366047335844863,-0.18047853655326074,0.002442853584358545,-1.3447915981734535,0.0012812020707178703,1.0907721289228538,0.5317979289537669,0.004573226615331501,1.7229265421444424,0.0034209780424059935,3.0460712928782656,0.0025146336435611875,-1.4036570412702958,-1.114478093368429,15.700778161930062,-87.0,10.108507121979446,-69.81012153163636,3.5325392644695235,12.0,11.418415504302038
0.188,pd_gc,1.3189285482249216,114.2840805120928,0.0029456103392950517,-0.17710203324768348,0.0024496382398152034,-1.3388019976473782,0.0012860735131624927,1.0879989536082397,0.5295882440811133,0.004502802855282564,1.6882516527886287,0.0033923277283291462,2.994800263037618,0.002435721222311198,-1.3865876573070088,-1.104842436326804,15.701046448698602,-87.0,10.111673909585397,-69.68568110697198,3.5322657912545585,12.0,11.424149714261876
0.19,pd_gc,1.326345381059864,114.21225368486134,0.002954477079821524,-0.17379348636639,0.002456364426798119,-1.332912655727131,0.0012907922450860188,1.0852580056173637,0.5273976783621114,0.004433370263236104,1.6542734406467445,0.0033630934914577826,2.944670960123681,0.0023593659617630438,-1.3704739954380363,-1.095282859500939,15.701311932882442,-87.0,10.114788441498614,-69.56639580132489,3.531984872854533,12.0,11.429803507344525
0.192,pd_gc,1.3336444661621236,114.1435913687296,0.0029632069114071584,-0.1705515314151296,0.0024630310727571138,-1.327121330988084,0.0012953632399539826,1.0825474381183078,0.5252260800541612,0.00436491579281717,1.6209774756301976,0.0033333229794974867,2.895662369523416,0.0022854974339818947,-1.3552837495279542,-1.0857991539751048,15.701574649928974,-87.0,10.117851352960214,-69.45220160590434,3.5316967301117836,12.0,11.435379240015173
0.194,pd_gc,1.34082858114596,114.0780437728495,0.0029718017655412116,-0.16737483212223256,0.0024696371976075013,-1.3214258239893837,0.0012997913335024824,1.0798654673532917,0.5230732978864151,0.0042974270670266415,1.5883496464485247,0.0033030624251937195,2.8477534993502065,0.002214046774249894,-1.3409853825080609,-1.076391083873006,15.701834625987987,-87.0,10.120863271698573,-69.34303190996965,3.5314015740702125,12.0,11.440879140584402
0.196,pd_gc,1.3479004484256505,114.01556021457488,0.002980263550065394,-0.16426207981554858,0.0024761819107096687,-1.315823977181147,0.001304081226784457,1.0772103711111072,0.5209391811089713,0.004230892262091371,1.556376153341985,0.003272356551083656,2.8009234041183477,0.002144946640987324,-1.327548121092283,-1.0670583887219005,15.702091879818331,-87.0,10.123824819744417,-69.23881774542335,3.531099606597116,12.0,11.44630531851031
0.198,pd_gc,1.3548627355112428,113.95608925304428,0.002988594150091353,-0.16121199281368906,0.0024826644077234933,-1.3103136747675965,0.001308237489146447,1.0745804872121423,0.518823579537727,0.004165300012979458,1.5250435009297656,0.0032412485069122066,2.7551512067753032,0.0020781311809950067,-1.3149419494823984,-1.057800785622151,15.70234642432549,-87.0,10.126736614769506,-69.1394880178079,3.5307910209452142,12.0,11.451659772939681
0.2,pd_gc,1.361718055369432,113.89957881303697,0.002996795428763371,-0.1582233158313307,0.0024890839673876435,-1.3048928425292476,0.001312264561143728,1.0719742120078,0.5167263435952488,0.004100639336008899,1.494338491179185,0.0032097798320751226,2.7104161191744067,0.0020135359986406154,-1.303137602171126,-1.0486179712390638,15.70259826781098,-87.0,10.129599271064091,-69.04496972433711,3.530476002265951,12.0,11.456944400555212
0.202,pd_gc,1.3684689668426397,113.84597629969834,0.003004869227893497,-0.15529481939833012,0.0024954399482622716,-1.2995594476071128,0.0013161667573996616,1.0693899988959137,0.5146473243479843,0.004036899565062958,1.4642482165002924,0.003177990437314034,2.666697461067413,0.0019510981279667631,-1.2921065559431704,-1.0395096236322776,15.702847414994807,-87.0,10.132413400238994,-68.95518815956827,3.5301547280823966,12.0,11.462161002789118
0.20400000000000001,pd_gc,1.3751179751199833,113.7952287047004,0.003012817368490973,-0.15242529929239135,0.002501731785464821,-1.2943114982517265,0.0013199482694135865,1.066826356853581,0.5125863735401113,0.0039740702987381546,1.4347600529693865,0.003145918601274688,2.6239746776931128,0.0018907560069625284,-1.2818210211663996,-1.0304754039365425,15.703093867857639,-87.0,10.135179611717067,-68.87006710929943,3.5298273687280384,12.0,11.467311292457767
0.20600000000000002,pd_gc,1.3816675322543661,113.74728270437222,0.0030206416512036944,-0.1496135759850229,0.0025079589874219712,-1.2891470435396564,0.00132361316832046,1.064281848988665,0.5105433436242983,0.003912141356360573,1.4058616536842221,0.0031136009785752263,2.582227356035137,0.0018324494534367258,-1.2722539324579731,-1.0215149579064684,15.70333762633839,-87.0,10.137898513062991,-68.78952903325371,3.5294940877563055,12.0,11.472396899866835
0.20800000000000002,pd_gc,1.388120037720435,113.70208475030697,0.0030283438566862226,-0.14685849410051696,0.0025141211326555825,-1.2840641730600184,0.0013271654076046136,1.0617550911110583,0.5085180877896249,0.0038511027412640917,1.3775409422529723,0.003081072616805736,2.541435239819026,0.001776119642076826,-1.2633789388033554,-1.0126279173366983,15.703578688914657,-87.0,10.140570710188513,-68.71349523708973,3.5291550423245024,12.0,11.477419378431883
0.21,pd_gc,1.3944778390085952,113.6595811529261,0.003035925745906364,-0.14415892188768015,0.0025202178666165085,-1.279061016573387,0.0013306088257693865,1.0592447503246587,0.506510459986889,0.003790944610070692,1.3497861064184113,0.003048366980462991,2.501578243315705,0.001721709082386475,-1.2551703931997598,-1.0038139013679421,15.703817053087407,-87.0,10.14319680746141,-68.64188603425825,3.528810383555008,12.0,11.482380209855268
0.212,pd_gc,1.4007432322507005,113.61971815845386,0.0030433890604003133,-0.1415137507040437,0.002526248898577033,-1.274135743645356,0.0013339471489639365,1.0567495436408796,0.5045203149515123,0.0037316572469745482,1.322585591818224,0.00301551598026222,2.4626364640156053,0.0016691615972749883,-1.2476033418896029,-0.9950725176883944,15.704052715786503,-87.0,10.14577740773981,-68.57462089820173,3.528460256876035,12.0,11.487280808896662
0.214,pd_gc,1.4069184628734162,113.58244201973203,0.003050735522484777,-0.13892189451227996,0.002532213998590234,-1.2692865632568862,0.0013371839935682013,1.0542682366143916,0.5025475082242338,0.003673231042231816,1.2959280958818686,0.002982550006600583,2.4245901942348804,0.001618422302132423,-1.2406535132440262,-0.9864033636392334,15.704285673710332,-87.0,10.148313112348871,-68.51161860537515,3.528104802343713,12.0,11.492122527771095
0.216,pd_gc,1.413005726275596,113.54769906127997,0.0030579668354331975,-0.136382289388552,0.0025381129945226343,-1.2645117233934613,0.0013403228687367385,1.0517996420016889,0.5005918961697695,0.0036156564742103213,1.2698025618639706,0.0029494979662000437,2.387419931712433,0.001569437584268618,-1.234297306351389,-0.9778060272321469,15.704515923609973,-87.0,10.150804521012578,-68.45279736954532,3.5277441549469977,12.0,11.49690666020559
0.218,pd_gc,1.4190071685263401,113.51543573898309,0.003065084683622141,-0.13389389304252433,0.002543945769164937,-1.2598095106149536,0.0013433671789019937,1.049342618442967,0.49865333599359724,0.003558924094471704,1.2441981730138434,0.0029163873211513693,2.351106389253822,0.0015221550826276153,-1.2285117793608828,-0.9692800880861513,15.704743462526402,-87.0,10.1532522317512,-68.39807496780693,3.5273784448965855,12.0,11.501634445182672
0.22,pd_gc,1.4249248870806877,113.48559869477032,0.003072090732653041,-0.13145568434876356,0.0025497122574243995,-1.2551782496080024,0.0013463202262374218,1.0468960691677132,0.49673168575701654,0.0035030245154499024,1.2191043468803828,0.002883244129731125,2.3156305034755635,0.001476523667714037,-1.223274637626992,-0.9608251182903491,15.704968287987624,-87.0,10.15565684075226,-68.3473688587347,3.527007797898891,12.0,11.506307070396689
0.222,pd_gc,1.4307609315101681,113.45813480662136,0.003078986629453765,-0.129066662889261,0.0025554124436013605,-1.2506163027226007,0.001349185213080794,1.0444589407243203,0.4948268043906191,0.00344794840036196,1.19451072975128,0.0028500930884804375,2.280973442700847,0.0014324934216860773,-1.2185642216964412,-0.9524406831987072,15.705190398171458,-87.0,10.158018942221611,-68.30059629307243,3.526632335415944,12.0,11.510925675446583
0.224,pd_gc,1.436517304245675,113.43299123422337,0.0030857740023638525,-0.12672584850681054,0.0025610463587516126,-1.2461220694944901,0.0013519652443179616,1.0420302217339694,0.49293855170629425,0.003393686455043869,1.1704071912252265,0.0028169575751260316,2.247116614055315,0.0013900156185837648,-1.2143594951754892,-0.9441263421624224,15.705409792038632,-87.0,10.160339128219803,-68.25767441734195,3.526252174911991,12.0,11.515491354786814
0.226,pd_gc,1.4421959613303568,113.41011546057872,0.0030924544612067526,-0.12443228086897942,0.0025666140781356074,-1.2416939861548717,0.0013546633297273041,1.0396089416689456,0.4910667884078843,0.003340229421449992,1.1467838189155604,0.002783859691997465,2.214041669809225,0.0013490427046713221,-1.2106400325119375,-0.9358816492049714,15.70562646944028,-87.0,10.16261798848791,-68.21852037073793,3.525867430087513,12.0,11.520005160456238
0.228,pd_gc,1.4477988131804216,113.38945532984712,0.0030990295973519354,-0.12218501904241225,0.0025721157187549135,-1.2373305251288516,0.0013572823862850643,1.0371941696554996,0.4892113761005953,0.003287568072591367,1.123630913283587,0.002750820309653059,2.1817305130100944,0.001309528278880079,-1.2073860067229962,-0.9277061536445125,15.705840431203159,-87.0,10.16485611026619,-68.18305137565787,3.5254782111012277,12.0,11.524468104603129
0.23,pd_gc,1.4533277253519385,113.37095908168746,0.003105500983769373,-0.11998314107721296,0.0025775514369758626,-1.233030194523956,0.0013598252404317525,1.0347850133013052,0.48737217729925947,0.003235693208718782,1.1009389825996465,0.00271785911047456,2.150165302447798,0.0012714270733441013,-1.2045781770971828,-0.9195994006679152,15.706051679195566,-87.0,10.167054078108604,-68.15118482219957,3.525084624780746,12.0,11.528881161822913
0.232,pd_gc,1.458784519311893,113.35457538234944,0.0031118701750785355,-0.11782574360115326,0.0025829214262399233,-1.2287915376099718,0.0013622946302998022,1.0323806175475139,0.4855490554355388,0.0031845956545811845,1.0786987380298456,0.0026849946320302897,2.1193284569920166,0.0012346949340248728,-1.202197876895692,-0.9115609318603352,15.706260216376387,-87.0,10.169212473695247,-68.12283834694452,3.524686774822319,12.0,11.533245271323883
0.234,pd_gc,1.4641709732119181,113.34025335274875,0.003118138707593759,-0.11571194142346077,0.0025882259148600002,-1.2246131322912919,0.0013646932079026514,1.0299801635453616,0.48374187486415093,0.0031342662576118157,1.0569010888462502,0.0026522443100385745,2.0892026593399744,0.0011992888014246371,-1.200227001076152,-0.9035902856939221,15.706466046829581,-87.0,10.171331875644864,-68.09792990632934,3.5242847619802693,12.0,11.537561338934816
0.23600000000000002,pd_gc,1.469488822663258,113.32794259374447,0.0031243080993675824,-0.11364086714794432,0.0025934651639015816,-1.2204935905728709,0.0013670235412854316,1.027582867557243,0.481950500868193,0.003084695886911726,1.0355371377582276,0.0026196245207907704,2.059770859210491,0.001165166691390121,-1.1986479940593733,-0.8956869979789511,15.706669175785935,-87.0,10.17341285932885,-68.07637784489326,3.5238786842464984,12.0,11.541830238967266
0.23800000000000002,pd_gc,1.4747397615116624,113.31759320882453,0.003130379850233415,-0.11161167079521922,0.0025986394651474148,-1.2164315580208338,0.001369288116637452,1.0251879798821277,0.48017479966363225,0.0030358754329161946,1.01459817636255,0.0025871506229165537,2.0310162760185837,0.0011322876760102246,-1.197443837557566,-0.8878506022803915,15.70686960963383,-87.0,10.175455996688202,-68.0581009586766,3.5234686370205925,12.0,11.546052815944247
0.24,pd_gc,1.4799254426110298,113.30915582439044,0.0031363554418487004,-0.10962351943379962,0.002603749139144202,-1.2124257132187075,0.001371489340366677,1.0227947838051665,0.4784146384030269,0.00298779580764273,0.9940756807097985,0.002554836998393608,2.0029224010630937,0.0011006118646123976,-1.1965980384805524,-0.8800806303026752,15.7070673559205,-87.0,10.177461856054455,-68.0430185540311,3.5230547132709056,12.0,11.550229886206015
0.242,pd_gc,1.4850474785947294,113.30258160782093,0.0031422363377395625,-0.10767559681983051,0.002608794533329644,-1.2084747672201912,0.0013736295411364036,1.0204025945712971,0.4766698851785365,0.0029404479454310786,0.9739613069845612,0.0025226970927211276,1.9754729992581619,0.0010701003848633318,-1.1960946169347086,-0.8723766122451995,15.707262423345107,-87.0,10.179431001975528,-68.0310505020908,3.522637003687049,12.0,11.55436223940279
0.244,pd_gc,1.4901074426436411,113.29782228348154,0.003148023983347754,-0.10576710304523675,0.002613776020238026,-1.2045774629993156,0.001375710971864364,1.0180107583826417,0.4749404090242747,0.0028938228040958115,0.9542468872968788,0.0024907434541910213,1.9486521104377896,0.0010407153639801683,-1.1959180943277372,-0.8647380771308847,15.707454821744802,-87.0,10.181363995047228,-68.02211728913939,3.5222155968241875,12.0,11.558450639883425
0.246,pd_gc,1.4951068692500347,113.29483014683696,0.0031537198060805965,-0.103897254194072,0.0026186939957824336,-1.2007325748987931,0.0013777358116844815,1.0156186514194598,0.4732260799180549,0.002847911366421282,0.9349244255823694,0.0024589877722037893,1.922444050261195,0.0010124199100587947,-1.1960534815908668,-0.8571645531099185,15.707644562074838,-87.0,10.183261391750937,-68.0161400630995,3.5217905792394752,12.0,11.562495827988268
0.248,pd_gc,1.5000472549765125,113.29355807681135,0.00315932521536447,-0.10206528200685511,0.002623548877611608,-1.1969389080773027,0.0013797061678715338,1.0132256788844025,0.4715267687825736,0.0028027046419367724,0.9159860936084494,0.0024274409145871156,1.8968334107452285,0.0009851780935261388,-1.196486267528708,-0.849655567740638,15.707831656383657,-87.0,10.185123744298178,-68.01304067635701,3.5213620356210567,12.0,11.566498521253795
0.25,pd_gc,1.5049300592093091,113.29395954653243,0.0031648416027023033,-0.10027043355268697,0.0026283411035393778,-1.1931952979564053,0.0013816240777289803,1.0108312740697911,0.4698423474860749,0.002758193668916724,0.8974242270840682,0.002396112963884907,1.8718050604487348,0.0009589549287232776,-1.197202407305743,-0.8422106482493427,15.708016117783728,-87.0,10.186951600482093,-68.0127417251233,3.5209300489099036,12.0,11.570459415535964
0.252,pd_gc,1.509756704905317,113.2959886325861,0.003170270341735419,-0.09851197090894621,0.0026330711300445644,-1.1895006096677405,0.0013834915104402332,1.0084348974476365,0.46817268884253355,0.002714369516557716,0.8792313218703767,0.0023650132525932658,1.847344144332418,0.0009337163556264018,-1.198188311077283,-0.8348293217706805,15.708197960418982,-87.0,10.188745503536527,-68.01516658552868,3.5204947004148774,12.0,11.57437918605863
0.254,pd_gc,1.5145285793322787,113.29960002289897,0.0031756127883099975,-0.09678917084836669,0.0026377394308392194,-1.1858537375011076,0.001385310368883658,1.006036035782093,0.4665176666113933,0.002671223287289271,0.8614000302897649,0.002334150397327436,1.8234360833165157,0.0009094292217124387,-1.199430832771688,-0.8275111155701164,15.708377199429359,-87.0,10.190505992002542,-68.02023944662992,3.5200560699212926,12.0,11.578258488392875
0.256,pd_gc,1.519247034801643,113.3047490233582,0.00318087028054836,-0.09510132453330523,0.0026423464955030395,-1.1822536043539928,0.0013870824914116102,1.0036342012640336,0.46487715549689357,0.0026287461191810816,0.8439231575307268,0.002303532331910069,1.8000665735573935,0.0008860612639760958,-1.2009172590296966,-0.8202555572498655,15.708553850913152,-87.0,10.192233599602748,-68.0278853405056,3.5196142357933,12.0,11.58209795937261
0.258,pd_gc,1.5239133893936412,113.31139156327032,0.003186044138925187,-0.09344773721701317,0.002646892828181794,-1.1786991611830668,0.0013888096535938199,1.0012289306674218,0.46325103114701444,0.0025869291884136948,0.8267936581460327,0.002273166339377326,1.7772215854630171,0.0008635810911048651,-1.202635298305848,-0.813062174939563,15.708727931887598,-87.0,10.1939288551234,-68.03803016960484,3.519169275070377,12.0,11.58589821795134
0.26,pd_gc,1.5285289276741951,113.3194841997537,0.003191135666348755,-0.09182772795172972,0.002651378946347602,-1.1751893864581344,0.0013904935699254565,0.9988197845271494,0.4616391701520688,0.0025457637117840856,0.8100046326417252,0.00224305908290405,1.7548873624661925,0.0008419581658183112,-1.2045730701362027,-0.8059304974728343,15.708899460248196,-87.0,10.195592282304395,-68.05060073150541,3.5187212635582057,12.0,11.589659866004636
0.262,pd_gc,1.533094901403307,113.32898412115186,0.0031961461482471975,-0.09024062930342075,0.00265580537961891,-1.1717232856189876,0.001392135895500212,0.9964063463379976,0.4600414500429671,0.002505240949221219,0.7935493241544889,0.002213216635653819,1.7330504195734118,0.0008211627873778002,-1.2067190945758517,-0.7988600545508397,15.709068454727122,-87.0,10.197224399737015,-68.06552474123069,3.5182702759141944,12.0,11.593383489082367
0.264,pd_gc,1.5376125302346386,113.33984914954914,0.0032010768526597776,-0.08868578707299078,0.002660172668638037,-1.1682998905355753,0.0013937382276487569,0.9939882217743795,0.45845774928917954,0.0024653522062901122,0.7774211152149852,0.0021836445095635123,1.711697541706174,0.0008011660742724188,-1.2090622818090615,-0.7918503768937734,15.709234934851128,-87.0,10.19882572076941,-68.08273085126592,3.5178163857278943,12.0,11.597069657114627
0.266,pd_gc,1.542083002406012,113.35203774246403,0.0032059290303331094,-0.08716256002380121,0.0026644813640041873,-1.1649182589718738,0.0013953021075429302,0.9915650379305109,0.4568879472964171,0.0024260888366659833,0.761613524594784,0.002154347683075081,1.6908157818507077,0.0007819399470866833,-1.2115919219343247,-0.7849009963812221,15.709398920899158,-87.0,10.200396753419788,-68.10214866940774,3.517359665596578,12.0,11.600718925074679
0.268,pd_gc,1.5465074754206158,113.36550899378975,0.003210703914822235,-0.08567031961533206,0.002668732025259848,-1.1615774740538116,0.0013968290217660406,0.9891364425806588,0.4553319244040526,0.0023874422445628357,0.7461202042345738,0.0021253306278303983,1.670392459031139,0.0007634571115552148,-1.2142976749260523,-0.7780114461822147,15.709560433860029,-87.0,10.201938000297073,-68.12370877457394,3.516900187196164,12.0,11.604331833602238
0.27,pd_gc,1.550887076718721,113.38022263404672,0.0032154027225964415,-0.0842084497428293,0.002672925219928542,-1.158276643741571,0.0013983204038496594,0.9867021034591105,0.4537895618823012,0.002349403887103218,0.7309349362513754,0.0020965973343470283,1.6504151561202982,0.0007456910418093894,-1.2171695607741737,-0.7711812608757225,15.709719495390344,-87.0,10.203449958528928,-68.1473427306937,3.51643802134777,12.0,11.607908909589979
0.272,pd_gc,1.5552229043397527,113.39613903000676,0.0032200266531496775,-0.08277634648278423,0.0026770615226019323,-1.155014900306568,0.0013997776357773004,0.9842617075595055,0.45226074192917654,0.002311965276618093,0.7160516300225376,0.0020681513366952054,1.6308717175015635,0.0007286159638205233,-1.2201979498024798,-0.7644099765623148,15.709876127772842,-87.0,10.204933119697031,-68.17298309879236,3.51597323808004,12.0,11.611450666735957
0.274,pd_gc,1.559516027574583,113.41321918374379,0.003224576889115413,-0.08137341784409555,0.0026811415140743275,-1.1517913998133793,0.0014012020494553882,0.9818149604531732,0.4507453476672413,0.0022751179828677925,0.701464319344341,0.0020399957361976317,1.6117502465943736,0.00071220683904388,-1.223373553166161,-0.7576971309676143,15.710030353875371,-87.0,10.206387969779302,-68.20056344737878,3.515505906687501,12.0,11.61495760606448
0.276,pd_gc,1.5637674876079404,113.43142473116247,0.003229054596385766,-0.07999908352476937,0.002685165780522678,-1.1486053216068686,0.0014025949281519232,0.9793615856261159,0.449243263140165,0.0022388536351766212,0.6871671596630896,0.002012133224175262,1.593039103255322,0.000696439348267517,-1.226687413528643,-0.7510422635381442,15.710182197110617,-87.0,10.207814989098944,-68.23001836123782,3.515036095785114,12.0,11.618430216417641
0.278,pd_gc,1.5679782981508577,113.45071794005153,0.003233460924234717,-0.07865277467401612,0.002689134912730205,-1.1454558678047364,0.0014039575079032624,0.9769013238342809,0.4477543733091048,0.002203163924475332,0.6731544253766226,0.001984566103763427,1.5747269010660554,0.0006812898756696244,-1.2301308959175163,-0.7444449155301168,15.710331681396669,-87.0,10.2092146522801,-68.26128344872504,3.514563873359191,12.0,11.621868974919627
0.28,pd_gc,1.572149446063091,113.47106170770529,0.0032377970054452113,-0.07733393365960765,0.0026930495053518514,-1.1423422627956994,0.0014052909788894376,0.9744339324767627,0.44627856404892147,0.0021680406052470725,0.65942050720423,0.0019572963108231744,1.5568025045185527,0.0006667354930876329,-1.2336956787590754,-0.7379046300916626,15.71047883111857,-87.0,10.210587428209818,-68.29429534765526,3.514089306814892,12.0,11.625274347415793
0.28200000000000003,pd_gc,1.5762818919654766,113.49241955815329,0.0032420639564399584,-0.07604201384036163,0.002696910156219799,-1.139263752743484,0.001406596486778442,0.9719591849865812,0.44481572214424353,0.0021334754973734845,0.645959909623011,0.0019303254339737583,1.539255026107739,0.0006527539445021444,-1.237373745090737,-0.7314209523389663,15.710623671090925,-87.0,10.211933780006229,-68.32899172987266,3.513612463020431,12.0,11.628646788888181
0.28400000000000003,pd_gc,1.580376570842195,113.514755639035,0.003246262877415716,-0.07477647934362411,0.0027007174656873438,-1.1362196050968023,0.001407875134039919,0.9694768702386805,0.4433657352853901,0.002099460487878793,0.6327672483687649,0.0019036547337724192,1.5220738233408038,0.0006393236307384533,-1.2411573739503845,-0.7249934294267351,15.710766226521576,-87.0,10.213254164992486,-68.36531130458448,3.5131334083481636,12.0,11.631986743849176
0.28600000000000003,pd_gc,1.5844343926329385,113.53803471815351,0.003250394852480857,-0.073536804847625,0.0027044720360094796,-1.1332091081054583,0.001409127981228695,0.9669867919747974,0.4419284920641633,0.002065987532570606,0.6198372479995577,0.0018772851610679541,1.5052484956720422,0.0006264235943879559,-1.2450391319414926,-0.7186216106133931,15.710906522976439,-87.0,10.214549034676534,-68.40319382053643,3.512652208712705,12.0,11.635294646714787
0.28800000000000003,pd_gc,1.5884562428149918,113.56222217973914,0.003254460949796011,-0.07232247536858467,0.0027081744707585886,-1.1302315703427153,0.0014103560482385982,0.964488768244852,0.44050388196952056,0.0020330486575770553,0.6071647395201626,0.0018512173745545775,1.488768881371503,0.000614033504951604,-1.2490118649727084,-0.7123050473213646,15.711044586345544,-87.0,10.215818834736124,-68.44258006710396,3.5121689296062404,12.0,11.63857092215895
0.29,pd_gc,1.592442982975239,113.58728402045213,0.003258462221717572,-0.07113298605245344,0.0027118253742736947,-1.1272863202340448,0.0014115603155270126,0.9619826308645112,0.439091795383135,0.0020006359607802945,0.594744658065617,0.0018254517575529798,1.4726250543352357,0.0006021336442072267,-1.2530686901704156,-0.7060432931927808,15.71118044281024,-87.0,10.217064005009131,-68.48341187436935,3.5116836361311172,12.0,11.641815985450073
0.292,pd_gc,1.596395451372136,113.61318684515022,0.003262399704943867,-0.06996784197116904,0.002715425351141784,-1.124372705592356,0.001412741725310617,0.9594682248885859,0.43769212357485315,0.0019687416131475006,0.5825720406422009,0.001799988434044714,1.456807320844451,0.0005907048918022451,-1.2572029879626718,-0.69983590414092,15.71131411881167,-87.0,10.21828497948871,-68.52563211225066,3.511196393029917,12.0,11.645030242771098
0.294,pd_gc,1.6003144634876887,113.63989786244572,0.003266274420663788,-0.06882655792332068,0.0027189750057097575,-1.121490093159795,0.001413901182732763,0.9569454080999202,0.43630475869805785,0.0019373578599604317,0.57064202392418,0.0017748272839866166,1.441306216280464,0.0005797287110729905,-1.2614083943327925,-0.6936824383976649,15.711445641020426,-87.0,10.219482186323207,-68.5691846887455,3.5107072647130657,12.0,11.648214091524068
0.296,pd_gc,1.6042008125694898,113.66738488007414,0.003270087374707679,-0.06770865823911125,0.0027224749416256194,-1.1186378681561913,0.0014150395570029463,0.9544140505134387,0.43492959378494334,0.0019064770219455209,0.5589498421047152,0.0017499679579309473,1.4261125018018628,0.0005691871350916917,-1.2656787932407474,-0.6875824565572427,15.711575036307451,-87.0,10.220656047820539,-68.6140145473488,3.5102163152841466,12.0,11.65136792062024
0.298,pd_gc,1.6080552701628728,113.69561630009434,0.003273839557700292,-0.06661367658951248,0.0027259257614075734,-1.1158154338342114,0.00141615768250883,0.9518740338950178,0.43356652274171037,0.001876091496306537,0.5474908247993852,0.0017254098909770734,1.4112171609899435,0.0005590627529418087,-1.2700083092104544,-0.6815355216164901,15.71170233171615,-87.0,10.221806980456735,-68.66006766370039,3.509723608563015,12.0,11.654492110756703
0.3,pd_gc,1.6118785866332608,113.72456111393936,0.0032775319452156165,-0.06554115579951085,0.002729328066039733,-1.1130222110412753,0.0014172563599012743,0.9493252512948559,0.43221544034368664,0.0018461937576623217,0.5362603950008149,0.0017011523160798195,1.3966113964680757,0.0005493386962221577,-1.2743913000809715,-0.6755411990118699,15.711827554435686,-87.0,10.222935394888582,-68.70729104151582,3.509229208106805,12.0,11.657587034680262
0.302,pd_gc,1.6156714916787756,113.75418889733469,0.003281165497933401,-0.06449064766534494,0.0027326824545932118,-1.1102576377882747,0.0014183363571528347,0.9467676065950168,0.43087624223037974,0.0018167763588922631,0.5252540670829524,0.001677194276739222,1.382286626500293,0.0005399986257802325,-1.2788223499195248,-0.6695990566534477,15.711950731775477,-87.0,10.224041695969962,-68.7556327078507,3.5087331772289563,12.0,11.660653057439475
0.304,pd_gc,1.6194346948331988,113.78446980509943,0.0032847411617971858,-0.06346171277563778,0.0027359895238714036,-1.1075211688251265,0.001419398410590184,0.9442010140708282,0.4295488249004677,0.0017878319318924089,0.5144674448535805,0.0016535346390958512,1.3682344815740763,0.0005310267186745591,-1.2832962620942567,-0.6637086649560212,15.712071891140837,-87.0,10.225126282771804,-68.80504170774502,3.508235579016357,12.0,11.663690536625527
0.306,pd_gc,1.6231688859593683,113.81537456584486,0.003288259868173676,-0.0624539203363304,0.002739249868078314,-1.1048122752231826,0.0014204432259009158,0.9416253979658192,0.4282330857067325,0.00175935318824521,0.5038962196536925,0.0016301721034553266,1.354446800971958,0.0005224076553659779,-1.2878080525045281,-0.6578695968675832,15.712191060009731,-87.0,10.226189548605417,-68.8554680982935,3.507736476344666,12.0,11.666699822602588
0.308,pd_gc,1.6268747357331017,113.84687447658301,0.0032917225340132884,-0.061466847999325586,0.002742464078508844,-1.10213044396451,0.0014214714791151908,0.939040692079886,0.42692892285094197,0.001731332919806118,0.49353616850240684,0.0016071052152649768,1.3409156293362863,0.0005141266071374783,-1.292352942966574,-0.652081427895282,15.712308265910673,-87.0,10.227231881048942,-68.90686294218327,3.507235931891942,12.0,11.669681258728346
0.31,pd_gc,1.6305528961177504,113.87894139725752,0.0032951300620117085,-0.06050008169475331,0.0027456327432599744,-1.0994751775380478,0.0014224838175626745,0.9364468393703815,0.4256362353786839,0.001703763999210154,0.4833831522861375,0.0015843323755651347,1.3276332132311888,0.0005061692237418926,-1.296926354752279,-0.6463437361290363,15.712423536401653,-87.0,10.228253661976748,-68.9591783007394,3.5067340081506453,12.0,11.672635181565221
0.312,pd_gc,1.6342040008294776,113.91154774520719,0.0032984833407723123,-0.05955321546677176,0.002748756446961848,-1.096845993542637,0.001423480860805228,0.9338437915658239,0.424354923174158,0.0016766393803018288,0.4734331139907739,0.0015618518509366807,1.3145919977055034,0.0004985216212767646,-1.3015239022788132,-0.6406561022629443,15.712536899050122,-87.0,10.22925526759163,-69.01236722651588,3.506230767438086,12.0,11.675561921082876
0.314,pd_gc,1.6378286657933707,113.94466648957224,0.0033017832449692957,-0.05862585131282042,0.00275183577052778,-1.0942424242969164,0.0014244632015457987,0.9312315087919302,0.42308488695492874,0.0016499520984916494,0.46368207697566977,0.0015396617829660454,1.3017846228601935,0.0004911703702853171,-1.3061413869468574,-0.6350181096146246,15.712648381413988,-87.0,10.23023706845961,-69.06638375546757,3.5057262719054085,12.0,11.678461800852432
0.316,pd_gc,1.6414274895904915,113.97827114565234,0.0033050306355113805,-0.057717599026243877,0.0027548712909222757,-1.0916640164560694,0.0014254314065139638,0.9286099592096799,0.4218260282666435,0.0016236952710425125,0.4541261432882733,0.0015177601972479375,1.289203920423509,0.0004841024840825123,-1.3107747911251217,-0.6294293441426073,15.712758011023574,-87.0,10.231199429547068,-69.12118289873713,3.5052205835451953,12.0,11.681335138232942
0.318,pd_gc,1.6450010538959758,114.01233576922388,0.003308226359705959,-0.05682807604220733,0.002757863580946167,-1.0891103306353955,0.0014263860173285732,0.9259791186651222,0.4205782494777197,0.001597862097289221,0.44476149201827286,0.001496145011945809,1.2768429103369359,0.00047730540730476747,-1.3154202722788662,-0.6238893944618963,15.712865815364495,-87.0,10.232142710260206,-69.1767206340879,3.504713764197722,12.0,11.684182244550462
0.32,pd_gc,1.6485499239082946,114.04683495082492,0.003311371251423548,-0.055956907286827,0.0027608132090380247,-1.0865809410406861,0.0014273275513379373,0.9233389703506419,0.4193414537740041,0.0015724458587944253,0.43558437769016545,0.0014748140459288656,1.264694797354748,0.0004707670046820078,-1.3200741572401176,-0.6183978518578047,15.712971821861474,-87.0,10.233067264486461,-69.23295389701369,3.5042058755559804,12.0,11.687003425270202
0.322,pd_gc,1.6520746487697875,114.08174381001334,0.003314466131262436,-0.055103725029440616,0.002763720739091033,-1.0840754351053665,0.001428256502437998,0.9206895044774074,0.41811554515340776,0.0015474399194441515,0.42659112869319094,0.0014537650265042182,1.2527529676597782,0.00046447555003039764,-1.324732936617282,-0.6129543102981676,15.713076057862995,-87.0,10.233973440637982,-69.2898405715528,3.5036969791694945,12.0,11.689798980162072
0.324,pd_gc,1.6555757619785851,114.1170379896053,0.003317511806713408,-0.05426816873794539,0.002766586730284557,-1.081593413134371,0.0014291733418689261,0.9180307179587237,0.4169004284205197,0.0015228377254859489,0.4177781457476117,0.0014329955967620253,1.2410109854978273,0.0004584197154640802,-1.3293932593418525,-0.6075583664440227,15.713178550626788,-87.0,10.234861581696748,-69.34733948083357,3.5031871364470137,12.0,11.692569203459984
0.326,pd_gc,1.6590537817920379,114.15269364989851,0.0033205090723244335,-0.0534498849371327,0.0027694117369296578,-1.0791344879547051,0.0014300785189905742,0.9153626141040239,0.41569600918120203,0.0014986328055128465,0.4091419004063451,0.001412503322550476,1.2294625898329432,0.0004525885608240393,-1.3340519273499183,-0.6022096196588476,15.713279327306125,-87.0,10.235732025261358,-69.40541037737582,3.5026764086581337,12.0,11.695314384015234
0.328,pd_gc,1.6625092116217652,114.18868746288604,0.0033234587098652252,-0.05264852706995071,0.0027721963083278526,-1.0766982845726538,0.0014309724620372186,0.9126852023232315,0.4145021938371692,0.0014748187703959043,0.40067893359099394,0.0013922856990974024,1.2181016910256375,0.0004469715233221946,-1.3387058903961904,-0.5969076720164338,15.713378414936868,-87.0,10.236585103595338,-69.46401393317251,3.5021648569338995,12.0,11.698034805444289
0.33,pd_gc,1.6659425404204438,114.22499660646476,0.003326361488491562,-0.051863755361628024,0.002774940988642441,-1.074284439837582,0.001431855578852016,0.909998497841235,0.41331888958055424,0.001451389313168428,0.39238585416134486,0.0013723401572941097,1.2069223675359337,0.00044155840739862985,-1.3433522409982674,-0.5916521283074754,15.71347584042524,-87.0,10.237421143676695,-69.52311172957351,3.5016525422664477,12.0,11.700730746271196
0.332,pd_gc,1.6693542430604538,114.26159875864236,0.003329218164909291,-0.051095236686593146,0.002777646316781755,-1.0718926021122759,0.0014327282576015955,0.9073025214222172,0.4121460043884644,0.0014283382088644565,0.38425933751744024,0.0013526640696568527,1.1959188626529962,0.00043633937478978856,-1.347988209508881,-0.5864425960449412,15.713571630536318,-87.0,10.238240467248847,-69.58266624699223,3.5011395255077438,12.0,11.703402480064943
0.334,pd_gc,1.672744780704499,114.29847209174693,0.0033320294835379196,-0.050342644438126444,0.002780312826293716,-1.06952243094977,0.0014335908674712064,0.9045972991035895,0.41098344701752776,0.0014056593143142592,0.37629612423335235,0.0013332547559804714,1.1850855812529353,0.00043130493480544803,-1.3526111593138705,-0.5812786854682995,15.713665811883153,-87.0,10.239043390872524,-69.64264085445522,3.500625867367454,12.0,11.706050275571988
0.336,pd_gc,1.6761146011683221,114.335595266642,0.0033347961766737187,-0.0496056584006828,0.002782941045271112,-1.0671735967765974,0.0014344437593408305,0.9018828619392822,0.40983112699843444,0.0013833465678995,0.3684930187218201,0.0013141094886981912,1.174417086586254,0.00042644593481208333,-1.3572185821536569,-0.5761600095466561,15.713758410916569,-87.0,10.239830225978773,-69.70299979901299,3.5001116284100102,12.0,11.708674396844167
0.338,pd_gc,1.6794641392756304,114.37294742695016,0.0033375189646522594,-0.04888396462482494,0.0027855314962670344,-1.0648457805824048,0.001435287266442671,0.8991592457521502,0.4086889546304727,0.0013613939892703761,0.3608468879289345,0.0012952254979611852,1.1639080970962699,0.00042175355092022353,-1.3618080935659995,-0.5710861839808655,15.71384945391551,-87.0,10.240601278922764,-69.76370819502937,3.499596869050897,12.0,11.711275103362233
0.34,pd_gc,1.6827938172053503,114.41050819328802,0.003340198556010314,-0.04817725530470877,0.0027880846962199356,-1.0625386736158653,0.0014361217050004177,0.8964264908952545,0.4075568409760634,0.0013397956790273278,0.35335466005808336,0.0012765999764506265,1.1535534832697207,0.00041721927887337326,-1.3663774284478414,-0.5660568272046701,15.713938966978036,-87.0,10.241356851038471,-69.82473201336629,3.4990816495522328,12.0,11.713852650155205
0.342,pd_gc,1.6861040448313325,114.44825765751438,0.003342835647647053,-0.04748522865806398,0.002790601156387805,-1.060251977086824,0.0014369473748506896,0.8936846420217863,0.4064346978552935,0.0013185458183693757,0.34601332332239276,0.0012582300839347194,1.143348264520656,0.00041283492513590327,-1.3709244367340632,-0.5610715603849185,15.714026976012795,-87.0,10.242097238693976,-69.88603807047843,3.498566030017658,12.0,11.716407287915724
0.34400000000000003,pd_gc,1.689395220054617,114.48617637699445,0.0033454309249844757,-0.04680758880861413,0.0027930813822909695,-1.0579854018746067,0.0014377645600470443,0.8909337478634043,0.4053224378404517,0.0012976386687114118,0.3388199247249257,0.0012401129515824407,1.1332876061086008,0.0004085925981773307,-1.3754470791909914,-0.5561300074209126,15.714113506731064,-87.0,10.242822733347413,-69.94759401743312,3.4980500703865824,12.0,11.718939263111572
0.34600000000000003,pd_gc,1.6926677291283827,114.52424536888117,0.0033479850621270205,-0.04614404567088229,0.0027955258736630604,-1.0557386682424228,0.0014385735294469451,0.8881738610167592,0.40421997425056583,0.0012770685712724529,0.3317715688659216,0.0012222456860453514,1.1233668160918797,0.0004044846999503626,-1.3799434233225245,-0.5512317949429291,15.714198584639282,-87.0,10.243533621603437,-70.00936832886816,3.49753383042784,12.0,11.721448818093563
0.34800000000000003,pd_gc,1.6959219469756917,114.5624461044162,0.003350498722020294,-0.045494314837329526,0.002797935124409697,-1.053511505557789,0.0014393745372820652,0.8854050377379857,0.4031272211459459,0.0012568299466367656,0.32486541677638264,0.0012046253733183684,1.113581342316897,0.000400503917559986,-1.3844116393867623,-0.5463765523099583,15.714282235032025,-87.0,10.2442301852701,-70.07133029190102,3.49701736973277,12.0,11.723936191199925
0.35000000000000003,pd_gc,1.6991582375001464,114.60076050325117,0.003352972556608874,-0.044858117467774856,0.0028003096225744763,-1.051303652018901,0.001440167823712307,0.8826273377449436,0.4020440933227325,0.001236917294289891,0.31809868477733644,0.0011872490823896652,1.1039267694440742,0.00039664321512088483,-1.3888499965210486,-0.5415639116067011,15.714364482985465,-87.0,10.244912701416098,-70.13344999500045,3.4965007477077723,12.0,11.726401616857352
0.352,pd_gc,1.702376953889575,114.63917092779137,0.0033554072069931365,-0.044235180181046614,0.002802649850311856,-1.049114854386879,0.0014409536153639079,0.8798408240269969,0.4009705063074528,0.0012173251921311916,0.311468643364121,0.0011701138686897744,1.094398816011063,0.0003928958258004352,-1.3932568589733558,-0.5367935076398628,15.714445353351232,-87.0,10.245581442428296,-70.19569831683236,3.4959840235663764,12.0,11.728845325678817
0.354,pd_gc,1.7055784389128537,114.67766017756232,0.003357803303585066,-0.04362523494881649,0.0028049562838665543,-1.0469448677238113,0.0014417321258519966,0.877045562662121,0.3999063763515852,0.0011980482959646872,0.3049726161150632,0.0011532167773492348,1.0849933315337754,0.0003892552440444168,-1.397630682437967,-0.5320649779337796,15.714524870750711,-87.0,10.246236676069538,-70.25804691508985,3.4954672563208407,12.0,11.731267544558339
0.356,pd_gc,1.708763025209983,114.71621148360092,0.003360161466263005,-0.04302801899156861,0.002807229393559102,-1.0447934551365199,0.001442503556287962,0.8742416226411341,0.39885162042613437,0.0011790813389697303,0.2986079786239375,0.001136554846273878,1.0757062936456974,0.00038571521798271994,-1.4019700104934307,-0.5273779627254134,15.71460305956969,-87.0,10.246878665536505,-70.32046821531728,3.4949505047733265,12.0,11.733668496762801
0.358,pd_gc,1.7119310355755324,114.7548085028716,0.003362482304525311,-0.042443274676657386,0.0028094696437771945,-1.0426603875259681,0.0014432680957719862,0.8714290756988525,0.3978061562162169,0.001160419131153052,0.2923721574556127,0.001120125109046283,1.0665338052758797,0.0003822697420121218,-1.406273471140793,-0.5227321049587453,15.714679943953385,-87.0,10.247507669517766,-70.38293539973745,3.494433827506684,12.0,11.736048402020907
0.36,pd_gc,1.7150827832355544,114.79343531270848,0.0033647664176428786,-0.041870749418408765,0.0028116774929725177,-1.0405454433422363,0.0014440259218710927,0.8686079961519723,0.3967699021156597,0.0011420565587836184,0.28626262912430983,0.0011039245976616377,1.0574720918659393,0.00037891304955332063,-1.4105397734401244,-0.5181270502786008,15.714755547801833,-87.0,10.248123942251848,-70.44542239609024,3.493917282874862,12.0,11.738407476609435
0.362,pd_gc,1.7182185721180885,114.83207640528447,0.0033670143948105018,-0.041310195580220935,0.0028138533936627294,-1.0384484083449836,0.0014447772010830514,0.8657784607434854,0.39574277722161183,0.0011239885838115673,0.2802769190939157,0.0010879503451059706,1.0485174986263386,0.0003756396059793442,-1.4147677042433973,-0.5135624470239337,15.7148298947656,-87.0,10.248727733585234,-70.5079038664908,3.4934009289929717,12.0,11.740745933436886
0.364,pd_gc,1.7213386971173568,114.87071668210746,0.003369226815297047,-0.04076137037862132,0.0028159977924382975,-1.0363690753693193,0.0014455220892864763,0.8629405484934418,0.39472470132917065,0.0011062102432725883,0.2744126007998087,0.0010721993877840094,1.0396664878321589,0.0003724441017124534,-1.4189561250217808,-0.509037946220598,15.7149030082418,-87.0,10.249319289030403,-70.57035519631432,3.492884823727073,12.0,11.743063982124589
0.366,pd_gc,1.7244434443517598,114.90934144854475,0.0033714042485944043,-0.04022403578923797,0.0028181111299739056,-1.0343072440970023,0.0014462607321774495,0.8600943405558709,0.39371559492602337,0.0010887166486788268,0.2686672946916732,0.0010566687678040328,1.0309156361585217,0.00036932144548666344,-1.4231039687854499,-0.5045532015736334,15.71497491137042,-87.0,10.249898849823722,-70.6327524831145,3.492369024683638,12.0,11.7453618290854
0.368,pd_gc,1.727533091415785,114.94793640837565,0.0033735472545651994,-0.03969795845464438,0.0028201938410441583,-1.0322627208328907,0.0014469932656929955,0.8572399200816828,0.3927153791871052,0.0010715029853975227,0.2630386672967927,0.0010413555351263524,1.0222616320557727,0.00036626675777299975,-1.4272102370940303,-0.5001078694590889,15.715045627030943,-87.0,10.250466652983162,-70.69507252558176,3.4918535891987843,12.0,11.747639677600073
0.37,pd_gc,1.7306079076259222,114.98648765837308,0.003375656383589236,-0.03918290959403773,0.0028222463545433223,-1.0302353182865618,0.0014477198164217248,0.8543773720873712,0.3917239759692744,0.0010545645120183952,0.2575244303033274,0.0010262567495819813,1.0137012731644857,0.00036327536436459333,-1.4312739971558222,-0.49570160891540915,15.715115177839218,-87.0,10.25102293136587,-70.75729281254726,3.491338574327269,12.0,11.749897727891371
0.372,pd_gc,1.733668154260703,115.02498168291446,0.0033777321767086577,-0.03867866491471154,0.0028242690935088577,-1.0282248553590212,0.0014484405020019624,0.8515067833293433,0.3907413078060056,0.0010378965597107174,0.25212233966309555,0.0010113694827676824,1.0052314637703075,0.0003603427901187717,-1.4352943790139696,-0.4913340816344041,15.715183586144605,-87.0,10.251567913725516,-70.81939151203837,3.490824036831273,12.0,11.752136177196022
0.374,pd_gc,1.7367140847949558,115.06340534862193,0.0033797751657718,-0.03818500452528475,0.0028262624751485043,-1.026231156934424,0.001449155431507669,0.8486282421837077,0.3897672979021019,0.0010214945315711154,0.24683019471339368,0.0009966908198232032,0.9968492122986223,0.0003574647528532444,-1.4392705728177695,-0.487004951951826,15.715250874027358,-87.0,10.252101824769372,-70.88134746038993,3.4903100331690062,12.0,11.754355219834585
0.376,pd_gc,1.7397459451283863,115.10174589903271,0.0033817858735757256,-0.037701712850649945,0.002828226910870697,-1.0242540536767262,0.001449864705822456,0.845741838531353,0.38880187012842676,0.0010053539019628265,0.24164583731740186,0.0009822178610964386,0.988551628848974,0.0003546371573935091,-1.4432018261773325,-0.482713886837572,15.715317063296263,-87.0,10.252624885215138,-70.94314015141678,3.4897966194831525,12.0,11.756555047279296
0.378,pd_gc,1.7427639738085814,115.13999094929937,0.00338376481400742,-0.03722857854860447,0.0028301628063181006,-1.022293381831188,0.0014505684180019934,0.8428476636481533,0.38784494901665567,0.0009894702158473334,0.2365671510227353,0.0009679477237017539,0.9803359227691513,0.000351856089768708,-1.4470874415998398,-0.47846055588553205,15.715382175486463,-87.0,10.25313731184737,-71.00474972565125,3.489283851589165,12.0,11.758735848219985
0.38,pd_gc,1.7457684022485342,115.17812848092049,0.0033857124921836384,-0.036765394428129046,0.002832070561404054,-1.0203489830306502,0.0014512666536250995,0.839945810100142,0.38689645975404946,0.0009738390881090807,0.23159206023771448,0.0009538775429766039,0.9721994002688102,0.00034911781155298787,-1.450926774005654,-0.4742446313031018,15.715446231857545,-87.0,10.253639317573699,-71.06615695964979,3.4887717849634643,12.0,11.760897808628103
0.382,pd_gc,1.7487594549387953,115.21614683650198,0.0033876294045893864,-0.03631195736927917,0.0028339505703517363,-1.0184207041065052,0.0014519594911337988,0.8370363716434969,0.3859563281782487,0.0009584562028739919,0.2267185294249392,0.0009400044738413485,0.9641394620724727,0.0003464187543496911,-1.4547192283225734,-0.4700657879003765,15.715509253391783,-87.0,10.254131111480541,-71.12734325537255,3.488260474731515,12.0,11.763041111818936
0.384,pd_gc,1.7517373496543365,115.25403471454868,0.0033895160392150314,-0.035868068244655646,0.00283580322173587,-1.0165083969042819,0.0014526470021626297,0.8341194431291837,0.3850244807720906,0.0009433173128224582,0.22194456231176285,0.0009263256920668011,0.9561536011117164,0.0003437555144154369,-1.4584642571565398,-0.46592370307904396,15.715571260792613,-87.0,10.254612898888565,-71.1882906296385,3.487749975655851,12.0,11.765165938512071
0.386,pd_gc,1.7547022976562368,115.29178116428736,0.0033913728756920264,-0.035433531842421095,0.002837628898526778,-1.0146119181037692,0.0014533292518574725,0.8311951204121095,0.3841008446584486,0.0009284182384974515,0.21726820111727518,0.0009128383954539785,0.9482394002563448,0.0003411248474214124,-1.4621613585371318,-0.4618180568209916,15.715632274483283,-87.0,10.255084881407601,-71.24898170366016,3.4872403421240197,12.0,11.76727246689018
0.388,pd_gc,1.7576545038882743,115.32937558052028,0.003393200385427243,-0.035008156790830275,0.002839427978136639,-1.0127311290436005,0.0014540062991841708,0.8282635002646371,0.3831853475950953,0.0009137548676082395,0.21268752579541128,0.000899539804930262,0.9403945300842971,0.0003385236633491237,-1.4658100737362012,-0.4577485316766436,15.715692314605674,-87.0,10.255547256991251,-71.30939969265984,3.486731628136501,12.0,11.769360872656149
0.39,pd_gc,1.7605941671685232,115.36680769850999,0.003394999031735904,-0.03459175548424264,0.0028412008324677704,-1.0108658955502203,0.0014546781972272064,0.825324680294321,0.3822779179695892,0.0008993231543304048,0.20820065329381734,0.0008864271655658557,0.9326167466900448,0.00033594902151782316,-1.4694099851580322,-0.45371481275304265,15.715751401019308,-87.0,10.256000219990991,-71.36952839557017,3.4862238872946034,12.0,11.771431329088628
0.392,pd_gc,1.7635214803760484,115.40406758889536,0.003396769269973109,-0.03418414401058642,0.002842947827962799,-1.009016087771158,0.0014553449934786883,0.8223787588657222,0.38137848479418585,0.000885119118602522,0.2038057368281112,0.0008734977475145027,0.9249038895311911,0.0003333981257409616,-1.4729607142994248,-0.44971658770169015,15.715809553300502,-87.0,10.256443961209804,-71.42935218482148,3.4857171727883545,12.0,11.773484007096055
0.394,pd_gc,1.76643663063279,115.44114565263874,0.0033985115476639492,-0.033785142080244045,0.002844669325656563,-1.007181580012532,0.0014560067301179062,0.819425835026166,0.38048697770077355,0.0008711388454200635,0.1995009651711876,0.000860748846881991,0.9172538793129787,0.00033086831960895617,-1.4764619197781303,-0.4457535467061581,15.715866790741718,-87.0,10.256878667955405,-71.4888559962174,3.485211537384404,12.0,11.775519075269191
0.396,pd_gc,1.7693397994807232,115.47803261600475,0.0034002263046322033,-0.033394572956329596,0.002846365681229615,-1.0053622505807114,0.0014566634442816976,0.8164660084353098,0.3796033269358346,0.0008573784841269233,0.1952845619572257,0.0008481777865259247,0.9096647159103897,0.00032835708189569426,-1.4799132954280847,-0.44182538246948544,15.715923132351003,-87.0,10.257304524092895,-71.5480253189013,3.4847070334139545,12.0,11.777536699932224
0.398,pd_gc,1.7722311630543908,115.51471952557038,0.0034019139731276135,-0.03301226338632946,0.002848037245063195,-1.0035579816280564,0.0014573151683258698,0.81349937929839,0.37872746335543184,0.0008438342477050427,0.19115478500006797,0.0008357819167900479,0.9021344763275073,0.0003258620220860649,-1.4833145684599118,-0.437931790201372,15.715978596851645,-87.0,10.257721710096995,-71.60684618541457,3.484203712760743,12.0,11.779537045192475
0.4,pd_gc,1.7751108922488894,115.55119774326654,0.0034035749779517386,-0.03263804353507817,0.0028496843622955476,-1.0017686590026689,0.0014579619300779138,0.8105260483030197,0.37785931842022147,0.0008305024120624334,0.18710992562564518,0.000823558616176275,0.8946613126937958,0.0003233808760219871,-1.4866654976851899,-0.43407246760518026,15.71603320268192,-87.0,10.258130403103717,-71.66530516184835,3.4837016268490775,12.0,11.78152027298876
0.402,pd_gc,1.7779791528834028,115.58745894145143,0.0034052097365823786,-0.0322717469190419,0.0028513073728794625,-0.999994172102075,0.0014586037530812427,0.8075461165594137,0.37699882419049197,0.0008173793153199954,0.18314830801813348,0.0008115052919574346,0.8872434502969389,0.00032091150166443206,-1.4899658718029951,-0.4302471148647572,15.716086967994986,-87.0,10.258530776961585,-71.72338933809037,3.4832008266319545,12.0,11.783486543138437
0.404,pd_gc,1.7808361058603606,115.62349509801545,0.0034068186592965738,-0.03191321034188283,0.0028529066116409294,-0.9982344137307713,0.0014592406568311803,0.8045596855439191,0.3761459133212298,0.0008044613570975304,0.1792682885795366,0.0007996193807335413,0.8798791856518694,0.00031845187496879314,-1.4932155077472622,-0.4264554346310868,15.716139910658931,-87.0,10.25892300228222,-71.78108631816727,3.48270136257925,12.0,11.785436013383215
0.406,pd_gc,1.7836819073203167,115.65929849151786,0.003408402149292172,-0.03156227383127804,0.002854482408338798,-0.99648927996156,0.0014598726570029226,0.801566857045732,0.37530051905721223,0.000791744997799173,0.17546825530239415,0.0007878983489342907,0.8725668846056092,0.00031600008587123415,-1.4964142490935197,-0.42269713200878317,15.71619204825691,-87.0,10.25930724649055,-71.83838421068396,3.4822032846660385,12.0,11.787368839433695
0.40800000000000003,pd_gc,1.7865167087926235,115.69486169635533,0.003409960602807969,-0.031218780576967392,0.002856035087725339,-0.9947586700006049,0.0014604997656716895,0.7985677331166849,0.37446257522812737,0.0007792267578985843,0.1717466271553246,0.0007763396932704759,0.8653049804775296,0.00031355433438348787,-1.4995619645235823,-0.4189719145424345,15.716243398087439,-87.0,10.259683673874349,-71.89527161936076,3.481706642361,12.0,11.789285175012754
0.41000000000000003,pd_gc,1.789340657341987,115.73017757796221,0.0034114944092424175,-0.030882576870005153,0.0028575649696076125,-0.9930424860561357,0.001461121991525277,0.7955624160239914,0.3736320162437218,0.0007669032172242099,0.1681018534811201,0.0007649409411366626,0.8580919722346365,0.00031111292679374033,-1.5026585463468023,-0.4152794922028071,15.716293977164783,-87.0,10.260052445633315,-71.95173763366844,3.4812114846149766,12.0,11.791185171897752
0.41200000000000003,pd_gc,1.7921538957109897,115.76523928804306,0.003413003951270907,-0.03055351204319092,0.0028590723689095477,-0.9913406332107327,0.0014617393400692192,0.7925510082058383,0.3728087770889759,0.0007547710142448014,0.1645324134071156,0.0007536996509675982,0.8509264227014727,0.0003086742719711794,-1.505703909076507,-0.4116195773729189,15.71634380221947,-87.0,10.260413719927586,-72.00777181956278,3.4807178598496527,12.0,11.793068979961628
0.41400000000000003,pd_gc,1.794956562458651,115.80004025983669,0.003414489604961618,-0.030231438412655794,0.002860557595734649,-0.9896530192971242,0.001462351813824763,0.7895336122297179,0.37199279331930796,0.000742826845355478,0.16103681526756358,0.0007426134125505165,0.8438069568042275,0.00030623687777186375,-1.5086979880602647,-0.4079918848339903,15.7163928896989,-87.0,10.26076765192568,-72.0633642103176,3.4802258159464046,12.0,11.794936747212919
0.41600000000000004,pd_gc,1.797748792095117,115.83457420341284,0.003415951739889947,-0.02991621122058029,0.00286202095542924,-0.9879795547774269,0.0014629594125198503,0.7865103307533926,0.3711840010558054,0.0007310674641646304,0.15761359603775102,0.0007316798472954966,0.8367322598486353,0.0003037993475436278,-1.5116407381626504,-0.4043961317512822,15.716441255768093,-87.0,10.261114393851953,-72.11850529745828,3.4797354002352927,12.0,11.796788619834693
0.418,pd_gc,1.8005307152125474,115.8688351010005,0.0034173907192515105,-0.029607688579021085,0.0028634627486461717,-0.9863201526257644,0.0014635621332733057,0.7834812664883942,0.3703823369804857,0.0007194896807817341,0.15426132077960306,0.0007208966084660041,0.8297010758312425,0.00030136037672769475,-1.5145321324991972,-0.4008320376598274,15.7164889163105,-87.0,10.26145409503343,-72.17318602179441,3.4792466594842466,12.0,11.798624742222485
0.42,pd_gc,1.8033024586122879,115.90281720234884,0.0034188068999737235,-0.029305731414824038,0.002864883271408915,-0.9846747282141972,0.0014641599707724154,0.7804465221659538,0.3695877383315856,0.0007080903611064223,0.15097858209852297,0.0007102613813714483,0.8227122057836143,0.0002989187495548205,-1.5173721612202422,-0.39729932445006466,15.716535886928936,-87.0,10.261786901946135,-72.22739776455289,3.4787596398884184,12.0,11.800445257021222
0.422,pd_gc,1.8060641454283912,115.93651502012021,0.0034202006328259613,-0.02901020341560159,0.0028662828151759623,-0.9830431992018991,0.0014647529174440829,0.777406200505267,0.3688001428988788,0.0006968664261189215,0.1477639996112249,0.0006997718835237198,0.8157645061490536,0.00029647333583371577,-1.5201608303434007,-0.39379771635338207,15.716582182946613,-87.0,10.262112958260866,-72.28113233861093,3.478274387059744,12.0,11.802250305161182
0.424,pd_gc,1.8088158952475772,115.96992332531562,0.0034215722625283054,-0.028720970976752948,0.002867661666905481,-0.9814254854275163,0.001465340963619742,0.7743604041840002,0.36801948901902365,0.0006858148511721091,0.14461621942432162,0.0006894258647594287,0.808856887191399,0.00029402308782957806,-1.522898160633415,-0.3903269399275762,15.71662781940826,-87.0,10.262432404888385,-72.33438197982893,3.477790946016692,12.0,11.804040025893038
0.426,pd_gc,1.8115578242256951,116.00303714273245,0.003422922127858876,-0.028437903149506078,0.0028690201091201403,-0.9798215088046454,0.0014659240976942034,0.7713092358109439,0.36724571557093916,0.0006749326652852801,0.14153391362343531,0.0006792211073295855,0.801988311435468,0.00029156703723066447,-1.5255841865281532,-0.38688672404223556,15.716672811081326,-87.0,10.262745380024093,-72.3871393384833,3.4773093611742407,12.0,11.805814556821932
0.428,pd_gc,1.8142900452007655,116.03585174645501,0.0034242505617597557,-0.02816087158996087,0.002870358419972057,-0.9782311932203679,0.0014665023062786049,0.7682527979007248,0.36647876197121104,0.0006642169504398856,0.13851577977260535,0.0006691554259583227,0.7951577921387087,0.00028910429220071137,-1.5282189551095462,-0.38347679986405286,15.716717172457297,-87.0,10.263052019192154,-72.43939747079898,3.476829676334063,12.0,11.80757403394073
0.43,pd_gc,1.8170126678026761,116.06836265537746,0.00342555789144151,-0.027889750509113326,0.0028716768733078016,-0.9766544644367806,0.0014670755743476354,0.7651911928504882,0.3657185681695269,0.0006536648408773157,0.135560540423771,0.0006592266678722347,0.7883643917936232,0.0002866340345152577,-1.5308025251182786,-0.3800969008420743,15.716760917753062,-87.0,10.263352455289011,-72.49114983058155,3.4763519346749483,12.0,11.809318591662347
0.432,pd_gc,1.8197257985595998,116.10056562875953,0.003426844438486308,-0.027624416623841096,0.0028729757387334054,-0.9750912499954596,0.0014676438853811948,0.7621245229184661,0.36496507464414113,0.0006432735223989551,0.13266694263611511,0.0006494327128018185,0.781607220660526,0.0002841555167797274,-1.5333349660110622,-0.3767467626928903,15.716804060912398,-87.0,10.263646818626462,-72.54239026094824,3.4758761787434524,12.0,11.811048362851297
0.434,pd_gc,1.8224295410012095,116.1324566618149,0.0034281105189496452,-0.027364749108830983,0.0028742552816793184,-0.9735414791247992,0.0014682072215006497,0.7590528902043474,0.36421822239736956,0.0006330402316685782,0.12983375750505668,0.0006397714729564191,0.7748854353302002,0.000281668059727425,-1.535816357059346,-0.3734261233857744,15.71684661560751,-87.0,10.263935236974083,-72.5931129861578,3.475402450444802,12.0,11.812763478854379
0.436,pd_gc,1.8251239957587528,116.16403198133258,0.00342935644346068,-0.027110629549429607,0.0028755157634652666,-0.9720050826501672,0.0014687655635998403,0.7559763966313707,0.363477952951114,0.0006229622555173249,0.1270597797006875,0.0006302408929740596,0.7681982373160132,0.0002791710495953494,-1.5382467864883331,-0.3701347231277757,15.71688859524067,-87.0,10.26421783560118,-72.64331260353889,3.474930791034042,12.0,11.814464069530594
0.438,pd_gc,1.8278092606620635,116.19528804133103,0.003430582517321182,-0.026861941895398703,0.0028767574413649617,-0.970481992906817,0.0014693188914709924,0.7528951439300603,0.3627442083424165,0.0006130369302512639,0.12434382701545184,0.0006208389498474481,0.7615448716750576,0.00027666393557606607,-1.540626350655199,-0.36687230434877005,15.716930012945904,-87.0,10.264494737318152,-72.6929840755161,3.4744612411074405,12.0,11.81615026328027
0.44,pd_gc,1.8304854308335703,116.22622151874569,0.0034317890406031057,-0.026618572415556957,0.0028779805686706167,-0.9689721436555012,0.0014698671839256795,0.7498092336235295,0.36201693111904354,0.0006032616409617936,0.12168473992087318,0.000611563652827413,0.7549246256578802,0.0002741462273436156,-1.5429551532654155,-0.36363861168647554,15.71697088159079,-87.0,10.264766062517381,-72.74212272173386,3.4739938405941637,12.0,11.817822187073467
0.442,pd_gc,1.8331525987793738,116.25682930914923,0.0034329763082447833,-0.026380409653290682,0.0028791853947572267,-0.9674754700007285,0.001470410418910983,0.7467187670142772,0.36129606433510064,0.0005936338208389223,0.11908138113313645,0.00060241304330496,0.7483368273863696,0.00027161749265173965,-1.5452333046261184,-0.3604333919714365,15.717011213778289,-87.0,10.265031929213515,-72.79072421127677,3.4735286287482072,12.0,11.819479966477616
0.444,pd_gc,1.8358108544774567,116.28710852250518,0.0034341446101457587,-0.026147344382916004,0.002880372165146573,-0.9659919083116097,0.001470948573620988,0.7436238451724063,0.3605815515466767,0.0005841509504875924,0.11653263518733885,0.0005933851946730789,0.7417808445593675,0.0002690773550025362,-1.5474609209354608,-0.35725639421198163,15.717051021848672,-87.0,10.265292453083278,-72.83878455498638,3.4730656441406205,12.0,11.821123725684469
0.446,pd_gc,1.8384602854630916,116.31705647895504,0.003435294231260253,-0.02591926956687555,0.002881541121570912,-0.9645213961452386,0.0014714816246037558,0.7405245689251925,0.3598733368075184,0.0005748105572471521,0.11403740802022577,0.0005844782121693931,0.7352560831855759,0.0002665254913838471,-1.5496381236069254,-0.35410736957916034,15.717090317881514,-87.0,10.265547747504698,-72.88630009787403,3.47260492465199,12.0,11.822753587536356
0.448,pd_gc,1.8411009769115083,116.34667070463858,0.003436425451689281,-0.025696080313753082,0.002882692502036313,-0.963063872172552,0.001472009547863903,0.7374210388479373,0.35917136466473504,0.0005656102145140463,0.11159462656123406,0.0005756902327007491,0.7287619863433342,0.0002639616300735766,-1.5517650386275792,-0.35098607139166144,15.71712911369772,-87.0,10.265797923595905,-72.93326751162834,3.472146507465228,12.0,11.82436967355176
