Ovmem/robot-control-retargeting-framework/results/hand_retargeting/runs/20260621_010331/raw/hand_retargeting_run.csv
timestamp,frame_id,detected_hand,detection_confidence,wrist_x,wrist_y,wrist_z,pinch_ratio,target_pos_x,target_pos_y,target_pos_z,filtered_target_pos_x,filtered_target_pos_y,filtered_target_pos_z,target_quat_w,target_quat_x,target_quat_y,target_quat_z,gripper_width,workspace_clipped,actual_ee_pos_x,actual_ee_pos_y,actual_ee_pos_z,ee_position_error,ee_orientation_error,joint_q_1,joint_q_2,joint_q_3,joint_q_4,joint_q_5,joint_q_6,joint_q_7,joint_dq_1,joint_dq_2,joint_dq_3,joint_dq_4,joint_dq_5,joint_dq_6,joint_dq_7,torque_norm,max_abs_torque
0.442,0,0,,0.000000,0.000000,0.000000,1.0000,0.3350,0.0000,0.6396,0.3350,0.0000,0.6396,-0.000365,0.998724,-0.007292,0.049978,0.0400,,0.3350,-0.0000,0.6396,0.0000,0.000000,0.0000,-0.7000,-0.0000,-2.2000,0.0000,1.6000,0.8000,-0.0000,-0.0000,-0.0000,0.0000,0.0000,0.0000,0.0000,22.75,21.74
0.962,1,0,,0.000000,0.000000,0.000000,1.0000,0.3350,0.0000,0.6396,0.3350,0.0000,0.6396,-0.000365,0.998724,-0.007292,0.049978,0.0400,,0.3350,-0.0000,0.6396,0.0000,0.000000,0.0000,-0.7000,-0.0000,-2.2000,0.0000,1.6000,0.8000,0.0000,0.0000,0.0000,-0.0000,-0.0000,-0.0000,-0.0000,22.75,21.74
1.004,2,0,,0.000000,0.000000,0.000000,1.0000,0.3350,0.0000,0.6396,0.3350,0.0000,0.6396,-0.000365,0.998724,-0.007292,0.049978,0.0400,,0.3350,-0.0000,0.6396,0.0000,0.000000,0.0000,-0.7000,-0.0000,-2.2000,0.0000,1.6000,0.8000,0.0000,0.0000,0.0000,-0.0000,-0.0000,-0.0000,-0.0000,22.75,21.74
1.045,3,0,,0.000000,0.000000,0.000000,1.0000,0.3350,0.0000,0.6396,0.3350,0.0000,0.6396,-0.000365,0.998724,-0.007292,0.049978,0.0400,,0.3350,-0.0000,0.6396,0.0000,0.000000,0.0000,-0.7000,-0.0000,-2.2000,0.0000,1.6000,0.8000,0.0000,0.0000,0.0000,-0.0000,-0.0000,-0.0000,-0.0000,22.75,21.74
1.085,4,0,,0.000000,0.000000,0.000000,1.0000,0.3350,0.0000,0.6396,0.3350,0.0000,0.6396,-0.000365,0.998724,-0.007292,0.049978,0.0400,,0.3350,-0.0000,0.6396,0.0000,0.000000,0.0000,-0.7000,-0.0000,-2.2000,0.0000,1.6000,0.8000,0.0000,0.0000,0.0000,-0.0000,-0.0000,-0.0000,-0.0000,22.75,21.74
1.130,5,0,,0.000000,0.000000,0.000000,1.0000,0.3350,0.0000,0.6396,0.3350,0.0000,0.6396,-0.000365,0.998724,-0.007292,0.049978,0.0400,,0.3350,-0.0000,0.6396,0.0000,0.000000,0.0000,-0.7000,-0.0000,-2.2000,0.0000,1.6000,0.8000,0.0000,0.0000,0.0000,-0.0000,-0.0000,-0.0000,-0.0000,22.75,21.74
1.176,6,0,,0.000000,0.000000,0.000000,1.0000,0.3350,0.0000,0.6396,0.3350,0.0000,0.6396,-0.000365,0.998724,-0.007292,0.049978,0.0400,,0.3350,-0.0000,0.6396,0.0000,0.000000,0.0000,-0.7000,-0.0000,-2.2000,0.0000,1.6000,0.8000,0.0000,0.0000,0.0000,-0.0000,-0.0000,-0.0000,-0.0000,22.75,21.74
1.216,7,0,,0.000000,0.000000,0.000000,1.0000,0.3350,0.0000,0.6396,0.3350,0.0000,0.6396,-0.000365,0.998724,-0.007292,0.049978,0.0400,,0.3350,-0.0000,0.6396,0.0000,0.000000,0.0000,-0.7000,-0.0000,-2.2000,0.0000,1.6000,0.8000,0.0000,0.0000,0.0000,-0.0000,-0.0000,-0.0000,-0.0000,22.75,21.74
1.261,8,0,,0.000000,0.000000,0.000000,1.0000,0.3350,0.0000,0.6396,0.3350,0.0000,0.6396,-0.000365,0.998724,-0.007292,0.049978,0.0400,,0.3350,-0.0000,0.6396,0.0000,0.000000,0.0000,-0.7000,-0.0000,-2.2000,0.0000,1.6000,0.8000,0.0000,0.0000,0.0000,-0.0000,-0.0000,-0.0000,-0.0000,22.75,21.74
1.300,9,0,,0.000000,0.000000,0.000000,1.0000,0.3350,0.0000,0.6396,0.3350,0.0000,0.6396,-0.000365,0.998724,-0.007292,0.049978,0.0400,,0.3350,-0.0000,0.6396,0.0000,0.000000,0.0000,-0.7000,-0.0000,-2.2000,0.0000,1.6000,0.8000,0.0000,0.0000,0.0000,-0.0000,-0.0000,-0.0000,-0.0000,22.75,21.74
1.336,10,0,,0.000000,0.000000,0.000000,1.0000,0.3350,0.0000,0.6396,0.3350,0.0000,0.6396,-0.000365,0.998724,-0.007292,0.049978,0.0400,,0.3350,-0.0000,0.6396,0.0000,0.000000,0.0000,-0.7000,-0.0000,-2.2000,0.0000,1.6000,0.8000,0.0000,0.0000,0.0000,-0.0000,-0.0000,-0.0000,-0.0000,22.75,21.74
1.395,11,0,,0.000000,0.000000,0.000000,1.0000,0.3350,0.0000,0.6396,0.3350,0.0000,0.6396,-0.000365,0.998724,-0.007292,0.049978,0.0400,,0.3350,-0.0000,0.6396,0.0000,0.000000,0.0000,-0.7000,-0.0000,-2.2000,0.0000,1.6000,0.8000,0.0000,0.0000,0.0000,-0.0000,-0.0000,-0.0000,-0.0000,22.75,21.74
1.427,12,0,,0.000000,0.000000,0.000000,1.0000,0.3350,0.0000,0.6396,0.3350,0.0000,0.6396,-0.000365,0.998724,-0.007292,0.049978,0.0400,,0.3350,-0.0000,0.6396,0.0000,0.000000,0.0000,-0.7000,-0.0000,-2.2000,0.0000,1.6000,0.8000,0.0000,0.0000,0.0000,-0.0000,-0.0000,-0.0000,-0.0000,22.75,21.74
1.468,13,0,,0.000000,0.000000,0.000000,1.0000,0.3350,0.0000,0.6396,0.3350,0.0000,0.6396,-0.000365,0.998724,-0.007292,0.049978,0.0400,,0.3350,-0.0000,0.6396,0.0000,0.000000,0.0000,-0.7000,-0.0000,-2.2000,0.0000,1.6000,0.8000,-0.0000,0.0000,0.0000,-0.0000,-0.0000,-0.0000,-0.0000,22.75,21.74
1.512,14,0,,0.000000,0.000000,0.000000,1.0000,0.3350,0.0000,0.6396,0.3350,0.0000,0.6396,-0.000365,0.998724,-0.007292,0.049978,0.0400,,0.3350,-0.0000,0.6396,0.0000,0.000000,0.0000,-0.7000,-0.0000,-2.2000,0.0000,1.6000,0.8000,0.0000,0.0000,0.0000,-0.0000,-0.0000,-0.0000,-0.0000,22.75,21.74
1.552,15,0,,0.000000,0.000000,0.000000,1.0000,0.3350,0.0000,0.6396,0.3350,0.0000,0.6396,-0.000365,0.998724,-0.007292,0.049978,0.0400,,0.3350,-0.0000,0.6396,0.0000,0.000000,0.0000,-0.7000,-0.0000,-2.2000,0.0000,1.6000,0.8000,0.0000,0.0000,0.0000,-0.0000,-0.0000,-0.0000,-0.0000,22.75,21.74
1.593,16,0,,0.000000,0.000000,0.000000,1.0000,0.3350,0.0000,0.6396,0.3350,0.0000,0.6396,-0.000365,0.998724,-0.007292,0.049978,0.0400,,0.3350,-0.0000,0.6396,0.0000,0.000000,0.0000,-0.7000,-0.0000,-2.2000,0.0000,1.6000,0.8000,0.0000,0.0000,0.0000,-0.0000,-0.0000,-0.0000,-0.0000,22.75,21.74
1.632,17,0,,0.000000,0.000000,0.000000,1.0000,0.3350,0.0000,0.6396,0.3350,0.0000,0.6396,-0.000365,0.998724,-0.007292,0.049978,0.0400,,0.3350,-0.0000,0.6396,0.0000,0.000000,0.0000,-0.7000,-0.0000,-2.2000,0.0000,1.6000,0.8000,0.0000,0.0000,0.0000,-0.0000,-0.0000,-0.0000,-0.0000,22.75,21.74
1.675,18,0,,0.000000,0.000000,0.000000,1.0000,0.3350,0.0000,0.6396,0.3350,0.0000,0.6396,-0.000365,0.998724,-0.007292,0.049978,0.0400,,0.3350,-0.0000,0.6396,0.0000,0.000000,0.0000,-0.7000,-0.0000,-2.2000,0.0000,1.6000,0.8000,0.0000,0.0000,0.0000,-0.0000,-0.0000,-0.0000,-0.0000,22.75,21.74
1.717,19,0,,0.000000,0.000000,0.000000,1.0000,0.3350,0.0000,0.6396,0.3350,0.0000,0.6396,-0.000365,0.998724,-0.007292,0.049978,0.0400,,0.3350,-0.0000,0.6396,0.0000,0.000000,0.0000,-0.7000,-0.0000,-2.2000,0.0000,1.6000,0.8000,0.0000,0.0000,0.0000,-0.0000,-0.0000,-0.0000,-0.0000,22.75,21.74
1.760,20,0,,0.000000,0.000000,0.000000,1.0000,0.3350,0.0000,0.6396,0.3350,0.0000,0.6396,-0.000365,0.998724,-0.007292,0.049978,0.0400,,0.3350,0.0000,0.6396,0.0000,0.000000,0.0000,-0.7000,-0.0000,-2.2000,0.0000,1.6000,0.8000,0.0000,0.0000,0.0000,-0.0000,-0.0000,-0.0000,-0.0000,22.75,21.74
1.792,21,0,,0.000000,0.000000,0.000000,1.0000,0.3350,0.0000,0.6396,0.3350,0.0000,0.6396,-0.000365,0.998724,-0.007292,0.049978,0.0400,,0.3350,0.0000,0.6396,0.0000,0.000000,0.0000,-0.7000,-0.0000,-2.2000,0.0000,1.6000,0.8000,0.0000,0.0000,0.0000,-0.0000,-0.0000,-0.0000,-0.0000,22.75,21.74
1.824,22,0,,0.000000,0.000000,0.000000,1.0000,0.3350,0.0000,0.6396,0.3350,0.0000,0.6396,-0.000365,0.998724,-0.007292,0.049978,0.0400,,0.3350,0.0000,0.6396,0.0000,0.000000,0.0000,-0.7000,-0.0000,-2.2000,0.0000,1.6000,0.8000,0.0000,0.0000,0.0000,-0.0000,-0.0000,-0.0000,-0.0000,22.75,21.74
1.890,23,0,,0.000000,0.000000,0.000000,1.0000,0.3350,0.0000,0.6396,0.3350,0.0000,0.6396,-0.000365,0.998724,-0.007292,0.049978,0.0400,,0.3350,0.0000,0.6396,0.0000,0.000000,0.0000,-0.7000,-0.0000,-2.2000,0.0000,1.6000,0.8000,0.0000,0.0000,0.0000,-0.0000,-0.0000,-0.0000,-0.0000,22.75,21.74
1.920,24,0,,0.000000,0.000000,0.000000,1.0000,0.3350,0.0000,0.6396,0.3350,0.0000,0.6396,-0.000365,0.998724,-0.007292,0.049978,0.0400,,0.3350,0.0000,0.6396,0.0000,0.000000,0.0000,-0.7000,-0.0000,-2.2000,0.0000,1.6000,0.8000,0.0000,0.0000,0.0000,-0.0000,-0.0000,-0.0000,-0.0000,22.75,21.74
1.963,25,0,,0.000000,0.000000,0.000000,1.0000,0.3350,0.0000,0.6396,0.3350,0.0000,0.6396,-0.000365,0.998724,-0.007292,0.049978,0.0400,,0.3350,0.0000,0.6396,0.0000,0.000000,0.0000,-0.7000,-0.0000,-2.2000,0.0000,1.6000,0.8000,0.0000,0.0000,0.0000,-0.0000,-0.0000,-0.0000,-0.0000,22.75,21.74
2.008,26,0,,0.000000,0.000000,0.000000,1.0000,0.3350,0.0000,0.6396,0.3350,0.0000,0.6396,-0.000365,0.998724,-0.007292,0.049978,0.0400,,0.3350,0.0000,0.6396,0.0000,0.000000,0.0000,-0.7000,-0.0000,-2.2000,0.0000,1.6000,0.8000,0.0000,0.0000,0.0000,-0.0000,-0.0000,-0.0000,-0.0000,22.75,21.74
2.051,27,0,,0.000000,0.000000,0.000000,1.0000,0.3350,0.0000,0.6396,0.3350,0.0000,0.6396,-0.000365,0.998724,-0.007292,0.049978,0.0400,,0.3350,0.0000,0.6396,0.0000,0.000000,0.0000,-0.7000,-0.0000,-2.2000,0.0000,1.6000,0.8000,0.0000,0.0000,0.0000,-0.0000,-0.0000,-0.0000,-0.0000,22.75,21.74
2.083,28,0,,0.000000,0.000000,0.000000,1.0000,0.3350,0.0000,0.6396,0.3350,0.0000,0.6396,-0.000365,0.998724,-0.007292,0.049978,0.0400,,0.3350,0.0000,0.6396,0.0000,0.000000,0.0000,-0.7000,-0.0000,-2.2000,0.0000,1.6000,0.8000,0.0000,0.0000,0.0000,-0.0000,-0.0000,-0.0000,-0.0000,22.75,21.74
2.125,29,0,,0.000000,0.000000,0.000000,1.0000,0.3350,0.0000,0.6396,0.3350,0.0000,0.6396,-0.000365,0.998724,-0.007292,0.049978,0.0400,,0.3350,0.0000,0.6396,0.0000,0.000000,0.0000,-0.7000,-0.0000,-2.2000,0.0000,1.6000,0.8000,0.0000,0.0000,0.0000,-0.0000,-0.0000,-0.0000,-0.0000,22.75,21.74
2.164,30,0,,0.000000,0.000000,0.000000,1.0000,0.3350,0.0000,0.6396,0.3350,0.0000,0.6396,-0.000365,0.998724,-0.007292,0.049978,0.0400,,0.3350,0.0000,0.6396,0.0000,0.000000,0.0000,-0.7000,-0.0000,-2.2000,0.0000,1.6000,0.8000,0.0000,0.0000,0.0000,-0.0000,-0.0000,-0.0000,-0.0000,22.75,21.74
2.205,31,0,,0.000000,0.000000,0.000000,1.0000,0.3350,0.0000,0.6396,0.3350,0.0000,0.6396,-0.000365,0.998724,-0.007292,0.049978,0.0400,,0.3350,0.0000,0.6396,0.0000,0.000000,0.0000,-0.7000,-0.0000,-2.2000,0.0000,1.6000,0.8000,0.0000,0.0000,0.0000,-0.0000,-0.0000,-0.0000,-0.0000,22.75,21.74
2.243,32,0,,0.000000,0.000000,0.000000,1.0000,0.3350,0.0000,0.6396,0.3350,0.0000,0.6396,-0.000365,0.998724,-0.007292,0.049978,0.0400,,0.3350,0.0000,0.6396,0.0000,0.000000,0.0000,-0.7000,-0.0000,-2.2000,0.0000,1.6000,0.8000,0.0000,0.0000,0.0000,-0.0000,-0.0000,-0.0000,-0.0000,22.75,21.74
2.283,33,0,,0.000000,0.000000,0.000000,1.0000,0.3350,0.0000,0.6396,0.3350,0.0000,0.6396,-0.000365,0.998724,-0.007292,0.049978,0.0400,,0.3350,0.0000,0.6396,0.0000,0.000000,0.0000,-0.7000,-0.0000,-2.2000,0.0000,1.6000,0.8000,0.0000,0.0000,0.0000,-0.0000,-0.0000,-0.0000,-0.0000,22.75,21.74
2.323,34,0,,0.000000,0.000000,0.000000,1.0000,0.3350,0.0000,0.6396,0.3350,0.0000,0.6396,-0.000365,0.998724,-0.007292,0.049978,0.0400,,0.3350,0.0000,0.6396,0.0000,0.000000,0.0000,-0.7000,-0.0000,-2.2000,0.0000,1.6000,0.8000,0.0000,0.0000,0.0000,-0.0000,-0.0000,-0.0000,-0.0000,22.75,21.74
2.363,35,0,,0.000000,0.000000,0.000000,1.0000,0.3350,0.0000,0.6396,0.3350,0.0000,0.6396,-0.000365,0.998724,-0.007292,0.049978,0.0400,,0.3350,0.0000,0.6396,0.0000,0.000000,0.0000,-0.7000,-0.0000,-2.2000,0.0000,1.6000,0.8000,0.0000,0.0000,0.0000,-0.0000,-0.0000,-0.0000,-0.0000,22.75,21.74
2.403,36,0,,0.000000,0.000000,0.000000,1.0000,0.3350,0.0000,0.6396,0.3350,0.0000,0.6396,-0.000365,0.998724,-0.007292,0.049978,0.0400,,0.3350,0.0000,0.6396,0.0000,0.000000,0.0000,-0.7000,-0.0000,-2.2000,0.0000,1.6000,0.8000,0.0000,0.0000,0.0000,-0.0000,-0.0000,-0.0000,-0.0000,22.75,21.74
2.446,37,0,,0.000000,0.000000,0.000000,1.0000,0.3350,0.0000,0.6396,0.3350,0.0000,0.6396,-0.000365,0.998724,-0.007292,0.049978,0.0400,,0.3350,0.0000,0.6396,0.0000,0.000000,0.0000,-0.7000,-0.0000,-2.2000,0.0000,1.6000,0.8000,0.0000,0.0000,0.0000,-0.0000,-0.0000,-0.0000,-0.0000,22.75,21.74
2.486,38,0,,0.000000,0.000000,0.000000,1.0000,0.3350,0.0000,0.6396,0.3350,0.0000,0.6396,-0.000365,0.998724,-0.007292,0.049978,0.0400,,0.3350,0.0000,0.6396,0.0000,0.000000,0.0000,-0.7000,-0.0000,-2.2000,0.0000,1.6000,0.8000,0.0000,0.0000,0.0000,-0.0000,-0.0000,-0.0000,-0.0000,22.75,21.74
2.534,39,0,,0.000000,0.000000,0.000000,1.0000,0.3350,0.0000,0.6396,0.3350,0.0000,0.6396,-0.000365,0.998724,-0.007292,0.049978,0.0400,,0.3350,0.0000,0.6396,0.0000,0.000000,0.0000,-0.7000,-0.0000,-2.2000,0.0000,1.6000,0.8000,0.0000,0.0000,0.0000,-0.0000,-0.0000,-0.0000,-0.0000,22.75,21.74
2.566,40,0,,0.000000,0.000000,0.000000,1.0000,0.3350,0.0000,0.6396,0.3350,0.0000,0.6396,-0.000365,0.998724,-0.007292,0.049978,0.0400,,0.3350,0.0000,0.6396,0.0000,0.000000,0.0000,-0.7000,-0.0000,-2.2000,0.0000,1.6000,0.8000,0.0000,0.0000,0.0000,-0.0000,-0.0000,-0.0000,-0.0000,22.75,21.74
2.609,41,0,,0.000000,0.000000,0.000000,1.0000,0.3350,0.0000,0.6396,0.3350,0.0000,0.6396,-0.000365,0.998724,-0.007292,0.049978,0.0400,,0.3350,0.0000,0.6396,0.0000,0.000000,0.0000,-0.7000,-0.0000,-2.2000,0.0000,1.6000,0.8000,0.0000,0.0000,0.0000,-0.0000,-0.0000,-0.0000,-0.0000,22.75,21.74
2.640,42,0,,0.000000,0.000000,0.000000,1.0000,0.3350,0.0000,0.6396,0.3350,0.0000,0.6396,-0.000365,0.998724,-0.007292,0.049978,0.0400,,0.3350,0.0000,0.6396,0.0000,0.000000,0.0000,-0.7000,-0.0000,-2.2000,0.0000,1.6000,0.8000,0.0000,0.0000,0.0000,-0.0000,-0.0000,-0.0000,-0.0000,22.75,21.74
2.679,43,0,,0.000000,0.000000,0.000000,1.0000,0.3350,0.0000,0.6396,0.3350,0.0000,0.6396,-0.000365,0.998724,-0.007292,0.049978,0.0400,,0.3350,0.0000,0.6396,0.0000,0.000000,0.0000,-0.7000,-0.0000,-2.2000,0.0000,1.6000,0.8000,0.0000,0.0000,0.0000,-0.0000,-0.0000,-0.0000,-0.0000,22.75,21.74
2.722,44,0,,0.000000,0.000000,0.000000,1.0000,0.3350,0.0000,0.6396,0.3350,0.0000,0.6396,-0.000365,0.998724,-0.007292,0.049978,0.0400,,0.3350,0.0000,0.6396,0.0000,0.000000,0.0000,-0.7000,-0.0000,-2.2000,0.0000,1.6000,0.8000,0.0000,0.0000,0.0000,-0.0000,-0.0000,-0.0000,-0.0000,22.75,21.74
2.753,45,0,,0.000000,0.000000,0.000000,1.0000,0.3350,0.0000,0.6396,0.3350,0.0000,0.6396,-0.000365,0.998724,-0.007292,0.049978,0.0400,,0.3350,0.0000,0.6396,0.0000,0.000000,0.0000,-0.7000,-0.0000,-2.2000,0.0000,1.6000,0.8000,0.0000,0.0000,0.0000,-0.0000,-0.0000,-0.0000,-0.0000,22.75,21.74
2.784,46,0,,0.000000,0.000000,0.000000,1.0000,0.3350,0.0000,0.6396,0.3350,0.0000,0.6396,-0.000365,0.998724,-0.007292,0.049978,0.0400,,0.3350,0.0000,0.6396,0.0000,0.000000,0.0000,-0.7000,-0.0000,-2.2000,0.0000,1.6000,0.8000,0.0000,0.0000,0.0000,-0.0000,-0.0000,-0.0000,-0.0000,22.75,21.74
2.832,47,0,,0.000000,0.000000,0.000000,1.0000,0.3350,0.0000,0.6396,0.3350,0.0000,0.6396,-0.000365,0.998724,-0.007292,0.049978,0.0400,,0.3350,0.0000,0.6396,0.0000,0.000000,0.0000,-0.7000,-0.0000,-2.2000,0.0000,1.6000,0.8000,0.0000,0.0000,0.0000,-0.0000,-0.0000,-0.0000,-0.0000,22.75,21.74
2.876,48,0,,0.000000,0.000000,0.000000,1.0000,0.3350,0.0000,0.6396,0.3350,0.0000,0.6396,-0.000365,0.998724,-0.007292,0.049978,0.0400,,0.3350,0.0000,0.6396,0.0000,0.000000,0.0000,-0.7000,-0.0000,-2.2000,0.0000,1.6000,0.8000,0.0000,0.0000,0.0000,-0.0000,-0.0000,-0.0000,-0.0000,22.75,21.74
2.907,49,0,,0.000000,0.000000,0.000000,1.0000,0.3350,0.0000,0.6396,0.3350,0.0000,0.6396,-0.000365,0.998724,-0.007292,0.049978,0.0400,,0.3350,0.0000,0.6396,0.0000,0.000000,0.0000,-0.7000,-0.0000,-2.2000,0.0000,1.6000,0.8000,0.0000,0.0000,0.0000,-0.0000,-0.0000,-0.0000,-0.0000,22.75,21.74
2.950,50,0,,0.000000,0.000000,0.000000,1.0000,0.3350,0.0000,0.6396,0.3350,0.0000,0.6396,-0.000365,0.998724,-0.007292,0.049978,0.0400,,0.3350,0.0000,0.6396,0.0000,0.000000,0.0000,-0.7000,-0.0000,-2.2000,0.0000,1.6000,0.8000,0.0000,0.0000,0.0000,-0.0000,-0.0000,-0.0000,-0.0000,22.75,21.74
2.990,51,0,,0.000000,0.000000,0.000000,1.0000,0.3350,0.0000,0.6396,0.3350,0.0000,0.6396,-0.000365,0.998724,-0.007292,0.049978,0.0400,,0.3350,0.0000,0.6396,0.0000,0.000000,0.0000,-0.7000,-0.0000,-2.2000,0.0000,1.6000,0.8000,-0.0000,0.0000,0.0000,-0.0000,-0.0000,-0.0000,-0.0000,22.75,21.74
3.032,52,0,,0.000000,0.000000,0.000000,1.0000,0.3350,0.0000,0.6396,0.3350,0.0000,0.6396,-0.000365,0.998724,-0.007292,0.049978,0.0400,,0.3350,0.0000,0.6396,0.0000,0.000000,0.0000,-0.7000,-0.0000,-2.2000,0.0000,1.6000,0.8000,-0.0000,0.0000,0.0000,-0.0000,-0.0000,-0.0000,-0.0000,22.75,21.74
3.084,53,0,,0.000000,0.000000,0.000000,1.0000,0.3350,0.0000,0.6396,0.3350,0.0000,0.6396,-0.000365,0.998724,-0.007292,0.049978,0.0400,,0.3350,0.0000,0.6396,0.0000,0.000000,0.0000,-0.7000,-0.0000,-2.2000,0.0000,1.6000,0.8000,-0.0000,0.0000,0.0000,-0.0000,-0.0000,-0.0000,-0.0000,22.75,21.74
3.123,54,0,,0.000000,0.000000,0.000000,1.0000,0.3350,0.0000,0.6396,0.3350,0.0000,0.6396,-0.000365,0.998724,-0.007292,0.049978,0.0400,,0.3350,0.0000,0.6396,0.0000,0.000000,0.0000,-0.7000,-0.0000,-2.2000,0.0000,1.6000,0.8000,-0.0000,0.0000,0.0000,-0.0000,-0.0000,-0.0000,-0.0000,22.75,21.74
3.163,55,0,,0.000000,0.000000,0.000000,1.0000,0.3350,0.0000,0.6396,0.3350,0.0000,0.6396,-0.000365,0.998724,-0.007292,0.049978,0.0400,,0.3350,0.0000,0.6396,0.0000,0.000000,0.0000,-0.7000,-0.0000,-2.2000,0.0000,1.6000,0.8000,-0.0000,0.0000,0.0000,-0.0000,-0.0000,-0.0000,-0.0000,22.75,21.74
3.194,56,0,,0.000000,0.000000,0.000000,1.0000,0.3350,0.0000,0.6396,0.3350,0.0000,0.6396,-0.000365,0.998724,-0.007292,0.049978,0.0400,,0.3350,0.0000,0.6396,0.0000,0.000000,0.0000,-0.7000,-0.0000,-2.2000,0.0000,1.6000,0.8000,-0.0000,0.0000,0.0000,-0.0000,-0.0000,-0.0000,-0.0000,22.75,21.74
3.233,57,0,,0.000000,0.000000,0.000000,1.0000,0.3350,0.0000,0.6396,0.3350,0.0000,0.6396,-0.000365,0.998724,-0.007292,0.049978,0.0400,,0.3350,0.0000,0.6396,0.0000,0.000000,0.0000,-0.7000,-0.0000,-2.2000,0.0000,1.6000,0.8000,-0.0000,0.0000,0.0000,-0.0000,-0.0000,-0.0000,-0.0000,22.75,21.74
3.272,58,0,,0.000000,0.000000,0.000000,1.0000,0.3350,0.0000,0.6396,0.3350,0.0000,0.6396,-0.000365,0.998724,-0.007292,0.049978,0.0400,,0.3350,0.0000,0.6396,0.0000,0.000000,0.0000,-0.7000,-0.0000,-2.2000,0.0000,1.6000,0.8000,-0.0000,0.0000,0.0000,-0.0000,-0.0000,-0.0000,-0.0000,22.75,21.74
3.315,59,0,,0.000000,0.000000,0.000000,1.0000,0.3350,0.0000,0.6396,0.3350,0.0000,0.6396,-0.000365,0.998724,-0.007292,0.049978,0.0400,,0.3350,0.0000,0.6396,0.0000,0.000000,0.0000,-0.7000,-0.0000,-2.2000,0.0000,1.6000,0.8000,-0.0000,0.0000,0.0000,-0.0000,-0.0000,-0.0000,-0.0000,22.75,21.74
3.359,60,0,,0.000000,0.000000,0.000000,1.0000,0.3350,0.0000,0.6396,0.3350,0.0000,0.6396,-0.000365,0.998724,-0.007292,0.049978,0.0400,,0.3350,0.0000,0.6396,0.0000,0.000000,0.0000,-0.7000,-0.0000,-2.2000,0.0000,1.6000,0.8000,-0.0000,0.0000,0.0000,-0.0000,-0.0000,-0.0000,-0.0000,22.75,21.74
3.402,61,0,,0.000000,0.000000,0.000000,1.0000,0.3350,0.0000,0.6396,0.3350,0.0000,0.6396,-0.000365,0.998724,-0.007292,0.049978,0.0400,,0.3350,0.0000,0.6396,0.0000,0.000000,0.0000,-0.7000,-0.0000,-2.2000,0.0000,1.6000,0.8000,-0.0000,0.0000,0.0000,-0.0000,-0.0000,-0.0000,-0.0000,22.75,21.74
3.433,62,0,,0.000000,0.000000,0.000000,1.0000,0.3350,0.0000,0.6396,0.3350,0.0000,0.6396,-0.000365,0.998724,-0.007292,0.049978,0.0400,,0.3350,0.0000,0.6396,0.0000,0.000000,0.0000,-0.7000,-0.0000,-2.2000,0.0000,1.6000,0.8000,-0.0000,0.0000,0.0000,-0.0000,-0.0000,-0.0000,-0.0000,22.75,21.74
3.480,63,0,,0.000000,0.000000,0.000000,1.0000,0.3350,0.0000,0.6396,0.3350,0.0000,0.6396,-0.000365,0.998724,-0.007292,0.049978,0.0400,,0.3350,0.0000,0.6396,0.0000,0.000000,0.0000,-0.7000,-0.0000,-2.2000,0.0000,1.6000,0.8000,-0.0000,0.0000,0.0000,-0.0000,-0.0000,-0.0000,-0.0000,22.75,21.74
3.523,64,0,,0.000000,0.000000,0.000000,1.0000,0.3350,0.0000,0.6396,0.3350,0.0000,0.6396,-0.000365,0.998724,-0.007292,0.049978,0.0400,,0.3350,0.0000,0.6396,0.0000,0.000000,0.0000,-0.7000,-0.0000,-2.2000,0.0000,1.6000,0.8000,-0.0000,0.0000,0.0000,-0.0000,-0.0000,-0.0000,-0.0000,22.75,21.74
3.565,65,0,,0.000000,0.000000,0.000000,1.0000,0.3350,0.0000,0.6396,0.3350,0.0000,0.6396,-0.000365,0.998724,-0.007292,0.049978,0.0400,,0.3350,0.0000,0.6396,0.0000,0.000000,0.0000,-0.7000,-0.0000,-2.2000,0.0000,1.6000,0.8000,-0.0000,0.0000,0.0000,-0.0000,-0.0000,-0.0000,-0.0000,22.75,21.74
3.605,66,0,,0.000000,0.000000,0.000000,1.0000,0.3350,0.0000,0.6396,0.3350,0.0000,0.6396,-0.000365,0.998724,-0.007292,0.049978,0.0400,,0.3350,0.0000,0.6396,0.0000,0.000000,0.0000,-0.7000,-0.0000,-2.2000,0.0000,1.6000,0.8000,-0.0000,0.0000,0.0000,-0.0000,-0.0000,-0.0000,-0.0000,22.75,21.74
3.642,67,0,,0.000000,0.000000,0.000000,1.0000,0.3350,0.0000,0.6396,0.3350,0.0000,0.6396,-0.000365,0.998724,-0.007292,0.049978,0.0400,,0.3350,0.0000,0.6396,0.0000,0.000000,0.0000,-0.7000,-0.0000,-2.2000,0.0000,1.6000,0.8000,-0.0000,0.0000,0.0000,-0.0000,-0.0000,-0.0000,-0.0000,22.75,21.74
3.683,68,0,,0.000000,0.000000,0.000000,1.0000,0.3350,0.0000,0.6396,0.3350,0.0000,0.6396,-0.000365,0.998724,-0.007292,0.049978,0.0400,,0.3350,0.0000,0.6396,0.0000,0.000000,0.0000,-0.7000,-0.0000,-2.2000,0.0000,1.6000,0.8000,-0.0000,0.0000,0.0000,-0.0000,-0.0000,-0.0000,-0.0000,22.75,21.74
3.730,69,0,,0.000000,0.000000,0.000000,1.0000,0.3350,0.0000,0.6396,0.3350,0.0000,0.6396,-0.000365,0.998724,-0.007292,0.049978,0.0400,,0.3350,0.0000,0.6396,0.0000,0.000000,0.0000,-0.7000,-0.0000,-2.2000,0.0000,1.6000,0.8000,-0.0000,0.0000,0.0000,-0.0000,-0.0000,-0.0000,-0.0000,22.75,21.74
3.771,70,0,,0.000000,0.000000,0.000000,1.0000,0.3350,0.0000,0.6396,0.3350,0.0000,0.6396,-0.000365,0.998724,-0.007292,0.049978,0.0400,,0.3350,0.0000,0.6396,0.0000,0.000000,0.0000,-0.7000,-0.0000,-2.2000,0.0000,1.6000,0.8000,-0.0000,0.0000,0.0000,-0.0000,-0.0000,-0.0000,-0.0000,22.75,21.74
3.803,71,0,,0.000000,0.000000,0.000000,1.0000,0.3350,0.0000,0.6396,0.3350,0.0000,0.6396,-0.000365,0.998724,-0.007292,0.049978,0.0400,,0.3350,0.0000,0.6396,0.0000,0.000000,0.0000,-0.7000,-0.0000,-2.2000,0.0000,1.6000,0.8000,-0.0000,0.0000,0.0000,-0.0000,-0.0000,-0.0000,-0.0000,22.75,21.74
3.846,72,1,0.9446,0.565315,0.263690,-0.000001,0.8745,0.3350,0.0000,0.6396,0.3350,0.0000,0.6396,0.192565,-0.605351,0.763979,-0.113160,0.0247,,0.3348,-0.0048,0.6419,0.0053,0.407765,-0.0140,-0.7017,-0.0177,-2.1979,0.0761,1.6039,2.8343,-0.1206,-0.0145,-0.1548,0.0158,1.0292,0.0282,28.6857,101.78,55.00
3.902,73,1,0.8672,0.533203,0.389093,0.000000,0.8377,0.3350,-0.0579,0.5412,0.3350,-0.0579,0.5412,-0.499697,-0.443435,0.678435,0.305605,0.0230,,0.1742,-0.0181,0.6118,0.1801,1.059285,0.0003,-0.6903,0.0008,-2.2100,-0.1635,0.2854,1.5290,0.1247,0.1221,0.1520,-0.2048,-3.8878,-19.0997,-26.4317,112.75,55.00
3.945,74,1,0.9544,0.534226,0.400613,0.000000,0.8328,0.3350,-0.0665,0.5235,0.3350,-0.0665,0.5235,0.479267,-0.520501,0.681125,0.188284,0.0227,,0.2215,-0.1341,0.7882,0.2958,2.939465,-0.0270,-0.7073,-0.0001,-2.2029,-1.9931,0.8795,2.2421,-1.0806,-0.1658,-0.2000,0.1859,-22.4659,19.3348,23.7900,135.40,55.00
3.988,75,1,0.6776,0.519056,0.530775,0.000001,0.8960,0.3350,-0.0954,0.5203,0.3350,-0.0954,0.5203,-0.514628,-0.462813,0.693637,0.199577,0.0257,,0.1705,-0.1310,0.7515,0.2859,0.539718,-0.0423,-0.6894,-0.0119,-2.2192,-1.7619,0.3594,1.4386,-0.1647,0.1152,-0.4907,-0.1470,17.3511,-17.7584,-22.9878,145.52,55.00
4.030,76,1,0.7031,0.562612,0.624112,0.000001,1.2678,0.3350,-0.0221,0.5197,0.3350,-0.0221,0.5197,-0.275611,-0.478337,0.782511,0.287940,0.0400,,0.2329,-0.1246,0.8107,0.3249,2.001304,-0.0329,-0.7023,-0.0052,-2.2129,-2.2025,0.9526,2.3091,0.0378,-0.1359,-0.0445,0.1913,-16.0914,18.2612,23.9240,139.91,55.00
4.070,77,1,0.8569,0.547700,0.933808,0.000001,1.0590,0.3350,-0.0357,0.5196,0.3350,-0.0357,0.5196,-0.112268,-0.563482,0.775648,0.261256,0.0334,,0.1762,-0.1392,0.7247,0.2793,1.278828,-0.0424,-0.6930,-0.0168,-2.2221,-1.5410,0.4118,1.5017,-0.1709,0.0415,-0.7077,-0.0930,19.2727,-17.8661,-22.9602,126.72,55.00
4.100,78,1,0.9242,0.555868,1.096141,0.000001,1.0264,0.3350,-0.0235,0.5196,0.3350,-0.0235,0.5196,-0.061893,-0.560111,0.784770,0.258031,0.0318,,0.2381,-0.1453,0.7700,0.2948,2.011261,-0.0325,-0.7094,-0.0098,-2.2177,-1.8777,0.9987,2.3719,0.0288,-0.1417,-0.0571,0.1372,-15.8077,18.2024,23.9035,145.52,55.00
4.143,79,1,0.8564,0.575194,1.159575,0.000001,1.0833,0.3350,0.0136,0.5196,0.3350,0.0136,0.5196,-0.117322,-0.556798,0.777662,0.267309,0.0345,,0.1868,-0.1395,0.6776,0.2652,1.090842,-0.0431,-0.6917,-0.0255,-2.2350,-1.2064,0.4806,1.5593,-0.1753,0.1561,-0.8106,-0.2297,19.2488,-17.7018,-23.0077,145.52,55.00
4.191,80,1,0.9037,0.583235,1.147210,0.000001,1.1046,0.3350,0.0348,0.5196,0.3350,0.0348,0.5196,-0.136376,-0.542045,0.781389,0.277526,0.0355,,0.2537,-0.1520,0.7207,0.2863,1.660872,-0.0320,-0.7063,-0.0161,-2.2326,-1.5657,1.0797,2.4300,0.0236,-0.1088,-0.0575,0.0892,-16.1883,18.1726,23.9454,145.52,55.00
4.231,81,1,0.9009,0.580171,1.230949,0.000001,1.0981,0.3350,0.0331,0.5196,0.3350,0.0331,0.5196,-0.149035,-0.548078,0.782028,0.256576,0.0352,,0.1981,-0.1300,0.6390,0.2441,0.912238,-0.0436,-0.6894,-0.0346,-2.2488,-0.9361,0.5539,1.6133,-0.1786,0.1729,-0.8237,-0.2905,18.7809,-17.9260,-23.0711,145.52,55.00
4.270,82,1,0.9204,0.597551,1.293686,0.000001,1.0281,0.3350,0.0641,0.5196,0.3350,0.0641,0.5196,-0.168373,-0.539825,0.786428,0.248536,0.0319,,0.2614,-0.1502,0.6836,0.2797,1.380041,-0.0369,-0.7033,-0.0219,-2.2471,-1.3406,1.1204,2.4852,-0.0211,-0.0869,-0.0474,0.0526,-16.5705,17.9015,23.9782,139.00,55.00
4.300,83,1,0.9443,0.596929,1.311210,0.000001,1.0103,0.3350,0.0686,0.5196,0.3350,0.0686,0.5196,-0.160924,-0.528498,0.796943,0.244286,0.0311,,0.1977,-0.1126,0.6094,0.2444,0.829436,-0.0498,-0.6869,-0.0444,-2.2640,-0.6940,0.5451,1.6695,-0.1807,0.1718,-0.8662,-0.4963,18.9125,-18.3414,-23.0602,145.52,55.00
4.343,84,1,0.9521,0.598611,1.351899,0.000001,0.9662,0.3350,0.0724,0.5196,0.3350,0.0724,0.5196,-0.185729,-0.522207,0.797914,0.236936,0.0290,,0.2592,-0.1454,0.6478,0.2638,1.131052,-0.0503,-0.7006,-0.0287,-2.2633,-1.1203,1.1048,2.5400,-0.0883,-0.0676,-0.0307,0.0121,-16.8261,17.9637,23.9571,134.73,55.00
4.373,85,1,0.9564,0.597522,1.364681,0.000001,0.9282,0.3350,0.0711,0.5196,0.3350,0.0711,0.5196,-0.179894,-0.509421,0.813897,0.213777,0.0272,,0.1950,-0.0965,0.5886,0.2290,0.818499,-0.0622,-0.6842,-0.0534,-2.2820,-0.5032,0.5260,1.7254,-0.1583,0.1692,-0.7573,-0.7090,18.6238,-18.3954,-23.0620,142.21,55.00
4.412,86,1,0.9669,0.582401,1.386642,0.000001,0.9469,0.3350,0.0436,0.5196,0.3350,0.0436,0.5196,-0.172272,-0.519136,0.813399,0.197996,0.0281,,0.2556,-0.1415,0.6219,0.2259,0.952685,-0.0683,-0.6980,-0.0348,-2.2825,-0.9742,1.0899,2.5934,-0.1389,-0.0562,-0.0153,-0.0143,-17.1575,18.0338,23.9363,136.95,55.00
4.455,87,1,0.9538,0.600263,1.384762,0.000001,0.9086,0.3350,0.0709,0.5196,0.3350,0.0709,0.5196,-0.171456,-0.516225,0.815881,0.196093,0.0263,,0.1923,-0.0871,0.5753,0.2201,0.857353,-0.0733,-0.6816,-0.0601,-2.3030,-0.3947,0.5096,1.7382,-0.0907,0.1675,-0.6344,-0.8494,18.3300,-18.4022,-23.3192,135.64,55.00
4.486,88,1,0.9566,0.594611,1.362032,0.000001,0.8316,0.3350,0.0656,0.5196,0.3350,0.0656,0.5196,-0.205466,-0.505190,0.814630,0.197343,0.0227,,0.2529,-0.1379,0.6022,0.2345,0.804039,-0.0814,-0.6955,-0.0392,-2.3036,-0.8785,1.0799,2.5870,-0.1566,-0.0502,-0.0016,-0.0301,-17.2122,18.1089,23.8466,139.21,55.00
4.529,89,1,0.9538,0.599148,1.366780,0.000001,0.8650,0.3350,0.0728,0.5196,0.3350,0.0728,0.5196,-0.189540,-0.512301,0.815568,0.190971,0.0242,,0.1906,-0.0824,0.5647,0.2167,0.865883,-0.0831,-0.6788,-0.0643,-2.3249,-0.3348,0.5046,1.7529,-0.0569,0.1667,-0.5367,-0.8948,17.9829,-18.3561,-23.1956,134.73,55.00
4.568,90,1,0.9385,0.596349,1.324024,0.000001,0.9616,0.3350,0.0691,0.5196,0.3350,0.0691,0.5196,-0.162187,-0.530982,0.801282,0.222936,0.0288,,0.2514,-0.1391,0.5896,0.2350,0.882789,-0.0916,-0.6928,-0.0435,-2.3254,-0.8501,1.0817,2.6105,-0.1629,-0.0484,0.0013,-0.0356,-17.4169,18.1658,23.8905,139.95,55.00
4.607,91,1,0.9092,0.597553,1.266849,0.000001,1.0784,0.3350,0.0706,0.5196,0.3350,0.0706,0.5196,-0.130301,-0.548800,0.791598,0.234975,0.0343,,0.1899,-0.0784,0.5541,0.2108,0.859633,-0.0925,-0.6762,-0.0685,-2.3478,-0.2806,0.5092,1.7138,-0.0473,0.1667,-0.4852,-0.9831,18.2190,-18.3629,-23.5623,134.76,55.00
4.645,92,1,0.9418,0.611356,1.277327,0.000001,1.0109,0.3350,0.0958,0.5196,0.3350,0.0958,0.5196,-0.154477,-0.546243,0.785371,0.246875,0.0311,,0.2452,-0.1355,0.5728,0.2537,0.837968,-0.1015,-0.6902,-0.0469,-2.3489,-0.7825,1.0485,2.5442,-0.1634,-0.0490,0.0177,-0.0453,-17.3518,17.8681,23.7542,140.92,55.00
4.684,93,1,0.8729,0.611353,1.181190,0.000001,1.0744,0.3350,0.1003,0.5196,0.3350,0.1003,0.5196,-0.166788,-0.545418,0.778727,0.261313,0.0341,,0.1825,-0.0705,0.5462,0.2305,0.835655,-0.1011,-0.6733,-0.0714,-2.3737,-0.2143,0.4582,1.7218,-0.0309,0.1620,-0.3521,-1.1155,18.2316,-18.3446,-23.0921,135.07,55.00
4.727,94,1,0.9420,0.607938,1.153476,0.000001,1.0689,0.3350,0.0949,0.5196,0.3350,0.0949,0.5196,-0.147830,-0.562321,0.782534,0.222668,0.0338,,0.2415,-0.1310,0.5568,0.2473,0.788789,-0.1078,-0.6876,-0.0484,-2.3749,-0.7267,1.0346,2.5820,-0.1440,-0.0462,0.0257,-0.0561,-17.4415,18.2185,23.8757,138.93,55.00
4.766,95,1,0.9652,0.606563,1.169500,0.000001,1.0583,0.3350,0.0915,0.5196,0.3350,0.0915,0.5196,-0.112767,-0.553204,0.796790,0.215346,0.0333,,0.1852,-0.0665,0.5338,0.2182,0.938828,-0.1062,-0.6705,-0.0720,-2.3997,-0.1715,0.4936,1.7553,-0.0190,0.1646,-0.2637,-1.0878,18.0431,-18.0336,-23.1543,135.55,55.00
4.803,96,1,0.9687,0.614511,1.170767,0.000001,1.0603,0.3350,0.1052,0.5196,0.3350,0.1052,0.5196,-0.120337,-0.542727,0.798761,0.230103,0.0334,,0.2466,-0.1291,0.5432,0.2516,0.812468,-0.1147,-0.6846,-0.0486,-2.4005,-0.6956,1.0864,2.6142,-0.1612,-0.0421,0.0267,-0.0576,-17.6198,18.2293,23.8954,140.85,55.00
4.844,97,1,0.9667,0.614800,1.171413,0.000001,1.0687,0.3350,0.1082,0.5196,0.3350,0.1082,0.5196,-0.106623,-0.544528,0.797684,0.236267,0.0338,,0.1889,-0.0655,0.5216,0.2270,0.942801,-0.1121,-0.6677,-0.0717,-2.4248,-0.1517,0.5408,1.7136,-0.0110,0.1677,-0.2533,-1.0637,17.8797,-18.1399,-23.6135,136.08,55.00
4.886,98,1,0.9579,0.621610,1.154995,0.000001,1.0516,0.3350,0.1210,0.5196,0.3350,0.1210,0.5196,-0.155474,-0.540957,0.788360,0.248356,0.0330,,0.2484,-0.1293,0.5314,0.2651,0.744209,-0.1213,-0.6816,-0.0486,-2.4260,-0.6860,1.1164,2.5443,-0.1701,-0.0417,0.0266,-0.0561,-17.7468,18.0783,23.8053,141.78,55.00
4.927,99,1,0.9632,0.620492,1.178780,0.000001,1.0625,0.3350,0.1213,0.5196,0.3350,0.1213,0.5196,-0.158650,-0.538920,0.787478,0.253525,0.0335,,0.1858,-0.0654,0.5128,0.2391,0.892552,-0.1197,-0.6648,-0.0714,-2.4504,-0.1476,0.5369,1.7179,-0.0203,0.1660,-0.2400,-1.0897,17.8523,-18.3604,-23.1559,135.58,55.00
4.967,100,1,0.9631,0.622078,1.199080,0.000002,1.0407,0.3350,0.1242,0.5196,0.3350,0.1242,0.5196,-0.157269,-0.535078,0.790067,0.254464,0.0325,,0.2457,-0.1303,0.5201,0.2697,0.761862,-0.1266,-0.6786,-0.0500,-2.4519,-0.6850,1.1178,2.5812,-0.1505,-0.0424,0.0270,-0.0573,-17.7823,18.2031,23.9492,139.14,55.00
5.007,101,1,0.9639,0.622499,1.205831,0.000002,1.0441,0.3350,0.1255,0.5196,0.3350,0.1255,0.5196,-0.151010,-0.534841,0.792667,0.250639,0.0327,,0.1869,-0.0671,0.5017,0.2436,0.884170,-0.1262,-0.6619,-0.0722,-2.4755,-0.1494,0.5724,1.7510,-0.0289,0.1677,-0.2351,-1.0271,17.7783,-18.1254,-23.2121,135.11,55.00
5.048,102,1,0.9716,0.629544,1.227607,0.000002,1.0331,0.3350,0.1385,0.5196,0.3350,0.1385,0.5196,-0.144106,-0.535382,0.792217,0.254933,0.0321,,0.2430,-0.1317,0.5097,0.2855,0.800123,-0.1325,-0.6756,-0.0510,-2.4765,-0.6881,1.1194,2.6119,-0.1448,-0.0457,0.0305,-0.0551,-17.7939,17.8481,23.9313,138.56,55.00
5.087,103,1,0.9664,0.620585,1.218230,0.000002,1.0631,0.3350,0.1246,0.5196,0.3350,0.1246,0.5196,-0.138511,-0.539600,0.791615,0.250983,0.0336,,0.1783,-0.0671,0.4964,0.2486,0.951678,-0.1330,-0.6588,-0.0729,-2.5010,-0.1545,0.5266,1.7130,-0.0328,0.1633,-0.2251,-1.0910,17.8278,-18.3900,-23.6028,134.88,55.00
5.129,104,1,0.9668,0.638234,1.236872,0.000002,1.0239,0.3350,0.1540,0.5196,0.3350,0.1540,0.5196,-0.144825,-0.531086,0.791760,0.264744,0.0317,,0.2334,-0.1319,0.5000,0.3041,0.804426,-0.1354,-0.6727,-0.0517,-2.5021,-0.6928,1.0718,2.5426,-0.1097,-0.0499,0.0335,-0.0581,-17.7046,17.9815,23.7755,135.77,55.00
5.160,105,1,0.9647,0.638640,1.209127,0.000002,1.1046,0.3350,0.1600,0.5196,0.3350,0.1600,0.5196,-0.159413,-0.544380,0.784720,0.249905,0.0355,,0.1720,-0.0667,0.4897,0.2808,0.958293,-0.1391,-0.6558,-0.0733,-2.5273,-0.1559,0.5014,1.7185,-0.0583,0.1604,-0.2182,-1.1055,17.8925,-18.1764,-23.1292,134.88,55.00
5.199,106,1,0.9645,0.636076,1.206500,0.000002,1.0638,0.3350,0.1565,0.5196,0.3350,0.1565,0.5196,-0.177996,-0.540526,0.780631,0.258386,0.0336,,0.2327,-0.1319,0.4888,0.3075,0.757192,-0.1374,-0.6697,-0.0525,-2.5281,-0.6922,1.0916,2.5807,-0.0763,-0.0486,0.0312,-0.0591,-17.7439,18.3067,23.9275,134.72,55.00
5.242,107,1,0.9731,0.641681,1.195606,0.000002,1.1041,0.3350,0.1659,0.5196,0.3350,0.1659,0.5196,-0.177850,-0.541150,0.783096,0.249573,0.0355,,0.1714,-0.0671,0.4792,0.2876,0.929943,-0.1422,-0.6528,-0.0737,-2.5525,-0.1566,0.5271,1.7523,-0.0699,0.1610,-0.2193,-1.0718,17.8334,-18.2351,-23.1820,135.19,55.00
5.284,108,1,0.9720,0.643011,1.206345,0.000002,1.0989,0.3350,0.1700,0.5196,0.3350,0.1700,0.5196,-0.168413,-0.535903,0.789531,0.247157,0.0352,,0.2315,-0.1320,0.4781,0.3219,0.776892,-0.1396,-0.6666,-0.0531,-2.5533,-0.6939,1.1078,2.6123,-0.0692,-0.0494,0.0318,-0.0575,-17.7820,18.2393,23.9199,134.76,55.00
5.324,109,1,0.9738,0.643786,1.174502,0.000002,1.1261,0.3350,0.1722,0.5196,0.3350,0.1722,0.5196,-0.182813,-0.536618,0.786896,0.243751,0.0365,,0.1689,-0.0674,0.4702,0.2956,0.976999,-0.1453,-0.6498,-0.0741,-2.5773,-0.1598,0.5383,1.7129,-0.0794,0.1611,-0.2190,-1.0590,17.7978,-18.2849,-23.6079,135.59,55.00
5.354,110,1,0.9734,0.631657,1.217198,0.000002,1.0576,0.3350,0.1507,0.5196,0.3350,0.1507,0.5196,-0.134872,-0.535464,0.797866,0.241863,0.0333,,0.2255,-0.1321,0.4687,0.3074,0.829121,-0.1421,-0.6636,-0.0537,-2.5780,-0.6982,1.0904,2.5433,-0.0621,-0.0531,0.0350,-0.0566,-17.7558,18.0308,23.7911,134.86,55.00
5.397,111,1,0.9725,0.612381,1.258361,0.000002,1.0151,0.3350,0.1120,0.5196,0.3350,0.1120,0.5196,-0.082458,-0.530519,0.813705,0.222788,0.0313,,0.1663,-0.0679,0.4612,0.2534,1.120779,-0.1510,-0.6468,-0.0744,-2.6016,-0.1617,0.5520,1.7172,-0.1065,0.1611,-0.2173,-1.0129,17.7987,-17.9486,-23.1599,137.55,55.00
5.426,112,1,0.9698,0.616431,1.252136,0.000001,0.9978,0.3350,0.1124,0.5196,0.3350,0.1124,0.5196,-0.073266,-0.527101,0.816523,0.223800,0.0305,,0.2296,-0.1330,0.4573,0.2742,0.929047,-0.1474,-0.6603,-0.0545,-2.6020,-0.6989,1.1529,2.5822,-0.0627,-0.0494,0.0303,-0.0534,-17.8848,18.3013,23.9791,134.96,55.00
5.464,113,1,0.9640,0.616064,1.210095,0.000001,1.0052,0.3350,0.1118,0.5196,0.3350,0.1118,0.5196,-0.082261,-0.532747,0.810425,0.229399,0.0308,,0.1662,-0.0690,0.4506,0.2568,1.085232,-0.1560,-0.6438,-0.0748,-2.6248,-0.1649,0.5880,1.7501,-0.1083,0.1622,-0.2205,-0.9968,17.7202,-18.2859,-23.2303,137.47,55.00
5.492,114,1,0.9659,0.610512,1.188336,0.000001,0.9859,0.3350,0.1017,0.5196,0.3350,0.1017,0.5196,-0.078984,-0.528276,0.811110,0.238300,0.0299,,0.2230,-0.1336,0.4485,0.2701,0.956220,-0.1520,-0.6573,-0.0550,-2.6255,-0.7039,1.1346,2.6115,-0.0555,-0.0536,0.0352,-0.0524,-17.8534,17.9593,23.9460,135.13,55.00
5.552,115,1,0.9745,0.605165,1.198735,0.000001,0.9732,0.3350,0.0902,0.5196,0.3350,0.0902,0.5196,-0.065399,-0.524821,0.812083,0.246591,0.0293,,0.1596,-0.0692,0.4449,0.2485,1.132693,-0.1625,-0.6408,-0.0752,-2.6485,-0.1709,0.5680,1.7112,-0.1240,0.1601,-0.2167,-1.0001,17.7389,-18.1906,-23.6275,139.27,55.00
5.591,116,1,0.9607,0.602290,1.167762,0.000001,0.9861,0.3350,0.0829,0.5196,0.3350,0.0829,0.5196,-0.084950,-0.528373,0.811727,0.233892,0.0299,,0.2205,-0.1343,0.4390,0.2584,0.937008,-0.1559,-0.6542,-0.0557,-2.6490,-0.7094,1.1501,2.5443,-0.0348,-0.0531,0.0328,-0.0513,-17.8865,18.2361,23.8423,136.37,55.00
5.621,117,1,0.9568,0.604848,1.127299,0.000001,0.9927,0.3350,0.0862,0.5196,0.3350,0.0862,0.5196,-0.087056,-0.534024,0.813520,0.213130,0.0302,,0.1572,-0.0699,0.4360,0.2510,1.156963,-0.1681,-0.6378,-0.0755,-2.6713,-0.1747,0.5878,1.7155,-0.1410,0.1602,-0.2172,-0.9680,17.7225,-18.2401,-23.1901,141.27,55.00
5.666,118,1,0.9692,0.615110,1.110641,0.000001,0.9903,0.3350,0.1054,0.5196,0.3350,0.1054,0.5196,-0.086932,-0.529041,0.813907,0.223861,0.0301,,0.2145,-0.1344,0.4305,0.2827,0.952125,-0.1601,-0.6511,-0.0562,-2.6715,-0.7122,1.1392,2.5805,-0.0213,-0.0561,0.0369,-0.0506,-17.8642,18.0014,23.9734,137.33,55.00
5.693,119,1,0.9548,0.613674,1.088662,0.000001,1.0100,0.3350,0.1062,0.5196,0.3350,0.1062,0.5196,-0.080926,-0.533123,0.810696,0.228041,0.0311,,0.1541,-0.0704,0.4279,0.2689,1.132923,-0.1735,-0.6349,-0.0759,-2.6934,-0.1778,0.6022,1.7491,-0.1504,0.1601,-0.2154,-0.9247,17.7016,-17.9539,-23.2310,142.71,55.00
5.732,120,1,0.9625,0.614257,1.070509,0.000001,1.0163,0.3350,0.1074,0.5196,0.3350,0.1074,0.5196,-0.075104,-0.535425,0.815468,0.206619,0.0314,,0.2174,-0.1350,0.4198,0.2873,0.958081,-0.1643,-0.6480,-0.0570,-2.6938,-0.7154,1.1972,2.6132,-0.0137,-0.0532,0.0334,-0.0463,-17.9976,18.2481,23.9961,138.44,55.00
5.777,121,1,0.9689,0.609896,1.073705,0.000001,0.9700,0.3350,0.0998,0.5196,0.3350,0.0998,0.5196,-0.080126,-0.525551,0.817718,0.220711,0.0292,,0.1527,-0.0712,0.4184,0.2696,1.168768,-0.1777,-0.6319,-0.0762,-2.7151,-0.1822,0.6333,1.7079,-0.1546,0.1613,-0.2177,-0.9133,17.6371,-18.3156,-23.6810,143.00,55.00
5.817,122,1,0.9696,0.622935,1.068167,0.000001,0.9863,0.3350,0.1219,0.5196,0.3350,0.1219,0.5196,-0.070796,-0.529803,0.817094,0.215998,0.0299,,0.2150,-0.1357,0.4111,0.3042,0.969987,-0.1685,-0.6449,-0.0576,-2.7154,-0.7229,1.2147,2.5435,-0.0144,-0.0540,0.0332,-0.0427,-18.0531,18.2164,23.8975,138.55,55.00
5.857,123,1,0.9615,0.623214,1.069269,0.000001,1.0146,0.3350,0.1264,0.5196,0.3350,0.1264,0.5196,-0.057168,-0.536760,0.817974,0.198844,0.0313,,0.1496,-0.0721,0.4105,0.2926,1.218552,-0.1830,-0.6290,-0.0766,-2.7362,-0.1892,0.6499,1.7114,-0.1662,0.1612,-0.2177,-0.8861,17.6279,-18.3161,-23.2342,144.73,55.00
5.887,124,1,0.9687,0.619895,1.066941,0.000001,0.9803,0.3350,0.1212,0.5196,0.3350,0.1212,0.5196,-0.065441,-0.532313,0.818576,0.205653,0.0297,,0.2328,-0.1421,0.4041,0.3052,0.981774,-0.1732,-0.6412,-0.0588,-2.7321,-0.7891,1.3682,2.6119,-0.0171,-0.0502,0.0183,-0.0153,-18.7096,18.5044,24.2885,139.81,55.00
5.927,125,1,0.9622,0.630242,1.068351,0.000001,0.9569,0.3350,0.1389,0.5196,0.3350,0.1389,0.5196,-0.059436,-0.538373,0.817238,0.196834,0.0286,,0.1623,-0.0863,0.3947,0.3100,1.136008,-0.1873,-0.6260,-0.0766,-2.7488,-0.2647,0.8078,1.7022,-0.1836,0.1701,-0.2370,-0.6483,17.4601,-18.6074,-23.7976,145.31,55.00
5.968,126,1,0.9514,0.627662,1.052092,0.000001,1.0174,0.3350,0.1375,0.5196,0.3350,0.1375,0.5196,-0.068911,-0.530084,0.819831,0.205278,0.0314,,0.2583,-0.1500,0.4024,0.3198,1.034993,-0.1820,-0.6372,-0.0605,-2.7470,-0.9106,1.5688,2.5995,-0.0599,-0.0558,0.0069,0.0444,-19.5452,18.4804,24.4452,136.88,55.00
5.997,127,1,0.9667,0.622879,1.060553,0.000001,0.9953,0.3350,0.1286,0.5196,0.3350,0.1286,0.5196,-0.060647,-0.522713,0.824987,0.206129,0.0304,,0.1798,-0.1062,0.3819,0.3133,1.077324,-0.1951,-0.6229,-0.0765,-2.7605,-0.3769,0.9919,1.7165,-0.2324,0.1793,-0.2824,-0.4048,17.5483,-18.9945,-23.7280,145.52,55.00
6.024,128,1,0.9576,0.625928,1.064600,0.000001,0.9998,0.3350,0.1325,0.5196,0.3350,0.1325,0.5196,-0.061235,-0.522372,0.825278,0.205655,0.0306,,0.2155,-0.1264,0.3874,0.3143,0.867389,-0.1908,-0.6347,-0.0579,-2.7476,-0.6072,1.2946,2.4491,-0.0211,-0.0634,0.0766,-0.0218,-14.9333,15.5091,22.7756,135.66,55.00
6.052,129,1,0.9629,0.628316,1.061916,0.000001,1.0161,0.3350,0.1375,0.5196,0.3350,0.1375,0.5196,-0.066274,-0.512131,0.828532,0.216481,0.0313,,0.1472,-0.0319,0.4026,0.2786,1.364574,-0.1967,-0.6183,-0.0778,-2.7671,0.1031,0.6315,1.5628,-0.0326,0.1721,-0.2391,0.2736,14.1324,-9.1712,-22.0943,136.12,55.00
6.095,130,1,0.9597,0.627328,1.058220,0.000001,1.0184,0.3350,0.1366,0.5196,0.3350,0.1366,0.5196,-0.070793,-0.511298,0.827394,0.221317,0.0315,,0.2732,-0.1261,0.3816,0.3031,0.811754,-0.1937,-0.6299,-0.0607,-2.7617,-0.6683,1.7492,2.5057,-0.1000,-0.0341,-0.0016,0.0363,-20.8747,19.6782,24.7315,135.24,55.00
6.137,131,1,0.9519,0.618358,1.046073,0.000001,1.0441,0.3350,0.1203,0.5196,0.3350,0.1203,0.5196,-0.072738,-0.506794,0.825004,0.239243,0.0327,,0.2136,-0.0836,0.3591,0.2865,0.938329,-0.1992,-0.6167,-0.0775,-2.7739,-0.1574,1.2598,1.6608,-0.1314,0.1920,-0.2725,-0.3499,17.5960,-18.8262,-23.6543,136.56,55.00
6.177,132,1,0.9582,0.601114,1.039989,0.000001,1.0202,0.3350,0.0862,0.5196,0.3350,0.0862,0.5196,-0.060194,-0.489819,0.828493,0.264677,0.0315,,0.2625,-0.1419,0.3804,0.2769,0.997115,-0.2149,-0.6265,-0.0598,-2.7750,-0.7892,1.6936,2.5618,-0.4143,-0.0566,0.0508,0.0430,-19.9179,16.4646,24.5344,145.52,55.00
6.217,133,1,0.9439,0.539342,1.027328,0.000001,1.0213,0.3350,-0.0313,0.5196,0.3350,-0.0313,0.5196,-0.018499,-0.494173,0.830358,0.256820,0.0316,,0.1691,-0.0916,0.3678,0.2328,1.074960,-0.2245,-0.6125,-0.0769,-2.7899,-0.2491,0.9720,1.7223,-0.1585,0.1787,-0.2451,-0.5528,17.5062,-19.6150,-23.4534,140.11,55.00
6.257,134,1,0.9642,0.506957,1.019232,0.000001,1.0145,0.3350,-0.1109,0.5196,0.3350,-0.1109,0.5196,0.540474,-0.397660,0.696786,0.253461,0.0313,,0.2384,-0.1356,0.3738,0.1766,2.041036,-0.2298,-0.6235,-0.0600,-2.7687,-0.6300,1.5360,2.5460,-0.1249,-0.0481,0.0499,-0.0042,-16.8170,17.2403,23.5897,136.20,55.00
6.297,135,1,0.9666,0.494285,1.004220,0.000001,1.0802,0.3350,-0.1481,0.5196,0.3350,-0.1481,0.5196,0.107796,-0.483305,0.808328,0.318437,0.0344,,0.1665,-0.0509,0.3714,0.2445,1.099281,-0.2368,-0.6087,-0.0785,-2.7893,0.0537,0.8779,1.6556,-0.0974,0.1765,-0.2055,-0.9933,18.0282,-19.1750,-23.5963,136.64,55.00
6.343,136,1,0.9698,0.500234,1.020747,0.000001,1.0658,0.3350,-0.1441,0.5196,0.3350,-0.1441,0.5196,0.027024,-0.483090,0.814434,0.320298,0.0337,,0.2016,-0.0981,0.3597,0.2133,0.831185,-0.2402,-0.6211,-0.0590,-2.7838,-0.3121,1.2915,2.4647,-0.0843,-0.0538,0.1031,-0.0475,-15.1803,16.4393,23.1022,136.37,55.00
6.386,137,1,0.9849,0.463601,1.023892,0.000001,0.9692,0.3350,-0.2094,0.5196,0.3350,-0.2094,0.5196,0.020218,-0.484835,0.805044,0.341218,0.0291,,0.1517,-0.0016,0.3954,0.3037,1.237443,-0.2412,-0.6048,-0.0789,-2.8191,0.3916,0.6207,1.5655,0.0157,0.1627,-0.1317,-1.6378,18.3526,-18.6513,-23.5299,134.82,55.00
6.430,138,1,0.9782,0.414569,1.023257,0.000001,1.0190,0.3350,-0.2427,0.5196,0.3350,-0.2427,0.5196,-0.533748,-0.407520,0.669558,0.317384,0.0315,,0.1847,-0.0497,0.3540,0.2954,0.608136,-0.2277,-0.6188,-0.0592,-2.8104,-0.0005,1.1445,2.3720,0.0892,-0.0671,0.1488,-0.0390,-12.5898,17.1734,22.5957,140.72,55.00
6.472,139,1,0.9783,0.412523,1.018804,0.000001,1.0866,0.3350,-0.2487,0.5196,0.3350,-0.2487,0.5196,0.450627,-0.435297,0.721949,0.293670,0.0347,,0.1679,0.0442,0.4205,0.3514,1.470423,-0.2279,-0.6012,-0.0783,-2.8610,0.8360,0.5365,1.4708,0.0700,0.1614,-0.0616,-2.0035,19.1451,-18.3381,-23.4234,134.93,55.00
6.501,140,1,0.9768,0.368600,1.026367,0.000001,0.9639,0.3350,-0.2498,0.5196,0.3350,-0.2498,0.5196,0.085259,-0.480167,0.800461,0.348472,0.0289,,0.1839,-0.0081,0.3458,0.3338,0.728055,-0.2196,-0.6080,-0.0585,-2.8564,0.2723,1.1275,2.3187,0.0609,0.0248,0.1772,-0.1001,-18.5345,18.4046,23.9527,126.62,55.00
6.538,141,1,0.9825,0.338253,1.032829,0.000001,0.9547,0.3350,-0.2500,0.5196,0.3350,-0.2500,0.5196,0.015578,-0.479487,0.805481,0.347923,0.0285,,0.1632,0.0242,0.3834,0.3511,1.312795,-0.2196,-0.5954,-0.0823,-2.8619,0.5732,0.7228,1.4553,0.0214,0.1215,-0.1410,-0.2276,11.4847,-12.3885,-24.6508,120.41,55.00
6.572,142,1,0.9881,0.346847,1.032519,0.000001,0.9881,0.3350,-0.2500,0.5196,0.3350,-0.2500,0.5196,-0.536613,-0.397021,0.681534,0.299888,0.0300,,0.2115,-0.0835,0.3256,0.2839,0.657739,-0.2115,-0.5934,-0.0643,-2.8494,-0.2559,1.4770,2.3133,-0.0017,0.0894,0.0880,-0.0981,-18.5235,16.2086,24.8361,119.79,55.00
6.604,143,1,0.9815,0.325114,1.030415,0.000001,0.9277,0.3350,-0.2500,0.5196,0.3350,-0.2500,0.5196,-0.106668,-0.482892,0.794044,0.353455,0.0272,,0.1515,-0.0253,0.3493,0.3364,1.101273,-0.2104,-0.5773,-0.0844,-2.8612,0.1441,0.8890,1.5075,0.0558,0.1474,-0.2209,0.3953,5.3370,-3.9735,-23.8046,134.97,55.00
6.645,144,1,0.9890,0.312119,1.030507,0.000001,0.8821,0.3350,-0.2500,0.5196,0.3350,-0.2500,0.5196,-0.031513,-0.490753,0.793820,0.357798,0.0250,,0.2820,-0.1453,0.3583,0.1994,1.336993,-0.2224,-0.5771,-0.0696,-2.8180,-0.9679,1.9060,2.4165,-0.2111,0.0142,0.0324,0.1438,-22.4662,16.3993,24.8714,126.42,55.00
6.684,145,1,0.9907,0.315927,1.030002,0.000001,0.9009,0.3350,-0.2500,0.5196,0.3350,-0.2500,0.5196,-0.039392,-0.490275,0.791978,0.361731,0.0259,,0.1836,-0.1275,0.3419,0.2637,1.139436,-0.2342,-0.5637,-0.0839,-2.8303,-0.4989,1.1932,1.5665,-0.3064,0.1828,-0.2497,-0.2442,17.5117,-19.7649,-23.6498,145.52,55.00
6.724,146,1,0.9919,0.302588,1.019870,0.000001,0.8764,0.3350,-0.2500,0.5196,0.3350,-0.2500,0.5196,-0.033690,-0.496390,0.788788,0.360937,0.0248,,0.2576,-0.1594,0.3588,0.2002,1.330279,-0.2316,-0.5737,-0.0686,-2.8185,-0.9884,1.7206,2.4431,-0.0590,-0.0676,0.0319,0.0924,-18.4814,17.4325,24.2956,136.20,55.00
6.756,147,1,0.9912,0.307251,1.015449,0.000001,0.8736,0.3350,-0.2500,0.5196,0.3350,-0.2500,0.5196,-0.038008,-0.501615,0.785462,0.360537,0.0246,,0.1694,-0.1117,0.3415,0.2798,1.044128,-0.2439,-0.5598,-0.0836,-2.8315,-0.3745,1.0918,1.5774,-0.2639,0.1834,-0.2452,-0.3403,17.7689,-19.3227,-23.6110,145.52,55.00
6.786,148,1,0.9913,0.307279,1.015414,0.000001,0.9065,0.3350,-0.2500,0.5196,0.3350,-0.2500,0.5196,-0.045710,-0.502796,0.785278,0.358393,0.0262,,0.2501,-0.1559,0.3581,0.2053,1.173685,-0.2401,-0.5703,-0.0677,-2.8008,-0.8623,1.6625,2.4502,-0.0553,-0.0582,0.0329,0.0560,-18.0760,17.2522,24.1669,136.23,55.00
6.831,149,1,0.9907,0.310368,1.013960,0.000001,0.9288,0.3350,-0.2500,0.5196,0.3350,-0.2500,0.5196,-0.047930,-0.505484,0.786252,0.352131,0.0272,,0.1660,-0.0926,0.3462,0.2888,0.965294,-0.2536,-0.5560,-0.0840,-2.8152,-0.2183,1.0149,1.5831,-0.2211,0.1832,-0.2397,-0.5226,17.8887,-19.3606,-23.5619,145.52,55.00
6.872,150,1,0.9764,0.322759,1.021856,0.000001,0.9546,0.3350,-0.2500,0.5196,0.3350,-0.2500,0.5196,-0.047766,-0.510434,0.791591,0.332504,0.0285,,0.2388,-0.1484,0.3576,0.2140,0.976629,-0.2508,-0.5665,-0.0675,-2.7793,-0.7032,1.5686,2.4381,-0.0677,-0.0488,0.0408,0.0122,-17.7197,17.0082,23.9686,135.13,55.00
6.913,151,1,0.9870,0.327800,1.021621,0.000001,0.9316,0.3350,-0.2500,0.5196,0.3350,-0.2500,0.5196,-0.049872,-0.514553,0.783336,0.345155,0.0274,,0.1656,-0.0783,0.3544,0.2924,0.943668,-0.2635,-0.5517,-0.0853,-2.7959,-0.0993,0.9430,1.5678,-0.1664,0.1814,-0.2252,-0.6835,17.5606,-18.9541,-23.5514,142.99,55.00
6.953,152,1,0.9761,0.343427,1.026951,0.000001,0.9755,0.3350,-0.2500,0.5196,0.3350,-0.2500,0.5196,-0.046178,-0.506559,0.792666,0.336075,0.0294,,0.2464,-0.1528,0.3522,0.2128,1.019127,-0.2632,-0.5621,-0.0688,-2.7944,-0.7526,1.6656,2.4282,-0.1077,-0.0453,0.0179,0.0372,-20.0518,18.2123,24.2348,134.75,55.00
6.991,153,1,0.9745,0.382800,1.025078,0.000001,0.9704,0.3350,-0.2500,0.5196,0.3350,-0.2500,0.5196,-0.031750,-0.502391,0.791985,0.345479,0.0292,,0.1764,-0.1003,0.3412,0.2818,0.960012,-0.2771,-0.5480,-0.0854,-2.8075,-0.2176,1.1043,1.5608,-0.2310,0.1877,-0.2403,-0.4190,17.5523,-18.9152,-23.6401,145.52,55.00
7.034,154,1,0.9720,0.499956,1.023282,0.000001,1.0596,0.3350,-0.1629,0.5196,0.3350,-0.1629,0.5196,-0.030882,-0.515128,0.786590,0.339066,0.0334,,0.2232,-0.1528,0.3498,0.2035,0.995086,-0.2782,-0.5585,-0.0679,-2.7962,-0.6966,1.5158,2.4473,-0.0944,-0.0531,0.0494,0.0040,-17.8820,16.0193,24.4440,134.79,55.00
7.075,155,1,0.8879,0.532581,1.032303,0.000001,1.0496,0.3350,-0.0884,0.5196,0.3350,-0.0884,0.5196,-0.046465,-0.543632,0.782856,0.299066,0.0329,,0.1438,-0.0737,0.3603,0.2493,1.040398,-0.2891,-0.5432,-0.0861,-2.8143,-0.0925,0.8035,1.6231,-0.0617,0.2299,-0.2317,-0.3074,14.4860,-15.2476,-22.3075,140.76,55.00
7.117,156,1,0.9293,0.576795,1.051428,0.000001,1.0545,0.3350,0.0048,0.5196,0.3350,0.0048,0.5196,-0.062866,-0.535189,0.793170,0.283728,0.0332,,0.2435,-0.1553,0.3551,0.2471,0.858215,-0.2817,-0.5544,-0.0698,-2.7742,-0.6927,1.6292,2.5041,-0.0330,-0.0433,0.0331,0.0199,-18.0332,17.7927,23.8851,137.85,55.00
7.160,157,1,0.9614,0.583962,1.061846,0.000001,1.0553,0.3350,0.0345,0.5196,0.3350,0.0345,0.5196,-0.052500,-0.527232,0.801352,0.277677,0.0332,,0.1740,-0.0851,0.3484,0.2637,0.939264,-0.2902,-0.5398,-0.0872,-2.7898,-0.0879,1.0176,1.6205,-0.1382,0.1867,-0.2314,-0.6310,17.5738,-19.1165,-23.6569,138.65,55.00
7.191,158,1,0.9441,0.631115,1.061490,0.000001,1.0291,0.3350,0.1249,0.5196,0.3350,0.1249,0.5196,-0.071636,-0.525636,0.799246,0.282455,0.0320,,0.2178,-0.1497,0.3472,0.3448,0.822770,-0.2894,-0.5506,-0.0693,-2.7911,-0.6363,1.4851,2.4960,-0.0869,-0.0442,0.0430,-0.0145,-18.7950,17.1190,24.2789,134.73,55.00
7.234,159,1,0.9677,0.625433,1.067629,0.000001,1.0193,0.3350,0.1309,0.5196,0.3350,0.1309,0.5196,-0.068786,-0.525788,0.803359,0.270980,0.0315,,0.1519,-0.0787,0.3542,0.3238,1.026081,-0.2989,-0.5354,-0.0876,-2.8087,-0.0870,0.8676,1.6593,-0.1279,0.1765,-0.2154,-0.7547,17.5184,-18.7100,-23.3700,138.96,55.00
7.275,160,1,0.8935,0.680396,1.082627,0.000001,1.0258,0.3350,0.2286,0.5196,0.3350,0.2286,0.5196,-0.065971,-0.528666,0.811623,0.239640,0.0318,,0.2394,-0.1500,0.3450,0.4278,0.752831,-0.2895,-0.5460,-0.0713,-2.7873,-0.6295,1.6373,2.4995,-0.0190,-0.0395,0.0357,0.0106,-18.3343,17.8580,23.7792,139.21,55.00
7.311,161,1,0.8641,0.728813,1.092512,0.000001,1.0209,0.3350,0.2461,0.5196,0.3350,0.2461,0.5196,-0.082474,-0.517581,0.818181,0.236407,0.0316,,0.1744,-0.0734,0.3422,0.3992,1.014206,-0.2947,-0.5313,-0.0892,-2.8036,0.0006,1.0253,1.6064,-0.1005,0.1878,-0.2222,-0.7137,17.8352,-19.1355,-23.6952,135.96,55.00
7.351,162,1,0.7524,0.776177,1.083873,0.000001,0.9796,0.3350,0.2493,0.5196,0.3350,0.2493,0.5196,-0.127412,-0.502601,0.813093,0.264649,0.0296,,0.2326,-0.1531,0.3405,0.4522,0.725223,-0.2941,-0.5415,-0.0715,-2.8008,-0.6687,1.6173,2.4655,-0.1014,-0.0428,0.0310,0.0112,-19.9365,17.2171,24.3859,134.72,55.00
7.391,163,1,0.8421,0.766744,1.098419,0.000001,1.0012,0.3350,0.2499,0.5196,0.3350,0.2499,0.5196,-0.112949,-0.480160,0.826592,0.270986,0.0306,,0.1606,-0.0923,0.3411,0.4235,1.026150,-0.3032,-0.5269,-0.0891,-2.8156,-0.1552,0.9951,1.6187,-0.1414,0.1833,-0.2303,-0.5625,17.3614,-18.9659,-23.4945,139.11,55.00
7.432,164,1,0.8880,0.797180,1.105375,0.000001,1.0302,0.3350,0.2500,0.5196,0.3350,0.2500,0.5196,-0.091727,-0.488329,0.830747,0.250959,0.0320,,0.2314,-0.1578,0.3457,0.4553,0.814454,-0.2974,-0.5373,-0.0725,-2.7868,-0.6853,1.5844,2.4316,-0.0430,-0.0456,0.0391,0.0121,-18.1049,17.1552,23.7082,136.65,55.00
7.472,165,1,0.9091,0.835119,1.110921,0.000001,1.0190,0.3350,0.2500,0.5196,0.3350,0.2500,0.5196,-0.104566,-0.502061,0.821070,0.250689,0.0315,,0.1600,-0.0797,0.3479,0.4108,1.106920,-0.3065,-0.5223,-0.0903,-2.8040,-0.0604,0.9274,1.5412,-0.1329,0.1828,-0.2206,-0.7708,17.8017,-19.2278,-23.6216,139.00,55.00
7.516,166,1,0.8938,0.832723,1.115181,0.000001,1.0024,0.3350,0.2500,0.5196,0.3350,0.2500,0.5196,-0.107119,-0.501639,0.824107,0.240273,0.0307,,0.2225,-0.1566,0.3416,0.4579,0.768177,-0.2999,-0.5331,-0.0727,-2.7963,-0.6785,1.5401,2.4969,-0.0397,-0.0469,0.0416,0.0022,-18.8456,16.6210,24.9944,136.81,55.00
7.555,167,1,0.9177,0.832879,1.118757,0.000001,1.0236,0.3350,0.2500,0.5196,0.3350,0.2500,0.5196,-0.105575,-0.503141,0.823355,0.240394,0.0317,,0.1471,-0.0895,0.3511,0.4231,1.059567,-0.3085,-0.5180,-0.0906,-2.8129,-0.1590,0.8645,1.7412,-0.1295,0.1760,-0.2229,-0.6813,17.2382,-19.0280,-22.9149,138.61,55.00
7.595,168,1,0.9074,0.806037,1.119872,0.000001,1.0598,0.3350,0.2500,0.5196,0.3350,0.2500,0.5196,-0.110053,-0.475478,0.835540,0.252354,0.0334,,0.2574,-0.1644,0.3485,0.4550,0.842966,-0.2964,-0.5281,-0.0749,-2.7809,-0.7739,1.7588,2.6442,-0.0017,-0.0439,0.0198,0.0622,-18.8597,18.7041,24.1392,143.57,55.00
7.635,169,1,0.8651,0.780593,1.091135,0.000001,1.0202,0.3350,0.2500,0.5196,0.3350,0.2500,0.5196,-0.079227,-0.456060,0.838901,0.286318,0.0315,,0.1906,-0.0995,0.3321,0.4221,0.935248,-0.3067,-0.5140,-0.0912,-2.7938,-0.1224,1.1915,1.6625,-0.1759,0.2044,-0.2567,-0.4361,18.0564,-19.2627,-24.2863,141.42,55.00
7.665,170,1,0.8306,0.735509,1.054916,0.000001,1.0224,0.3350,0.2500,0.5196,0.3350,0.2500,0.5196,-0.054695,-0.449770,0.843255,0.289200,0.0316,,0.2315,-0.1587,0.3384,0.4589,0.906706,-0.3103,-0.5241,-0.0730,-2.7948,-0.6758,1.6143,2.5110,-0.1322,-0.0454,0.0380,0.0139,-19.2205,16.6203,24.2409,135.68,55.00
7.709,171,1,0.8802,0.673611,1.012661,0.000001,1.0946,0.3350,0.2404,0.5196,0.3350,0.2404,0.5196,0.567439,-0.338964,0.710553,0.241310,0.0350,,0.1534,-0.0938,0.3445,0.4187,1.975918,-0.3207,-0.5092,-0.0907,-2.8106,-0.1570,0.9291,1.6579,-0.1501,0.1812,-0.2281,-0.6363,17.2112,-19.2352,-23.4934,140.48,55.00
7.755,172,1,0.8877,0.667005,0.992371,0.000001,1.0913,0.3350,0.2267,0.5196,0.3350,0.2267,0.5196,0.142375,-0.410212,0.856074,0.280345,0.0349,,0.2264,-0.1529,0.3402,0.4336,1.205773,-0.3147,-0.5198,-0.0741,-2.7775,-0.5796,1.5514,2.4886,-0.0319,-0.0404,0.0521,-0.0065,-16.9778,17.2593,23.6190,136.58,55.00
7.794,173,1,0.7289,0.609863,0.940365,0.000001,1.0915,0.3350,0.1212,0.5196,0.3350,0.1212,0.5196,0.213339,-0.333134,0.805538,0.441154,0.0349,,0.1664,-0.0628,0.3490,0.3023,1.190037,-0.3247,-0.5044,-0.0927,-2.7978,0.0984,0.9045,1.5964,-0.1209,0.1842,-0.2018,-0.9820,17.9836,-19.0886,-23.6154,139.15,55.00
7.822,174,1,0.9883,0.588121,0.864375,-0.000000,0.4472,0.3350,0.0630,0.5196,0.3350,0.0630,0.5196,0.287117,-0.125063,0.714691,0.625412,0.0046,,0.1985,-0.1366,0.3311,0.3065,1.831031,-0.3267,-0.5158,-0.0734,-2.7998,-0.4643,1.3981,2.4632,-0.1053,-0.0357,0.0613,-0.0517,-18.8733,17.4787,24.1972,135.40,55.00
7.853,175,1,0.9907,0.579394,0.838385,-0.000000,0.4761,0.3350,0.0367,0.5196,0.3350,0.0367,0.5196,0.284618,-0.085719,0.710243,0.638122,0.0059,,0.1454,-0.0675,0.3531,0.2730,1.468617,-0.3421,-0.4990,-0.0927,-2.8143,0.0132,0.8101,1.6290,-0.0552,0.3019,-0.2081,0.4095,10.2232,-10.2741,-23.1597,145.52,55.00
7.896,176,1,0.9824,0.590134,0.917269,-0.000000,0.4769,0.3350,0.0514,0.5196,0.3350,0.0514,0.5196,0.339863,0.011176,0.595706,0.727670,0.0060,,0.2303,-0.1813,0.3447,0.3093,2.542329,-0.3477,-0.5063,-0.0762,-2.7795,-0.7972,1.6182,2.5285,-0.1486,-0.0129,0.0229,0.0367,-19.4891,17.5603,24.4060,130.42,55.00
7.938,177,1,0.9794,0.555385,0.877348,0.000001,0.2832,0.3350,-0.0087,0.5196,0.3350,-0.0087,0.5196,0.312524,0.216127,0.441361,0.812907,0.0000,,0.1567,-0.1169,0.3425,0.2737,2.237310,-0.3615,-0.4913,-0.0931,-2.7936,-0.2464,0.9879,1.6839,-0.2119,0.1857,-0.2420,-0.4982,17.5612,-19.1283,-23.4821,145.52,55.00
7.979,178,1,0.9825,0.562160,0.879605,0.000001,0.3268,0.3350,-0.0073,0.5196,0.3350,-0.0073,0.5196,0.316065,0.237671,0.406558,0.823606,0.0000,,0.1828,-0.1453,0.3443,0.2701,2.599891,-0.3617,-0.5028,-0.0740,-2.7705,-0.4720,1.2461,2.5060,-0.0492,-0.0625,0.1019,-0.0213,-14.0222,14.4301,23.4258,134.79,55.00
8.018,179,1,0.9911,0.516673,0.872749,0.000001,0.4565,0.3350,-0.0891,0.5196,0.3350,-0.0891,0.5196,0.303737,0.287433,0.402437,0.814353,0.0050,,0.1480,-0.0442,0.3840,0.2353,1.846242,-0.3774,-0.4855,-0.0939,-2.7879,0.2434,0.5917,1.6406,-0.1302,0.1575,-0.1573,-0.3350,14.8619,-12.5670,-23.1471,145.52,55.00
8.058,180,1,0.9921,0.525264,0.884174,0.000001,0.4637,0.3350,-0.0883,0.5196,0.3350,-0.0883,0.5196,0.317571,0.291145,0.385046,0.816163,0.0054,,0.2115,-0.1551,0.3264,0.2389,2.791773,-0.3700,-0.4844,-0.0755,-2.7845,-0.5051,1.5201,2.5253,-0.0446,0.0883,0.0314,-0.0685,-20.1220,19.2983,24.3940,121.70,55.00
8.103,181,1,0.9950,0.493329,0.882506,0.000001,0.5868,0.3350,-0.1458,0.5196,0.3350,-0.1458,0.5196,0.321313,0.307838,0.345960,0.826018,0.0111,,0.1638,-0.0920,0.3330,0.2589,2.283023,-0.3854,-0.4687,-0.0941,-2.8005,-0.0250,1.0020,1.6869,-0.1786,0.1880,-0.2194,-0.6423,17.2098,-18.5412,-23.4765,145.52,55.00
8.134,182,1,0.9958,0.470253,0.881201,0.000002,0.6077,0.3350,-0.1977,0.5196,0.3350,-0.1977,0.5196,0.307949,0.340749,0.311261,0.831970,0.0121,,0.2115,-0.1768,0.3252,0.2312,3.099470,-0.3916,-0.4789,-0.0766,-2.7993,-0.6785,1.5838,2.5686,-0.1555,-0.0397,0.0318,0.0081,-19.7709,17.4784,24.3722,136.86,55.00
8.173,183,1,0.9970,0.462541,0.890429,0.000002,0.6230,0.3350,-0.2210,0.5196,0.3350,-0.2210,0.5196,0.281593,0.364538,0.306485,0.832997,0.0128,,0.1460,-0.1665,0.3495,0.2600,2.770899,-0.3775,-0.4637,-0.0751,-2.8126,-0.6652,0.9870,1.7186,0.0571,0.1745,-0.0707,-0.2318,10.4120,-18.2588,-23.7572,126.07,55.00
8.205,184,1,0.9944,0.462760,0.895545,0.000002,0.6421,0.3350,-0.2248,0.5196,0.3350,-0.2248,0.5196,0.301055,0.376941,0.316988,0.816578,0.0137,,0.2432,-0.2397,0.3865,0.1624,2.315830,-0.3813,-0.4751,-0.0633,-2.8097,-1.6163,1.5400,2.5883,-0.0948,-0.1053,0.0246,0.1882,-20.4338,17.6073,24.3687,134.84,55.00
8.250,185,1,0.9963,0.453038,0.891726,0.000002,0.6274,0.3350,-0.2430,0.5196,0.3350,-0.2430,0.5196,0.272102,0.398543,0.300599,0.822657,0.0131,,0.1545,-0.2193,0.3856,0.2261,3.094121,-0.3888,-0.4583,-0.0738,-2.8239,-1.1474,0.9495,1.7123,-0.1942,0.1555,-0.2742,-0.1611,17.5645,-18.4399,-23.6685,145.52,55.00
8.289,186,1,0.9944,0.448176,0.891338,0.000002,0.6316,0.3350,-0.2487,0.5196,0.3350,-0.2487,0.5196,0.276512,0.416728,0.289039,0.816293,0.0133,,0.2343,-0.2402,0.3839,0.1692,2.315696,-0.3809,-0.4703,-0.0638,-2.8214,-1.6031,1.4875,2.5810,0.0207,-0.0988,0.0308,0.1611,-17.6922,17.8560,24.1898,145.52,55.00
8.320,187,1,0.9941,0.448626,0.894400,0.000002,0.6402,0.3350,-0.2498,0.5196,0.3350,-0.2498,0.5196,0.309730,0.419109,0.273402,0.808496,0.0137,,0.1431,-0.2009,0.3660,0.2507,3.081182,-0.3891,-0.4536,-0.0751,-2.8357,-0.9691,0.9548,1.7257,-0.2118,0.1617,-0.2745,-0.1937,18.2095,-18.1703,-23.4936,145.52,55.00
8.367,188,1,0.9947,0.454113,0.887713,0.000002,0.6506,0.3350,-0.2456,0.5196,0.3350,-0.2456,0.5196,0.284867,0.437912,0.256830,0.813094,0.0141,,0.2221,-0.2298,0.3619,0.1946,2.382080,-0.3801,-0.4648,-0.0637,-2.8343,-1.4311,1.5093,2.6066,0.0170,-0.0887,0.0282,0.1362,-18.0759,17.8531,24.2572,145.52,55.00
8.410,189,1,0.9932,0.454367,0.883720,0.000002,0.6461,0.3350,-0.2444,0.5196,0.3350,-0.2444,0.5196,0.286413,0.439398,0.253439,0.812814,0.0139,,0.1362,-0.1833,0.3494,0.2687,2.988429,-0.3893,-0.4487,-0.0761,-2.8477,-0.8201,0.9705,1.6880,-0.2267,0.1679,-0.2613,-0.2184,18.0294,-18.3065,-23.8883,145.52,55.00
8.453,190,1,0.9916,0.455991,0.880034,0.000002,0.6058,0.3350,-0.2412,0.5196,0.3350,-0.2412,0.5196,0.301689,0.427701,0.271923,0.807536,0.0120,,0.2123,-0.2177,0.3447,0.2149,2.554219,-0.3792,-0.4598,-0.0627,-2.8407,-1.2615,1.5201,2.4389,0.0165,-0.0785,0.0286,0.1072,-17.8379,17.7659,23.3522,145.52,55.00
8.485,191,1,0.9926,0.471007,0.881891,0.000001,0.5260,0.3350,-0.2135,0.5196,0.3350,-0.2135,0.5196,0.325765,0.308338,0.347083,0.823613,0.0083,,0.1329,-0.1792,0.3463,0.2684,2.719906,-0.3889,-0.4440,-0.0758,-2.8539,-0.8004,0.9584,1.5284,-0.1905,0.1693,-0.2445,-0.2215,15.6176,-18.3956,-23.8062,143.67,55.00
8.525,192,1,0.9723,0.496135,0.897786,0.000001,0.3640,0.3350,-0.1632,0.5196,0.3350,-0.1632,0.5196,0.315072,0.171272,0.409039,0.839097,0.0007,,0.2117,-0.2194,0.3476,0.2189,3.031480,-0.3792,-0.4553,-0.0622,-2.8337,-1.2633,1.4967,2.2303,0.0171,-0.0782,0.0283,0.1028,-17.3300,17.7018,22.9125,145.52,55.00
8.553,193,1,0.9674,0.493392,0.891984,0.000001,0.4341,0.3350,-0.1591,0.5196,0.3350,-0.1591,0.5196,0.313560,0.126181,0.409278,0.847496,0.0040,,0.1464,-0.2120,0.3708,0.2459,2.549201,-0.3880,-0.4387,-0.0737,-2.8484,-1.1156,0.9447,1.3143,-0.1655,0.1646,-0.2119,-0.1845,10.9116,-17.9944,-23.9012,139.63,55.00
8.592,194,1,0.9902,0.493016,0.909406,0.000001,0.6817,0.3350,-0.1591,0.5196,0.3350,-0.1591,0.5196,0.322585,-0.104616,0.579529,0.741040,0.0156,,0.2670,-0.2434,0.3988,0.1623,2.790967,-0.3812,-0.4517,-0.0646,-2.8424,-2.0184,1.5205,2.1727,0.0427,-0.1296,0.0591,0.2582,-20.0226,17.8249,24.3965,145.52,55.00
8.622,195,1,0.8440,0.491934,0.971178,0.000000,0.9807,0.3350,-0.1610,0.5196,0.3350,-0.1610,0.5196,0.464715,-0.368436,0.584386,0.553884,0.0297,,0.1806,-0.2429,0.4029,0.2101,2.773975,-0.3864,-0.4329,-0.0725,-2.8603,-1.5502,0.9651,1.3346,-0.1708,0.1470,-0.2245,-0.0984,17.3491,-18.1385,-23.4301,145.23,55.00
8.665,196,1,0.9828,0.524518,0.980185,0.000000,0.8353,0.3350,-0.1026,0.5196,0.3350,-0.1026,0.5196,0.383250,-0.506015,0.612422,0.471177,0.0228,,0.2687,-0.2408,0.3906,0.2003,3.077584,-0.3811,-0.4464,-0.0652,-2.8540,-2.0348,1.5509,2.2230,0.0517,-0.1234,0.0703,0.2460,-18.0230,18.1330,24.4215,145.52,55.00
8.707,197,1,0.9510,0.540606,0.954244,0.000000,1.0850,0.3350,-0.0630,0.5196,0.3350,-0.0630,0.5196,0.223961,-0.436827,0.779056,0.389995,0.0346,,0.1684,-0.2345,0.3807,0.2765,2.288677,-0.3867,-0.4279,-0.0737,-2.8722,-1.4017,1.0045,1.3833,-0.1820,0.1476,-0.2362,-0.1083,18.2725,-18.3404,-23.4069,145.52,55.00
8.750,198,1,0.9660,0.536955,0.947631,0.000000,1.1831,0.3350,-0.0625,0.5196,0.3350,-0.0625,0.5196,0.187905,-0.419432,0.812485,0.358660,0.0392,,0.2505,-0.2382,0.3689,0.2464,2.563062,-0.3807,-0.4404,-0.0655,-2.8677,-1.8476,1.5613,2.2756,0.0406,-0.1142,0.0587,0.2199,-17.9835,17.9054,24.4233,145.52,55.00
8.778,199,1,0.9145,0.584414,0.982469,0.000001,0.9925,0.3350,0.0232,0.5196,0.3350,0.0232,0.5196,-0.526518,-0.390854,0.723048,0.217287,0.0302,,0.1528,-0.2190,0.3567,0.3441,1.172325,-0.3873,-0.4230,-0.0752,-2.8835,-1.2044,1.0339,1.4354,-0.1889,0.1519,-0.2420,-0.1347,18.2981,-18.2272,-23.4233,145.52,55.00
8.819,200,1,0.8443,0.642588,1.019965,0.000001,1.0544,0.3350,0.1436,0.5196,0.3350,0.1436,0.5196,-0.150514,-0.455546,0.839230,0.255962,0.0331,,0.2354,-0.2311,0.3473,0.4243,1.722464,-0.3803,-0.4346,-0.0658,-2.8804,-1.6693,1.5881,2.3298,0.0332,-0.1052,0.0519,0.1979,-18.2722,17.7824,24.4465,145.52,55.00
8.859,201,1,0.8605,0.642292,1.018817,0.000001,1.0913,0.3350,0.1647,0.5196,0.3350,0.1647,0.5196,-0.082309,-0.470545,0.839180,0.259979,0.0349,,0.1389,-0.2023,0.3406,0.4530,1.605290,-0.3878,-0.4181,-0.0765,-2.8947,-1.0415,1.0286,1.4893,-0.1951,0.1570,-0.2477,-0.1635,18.1661,-18.5185,-23.4275,145.52,55.00
8.888,202,1,0.7933,0.697328,1.042728,0.000001,1.0776,0.3350,0.2346,0.5196,0.3350,0.2346,0.5196,-0.075442,-0.461869,0.836972,0.283661,0.0342,,0.2254,-0.2234,0.3333,0.5065,1.705111,-0.3794,-0.4295,-0.0645,-2.8800,-1.5024,1.6043,2.2821,0.0265,-0.0945,0.0444,0.1734,-18.1956,18.0210,23.6014,145.52,55.00
8.926,203,1,0.8564,0.743509,1.067338,0.000001,1.0511,0.3350,0.2472,0.5196,0.3350,0.2472,0.5196,-0.076884,-0.454784,0.835701,0.298102,0.0330,,0.1322,-0.1830,0.3266,0.5133,1.526857,-0.3879,-0.4136,-0.0763,-2.8932,-0.8591,1.0408,1.3773,-0.2137,0.1660,-0.2470,-0.1966,18.1706,-18.7651,-23.7202,145.52,55.00
8.971,204,1,0.8019,0.800051,1.065984,0.000001,1.0446,0.3350,0.2495,0.5196,0.3350,0.2495,0.5196,-0.075624,-0.446463,0.840963,0.296196,0.0327,,0.2324,-0.2155,0.3243,0.5147,1.665249,-0.3786,-0.4245,-0.0635,-2.8661,-1.3990,1.6892,2.1303,0.0239,-0.0899,0.0429,0.1759,-18.8569,17.9573,23.3649,145.52,55.00
9.001,205,1,0.8634,0.793883,1.077520,0.000001,1.0542,0.3350,0.2499,0.5196,0.3350,0.2499,0.5196,-0.054512,-0.448966,0.846068,0.282182,0.0331,,0.1411,-0.1757,0.3172,0.5097,1.601000,-0.3875,-0.4092,-0.0755,-2.8787,-0.7669,1.1134,1.2221,-0.2197,0.1719,-0.2460,-0.2005,18.1086,-19.0187,-23.7058,145.52,55.00
9.040,206,1,0.8619,0.829005,1.070101,0.000001,1.0970,0.3350,0.2500,0.5196,0.3350,0.2500,0.5196,-0.016105,-0.475778,0.846649,0.237827,0.0352,,0.2421,-0.2021,0.3098,0.5070,1.638437,-0.3779,-0.4187,-0.0618,-2.8672,-1.2987,1.8193,2.0703,0.0239,-0.0871,0.0460,0.1920,-19.4340,18.2406,24.2404,145.52,55.00
9.073,207,1,0.8502,0.840977,1.045725,0.000001,1.0799,0.3350,0.2500,0.5196,0.3350,0.2500,0.5196,-0.048123,-0.462068,0.846309,0.260650,0.0343,,0.1550,-0.1639,0.2984,0.5026,1.576229,-0.3872,-0.4042,-0.0739,-2.8791,-0.6480,1.2578,1.1796,-0.2375,0.1747,-0.2413,-0.1911,18.3124,-19.1689,-23.7845,145.52,55.00
9.112,208,1,0.8409,0.870774,1.044798,0.000001,1.0489,0.3350,0.2500,0.5196,0.3350,0.2500,0.5196,-0.057952,-0.464890,0.848733,0.245299,0.0329,,0.2469,-0.1903,0.2995,0.5001,1.515827,-0.3771,-0.4135,-0.0604,-2.8684,-1.1820,1.8990,2.0206,0.0219,-0.0832,0.0457,0.1874,-19.6928,17.8083,24.2317,145.52,55.00
9.152,209,1,0.8252,0.885360,1.034002,0.000001,1.0401,0.3350,0.2500,0.5196,0.3350,0.2500,0.5196,-0.089044,-0.459204,0.852183,0.234492,0.0325,,0.1634,-0.1492,0.2864,0.4932,1.565191,-0.3872,-0.3996,-0.0732,-2.8799,-0.5130,1.3373,1.1185,-0.2611,0.1803,-0.2387,-0.2001,18.4819,-19.1741,-23.8863,145.52,55.00
9.192,210,1,0.8702,0.845910,1.027956,0.000001,1.1129,0.3350,0.2500,0.5196,0.3350,0.2500,0.5196,0.525637,-0.425488,0.709267,0.199011,0.0359,,0.2386,-0.1852,0.2941,0.4995,2.311792,-0.3839,-0.4089,-0.0592,-2.8637,-1.0304,1.8672,1.9369,-0.0441,-0.0722,0.0419,0.1428,-19.4412,16.8477,24.0122,137.29,55.00
9.222,211,1,0.8784,0.809468,1.039149,0.000001,1.1755,0.3350,0.2500,0.5196,0.3350,0.2500,0.5196,0.148362,-0.520521,0.815903,0.203342,0.0388,,0.1488,-0.1297,0.2911,0.4807,1.621894,-0.3956,-0.3948,-0.0736,-2.8754,-0.3663,1.1992,1.0271,-0.2754,0.1978,-0.2390,-0.2695,18.1620,-19.8013,-23.8323,145.52,55.00
9.259,212,1,0.8243,0.765605,1.040717,0.000001,1.1973,0.3350,0.2500,0.5196,0.3350,0.2500,0.5196,0.078312,-0.523524,0.821531,0.211841,0.0399,,0.2267,-0.1743,0.2915,0.4937,1.315162,-0.3848,-0.4051,-0.0579,-2.8461,-0.7980,1.7739,1.8911,0.0065,-0.0522,0.0432,0.0742,-17.9742,16.7184,24.1227,142.83,55.00
9.314,213,1,0.8757,0.712416,1.044206,0.000001,1.3018,0.3350,0.2500,0.5196,0.3350,0.2500,0.5196,0.124947,-0.540539,0.809030,0.194104,0.0400,,0.1558,-0.0944,0.2941,0.4490,1.480535,-0.3981,-0.3903,-0.0742,-2.8597,-0.0803,1.1340,1.0006,-0.1872,0.2178,-0.2268,-0.5189,18.2001,-19.4596,-23.6987,145.52,55.00
9.378,214,1,0.8462,0.704270,1.047584,0.000001,1.2874,0.3350,0.2500,0.5196,0.3350,0.2500,0.5196,0.123777,-0.540787,0.813851,0.172846,0.0400,,0.2375,-0.1814,0.2929,0.4970,1.430951,-0.3934,-0.4000,-0.0580,-2.8441,-0.8929,1.8511,1.8875,-0.0673,-0.0592,0.0215,0.1208,-21.5872,17.4023,24.8947,136.83,55.00
9.410,215,1,0.8622,0.650055,1.041104,0.000001,1.2920,0.3350,0.1979,0.5196,0.3350,0.1979,0.5196,0.099082,-0.546590,0.811571,0.181036,0.0400,,0.1555,-0.1365,0.2933,0.4419,1.567108,-0.4054,-0.3860,-0.0727,-2.8551,-0.3797,1.2176,1.0396,-0.2599,0.1966,-0.2399,-0.2574,17.5703,-19.5269,-23.6098,145.52,55.00
9.449,216,1,0.8534,0.651612,1.046887,0.000001,1.2408,0.3350,0.1913,0.5196,0.3350,0.1913,0.5196,0.038942,-0.546287,0.816996,0.180475,0.0400,,0.2120,-0.1814,0.2990,0.4502,1.272267,-0.3955,-0.3963,-0.0569,-2.8280,-0.8038,1.6340,1.8613,0.0041,-0.0529,0.0486,0.0467,-17.5860,15.7254,23.6914,141.49,55.00
9.496,217,1,0.8930,0.617502,1.043872,0.000001,1.2351,0.3350,0.1286,0.5196,0.3350,0.1286,0.5196,0.007536,-0.552931,0.810299,0.193976,0.0400,,0.1390,-0.0955,0.3135,0.3621,1.573799,-0.4091,-0.3807,-0.0739,-2.8424,-0.1225,0.9491,0.9607,-0.1784,0.2684,-0.2415,-0.0597,17.3826,-15.5572,-22.8717,145.52,55.00
9.539,218,1,0.9438,0.570920,1.049224,0.000001,1.2734,0.3350,0.0333,0.5196,0.3350,0.0333,0.5196,0.017083,-0.562161,0.801644,0.202608,0.0400,,0.2539,-0.1928,0.3066,0.3210,1.262121,-0.3968,-0.3905,-0.0586,-2.8036,-0.9636,1.8768,1.9469,-0.0043,-0.0609,0.0114,0.1470,-21.3745,18.2872,25.1177,145.52,55.00
9.582,219,1,0.9221,0.539261,1.060894,0.000001,1.1549,0.3350,-0.0410,0.5196,0.3350,-0.0410,0.5196,0.005381,-0.578188,0.780368,0.238110,0.0379,,0.1769,-0.1509,0.2974,0.2940,1.310767,-0.4084,-0.3765,-0.0724,-2.8144,-0.4162,1.3008,1.1100,-0.3280,0.1952,-0.2434,-0.2307,17.9032,-19.3260,-23.5994,145.52,55.00
9.627,220,1,0.9605,0.468294,1.040565,0.000001,1.2775,0.3350,-0.1824,0.5196,0.3350,-0.1824,0.5196,0.007682,-0.572177,0.777475,0.260937,0.0400,,0.2319,-0.2018,0.3073,0.2368,1.278456,-0.4038,-0.3852,-0.0583,-2.8147,-1.0242,1.7319,2.0141,-0.0456,-0.0651,0.0284,0.1101,-19.9269,16.4909,24.6770,137.83,55.00
9.659,221,1,0.9593,0.430870,1.065781,0.000001,1.2452,0.3350,-0.2378,0.5196,0.3350,-0.2378,0.5196,0.011873,-0.565231,0.782704,0.260281,0.0400,,0.1441,-0.1513,0.3133,0.2941,1.375287,-0.4155,-0.3701,-0.0729,-2.8267,-0.4895,1.0610,1.1710,-0.2654,0.1947,-0.2456,-0.2677,17.4408,-19.3920,-23.4852,145.52,55.00
9.720,222,1,0.9671,0.386357,1.060176,0.000001,1.2526,0.3350,-0.2478,0.5196,0.3350,-0.2478,0.5196,0.006061,-0.562132,0.784828,0.260800,0.0400,,0.2372,-0.2040,0.3108,0.2347,1.276193,-0.4037,-0.3801,-0.0580,-2.7997,-1.0240,1.7393,2.0530,0.0109,-0.0612,0.0255,0.1130,-18.9966,17.4736,24.2279,145.52,55.00
9.768,223,1,0.9363,0.391336,1.065695,0.000001,1.2218,0.3350,-0.2496,0.5196,0.3350,-0.2496,0.5196,-0.538482,-0.482977,0.657522,0.210798,0.0400,,0.1571,-0.1423,0.3065,0.2976,1.387616,-0.4157,-0.3651,-0.0725,-2.8117,-0.3809,1.1281,1.1739,-0.3045,0.2042,-0.2440,-0.3009,18.0578,-19.3181,-23.6543,145.52,55.00
9.801,224,1,0.9526,0.365178,1.061160,0.000001,1.1555,0.3350,-0.2499,0.5196,0.3350,-0.2499,0.5196,-0.113191,-0.557602,0.785421,0.243684,0.0379,,0.2173,-0.1906,0.3063,0.2507,0.938081,-0.4027,-0.3744,-0.0572,-2.7931,-0.8274,1.6059,2.0018,0.0209,-0.0484,0.0353,0.0463,-18.1052,16.6188,23.8540,145.52,55.00
9.833,225,1,0.9432,0.370154,1.052962,0.000001,1.1609,0.3350,-0.2500,0.5196,0.3350,-0.2500,0.5196,-0.045131,-0.567836,0.784755,0.244303,0.0382,,0.1452,-0.1159,0.3179,0.3077,1.358070,-0.4159,-0.3587,-0.0739,-2.8074,-0.2242,0.9509,1.1144,-0.1879,0.1922,-0.2337,-0.5471,17.5427,-19.2035,-23.6151,145.52,55.00
9.876,226,1,0.9578,0.352768,1.049895,0.000001,1.1570,0.3350,-0.2500,0.5196,0.3350,-0.2500,0.5196,-0.030783,-0.567277,0.785601,0.245112,0.0380,,0.2121,-0.1878,0.3095,0.2513,1.029622,-0.4023,-0.3685,-0.0572,-2.7783,-0.7742,1.5385,2.0066,0.0219,-0.0435,0.0351,0.0252,-18.1996,16.7712,24.1877,145.52,55.00
9.907,227,1,0.9559,0.359030,1.061963,0.000001,1.1270,0.3350,-0.2500,0.5196,0.3350,-0.2500,0.5196,-0.032400,-0.570948,0.783932,0.241703,0.0366,,0.1489,-0.1082,0.3220,0.3062,1.341832,-0.4161,-0.3525,-0.0745,-2.7936,-0.1575,0.9176,1.1500,-0.1823,0.1916,-0.2269,-0.6355,17.7551,-18.8825,-23.4524,145.52,55.00
9.949,228,1,0.9475,0.359294,1.060095,0.000001,1.1331,0.3350,-0.2500,0.5196,0.3350,-0.2500,0.5196,-0.028645,-0.572719,0.783849,0.238231,0.0369,,0.1828,-0.1833,0.3267,0.2546,1.111995,-0.4014,-0.3631,-0.0566,-2.7623,-0.7421,1.2633,2.0436,0.0460,-0.0560,0.0621,-0.0091,-17.1497,14.2920,23.7500,145.52,55.00
9.980,229,1,0.9496,0.374973,1.063044,0.000001,1.1344,0.3350,-0.2500,0.5196,0.3350,-0.2500,0.5196,-0.032444,-0.569606,0.786523,0.236384,0.0369,,0.1321,-0.1046,0.3588,0.2969,1.502960,-0.4161,-0.3440,-0.0746,-2.7692,-0.2003,0.6487,1.2207,-0.1391,0.2765,-0.1464,0.3766,12.5633,-4.2305,-20.8526,145.52,55.00
10.019,230,1,0.9475,0.404405,1.069559,0.000001,1.2272,0.3350,-0.2500,0.5196,0.3350,-0.2500,0.5196,-0.007124,-0.568223,0.783981,0.249890,0.0400,,0.2917,-0.2010,0.3144,0.2154,1.254698,-0.4052,-0.3531,-0.0609,-2.7620,-1.1250,2.0724,2.2409,-0.0089,-0.0784,0.0054,0.2675,-22.5806,20.9702,25.3513,145.52,55.00
10.062,231,1,0.9407,0.403086,1.070469,0.000001,1.2167,0.3350,-0.2500,0.5196,0.3350,-0.2500,0.5196,-0.007583,-0.571512,0.782352,0.247471,0.0400,,0.2378,-0.1823,0.2916,0.2569,1.170767,-0.4135,-0.3401,-0.0712,-2.7731,-0.5745,1.6892,1.3877,-0.2707,0.1584,-0.2407,-0.0977,18.8923,-18.3252,-23.9898,145.52,55.00
10.103,232,1,0.9689,0.443751,1.063828,0.000001,1.1914,0.3350,-0.2500,0.5196,0.3350,-0.2500,0.5196,-0.004003,-0.563158,0.777066,0.281079,0.0396,,0.2956,-0.2037,0.3118,0.2165,1.369776,-0.4190,-0.3465,-0.0625,-2.7721,-1.2415,2.1255,2.3175,-0.0917,-0.0965,0.0307,0.2375,-21.1041,16.1371,24.9928,131.89,55.00
10.149,233,1,0.9475,0.496705,1.066829,0.000001,1.2486,0.3350,-0.1688,0.5196,0.3350,-0.1688,0.5196,0.553099,-0.491340,0.640357,0.206418,0.0400,,0.1954,-0.1840,0.2953,0.2646,2.052357,-0.4288,-0.3323,-0.0742,-2.7848,-0.6041,1.4241,1.4489,-0.3625,0.1802,-0.2475,-0.1588,18.5645,-19.7659,-23.8360,145.52,55.00
10.182,234,1,0.9504,0.568907,1.078634,0.000001,1.2156,0.3350,-0.0239,0.5196,0.3350,-0.0239,0.5196,0.118967,-0.569516,0.774901,0.247037,0.0400,,0.2498,-0.2183,0.3083,0.2995,1.514089,-0.4204,-0.3399,-0.0622,-2.7853,-1.1700,1.8037,2.3573,0.0066,-0.0744,0.0323,0.1497,-19.6711,16.2979,24.6889,143.89,55.00
10.225,235,1,0.9276,0.618146,1.078437,0.000001,1.1996,0.3350,0.0910,0.5196,0.3350,0.0910,0.5196,-0.531915,-0.487146,0.669261,0.178451,0.0400,,0.1548,-0.1704,0.3091,0.3809,1.052425,-0.4313,-0.3246,-0.0755,-2.7974,-0.5661,1.1201,1.5088,-0.3295,0.1926,-0.2536,-0.2394,17.9683,-19.4123,-23.5481,145.52,55.00
10.260,236,1,0.9284,0.660852,1.078332,0.000001,1.1947,0.3350,0.1887,0.5196,0.3350,0.1887,0.5196,-0.121577,-0.565039,0.787378,0.214446,0.0398,,0.2017,-0.2105,0.3099,0.4702,1.026938,-0.4198,-0.3339,-0.0598,-2.7928,-0.9892,1.4882,2.3900,0.0219,-0.0583,0.0343,0.0534,-17.5058,16.4212,24.2440,145.52,55.00
10.316,237,1,0.9276,0.660035,1.091815,0.000001,1.1695,0.3350,0.2048,0.5196,0.3350,0.2048,0.5196,-0.035254,-0.568164,0.796810,0.202587,0.0386,,0.1289,-0.1303,0.3258,0.4385,1.367021,-0.4324,-0.3175,-0.0760,-2.8071,-0.3489,0.8352,1.5492,-0.1877,0.1846,-0.2420,-0.5115,18.0028,-18.8233,-23.3456,145.52,55.00
10.363,238,1,0.9073,0.695304,1.107018,0.000001,1.1424,0.3350,0.2419,0.5196,0.3350,0.2419,0.5196,-0.036347,-0.561675,0.801068,0.203689,0.0373,,0.1947,-0.2132,0.3144,0.5185,1.260338,-0.4197,-0.3273,-0.0587,-2.7925,-1.0175,1.4211,2.4351,0.0173,-0.0599,0.0282,0.0478,-18.1136,16.5665,24.2357,145.52,55.00
10.406,239,1,0.9084,0.748795,1.112865,0.000001,1.1654,0.3350,0.2485,0.5196,0.3350,0.2485,0.5196,-0.018668,-0.561630,0.802376,0.201037,0.0384,,0.1237,-0.1418,0.3337,0.4812,1.450734,-0.4321,-0.3107,-0.0746,-2.8064,-0.4513,0.7863,1.6022,-0.1980,0.1808,-0.2446,-0.4497,17.6907,-18.5621,-23.3052,145.52,55.00
10.446,240,1,0.9043,0.748085,1.115762,0.000001,1.1989,0.3350,0.2497,0.5196,0.3350,0.2497,0.5196,0.536625,-0.482265,0.677665,0.142214,0.0399,,0.1800,-0.2050,0.3113,0.5236,2.473192,-0.4194,-0.3211,-0.0588,-2.8045,-0.9578,1.3492,2.4813,0.0141,-0.0532,0.0235,0.0261,-18.0941,18.1534,24.1978,145.52,55.00
10.486,241,1,0.8797,0.784806,1.113664,0.000001,1.1912,0.3350,0.2500,0.5196,0.3350,0.2500,0.5196,-0.473181,-0.497311,0.711354,0.150855,0.0396,,0.1224,-0.1327,0.3264,0.4785,1.250996,-0.4320,-0.3044,-0.0750,-2.8184,-0.3923,0.8039,1.6520,-0.1879,0.1811,-0.2368,-0.4640,17.7116,-18.2145,-23.2944,145.52,55.00
10.526,242,1,0.8922,0.786748,1.112520,0.000001,1.1866,0.3350,0.2500,0.5196,0.3350,0.2500,0.5196,-0.103129,-0.561883,0.802901,0.170297,0.0394,,0.2183,-0.2274,0.3085,0.5349,1.231538,-0.4209,-0.3139,-0.0602,-2.8087,-1.2468,1.5843,2.5547,-0.0007,-0.0694,0.0088,0.1341,-20.5889,18.6965,24.5497,145.52,55.00
10.566,243,1,0.8269,0.807470,1.112975,0.000001,1.1626,0.3350,0.2500,0.5196,0.3350,0.2500,0.5196,-0.073990,-0.550203,0.813197,0.174676,0.0382,,0.1440,-0.1893,0.3142,0.5212,1.386490,-0.4304,-0.2978,-0.0727,-2.8201,-0.7712,1.0585,1.7221,-0.2338,0.1770,-0.2490,-0.2034,17.4696,-18.3850,-23.4756,145.52,55.00
10.606,244,1,0.9011,0.812761,1.117741,0.000001,1.1337,0.3350,0.2500,0.5196,0.3350,0.2500,0.5196,-0.053942,-0.549709,0.815590,0.172406,0.0369,,0.2196,-0.2309,0.3078,0.5380,1.397601,-0.4207,-0.3074,-0.0602,-2.8186,-1.3185,1.5839,2.6153,0.0145,-0.0761,0.0273,0.1365,-18.8689,17.5556,24.3872,145.52,55.00
10.646,245,1,0.8989,0.822933,1.112709,0.000001,1.1070,0.3350,0.2500,0.5196,0.3350,0.2500,0.5196,-0.071804,-0.547017,0.815126,0.176598,0.0356,,0.1345,-0.1832,0.3156,0.5191,1.439428,-0.4304,-0.2910,-0.0729,-2.8308,-0.7494,0.9956,1.6885,-0.2432,0.1792,-0.2563,-0.2215,17.7453,-18.6321,-23.9727,145.52,55.00
10.687,246,1,0.9144,0.809188,1.118440,0.000001,1.1197,0.3350,0.2500,0.5196,0.3350,0.2500,0.5196,-0.078945,-0.536646,0.814921,0.204162,0.0362,,0.2051,-0.2268,0.3043,0.5390,1.363993,-0.4203,-0.3008,-0.0599,-2.8293,-1.2594,1.5154,2.5398,0.0132,-0.0719,0.0252,0.1126,-18.4522,17.6641,24.1625,145.52,55.00
10.727,247,1,0.9072,0.799194,1.125455,0.000001,1.1441,0.3350,0.2500,0.5196,0.3350,0.2500,0.5196,-0.057354,-0.537182,0.816999,0.201639,0.0374,,0.1255,-0.1717,0.3144,0.5137,1.447446,-0.4305,-0.2843,-0.0733,-2.8414,-0.6848,0.9437,1.6904,-0.2353,0.1813,-0.2487,-0.2426,17.7558,-18.4543,-23.4618,145.52,55.00
10.766,248,1,0.9095,0.761030,1.139252,0.000001,1.2371,0.3350,0.2500,0.5196,0.3350,0.2500,0.5196,-0.033950,-0.536750,0.822551,0.184815,0.0400,,0.1995,-0.2178,0.2997,0.5344,1.352640,-0.4195,-0.2950,-0.0585,-2.8174,-1.1240,1.4958,2.4338,0.0150,-0.0618,0.0263,0.0824,-17.6204,17.8261,23.1075,145.52,55.00
10.833,249,1,0.8901,0.760472,1.142256,0.000001,1.1611,0.3350,0.2500,0.5196,0.3350,0.2500,0.5196,-0.035792,-0.548412,0.813826,0.188814,0.0382,,0.1291,-0.1479,0.3059,0.4964,1.431365,-0.4309,-0.2786,-0.0731,-2.8297,-0.4836,0.9568,1.5339,-0.2207,0.1898,-0.2447,-0.3059,18.0275,-18.3684,-23.5972,145.52,55.00
10.876,250,1,0.9376,0.729648,1.144201,0.000001,1.2747,0.3350,0.2500,0.5196,0.3350,0.2500,0.5196,0.560505,-0.458044,0.675910,0.138479,0.0400,,0.1850,-0.2020,0.3029,0.5232,2.499896,-0.4176,-0.2885,-0.0542,-2.7932,-0.9215,1.3633,2.3945,0.0338,-0.0582,0.0480,0.0282,-16.3860,15.6422,24.0079,145.52,55.00
10.913,251,1,0.8947,0.733954,1.145002,0.000001,1.2639,0.3350,0.2500,0.5196,0.3350,0.2500,0.5196,0.123032,-0.557456,0.807004,0.151166,0.0400,,0.1213,-0.1116,0.3354,0.4586,1.749267,-0.4309,-0.2707,-0.0710,-2.8081,-0.2671,0.6733,1.5529,-0.1490,0.3906,-0.1091,0.0969,15.0257,-16.9527,-23.2252,145.52,55.00
10.956,252,1,0.9027,0.682404,1.135186,0.000001,1.2691,0.3350,0.2500,0.5196,0.3350,0.2500,0.5196,0.051158,-0.545710,0.815177,0.187268,0.0400,,0.1831,-0.2075,0.3033,0.5283,1.492497,-0.4181,-0.2812,-0.0546,-2.8022,-0.9931,1.3590,2.4367,0.0037,-0.0510,0.0111,0.0343,-19.1640,18.6766,24.3043,145.52,55.00
10.997,253,1,0.8996,0.623238,1.147133,0.000001,1.2927,0.3350,0.1495,0.5196,0.3350,0.1495,0.5196,0.028743,-0.538946,0.816668,0.204363,0.0400,,0.1261,-0.1529,0.3193,0.4186,1.550538,-0.4301,-0.2643,-0.0701,-2.8144,-0.5343,0.8561,1.6119,-0.1940,0.1856,-0.2457,-0.3030,17.1052,-17.9914,-23.3256,145.52,55.00
11.039,254,1,0.9161,0.594621,1.149686,0.000001,1.1837,0.3350,0.0798,0.5196,0.3350,0.0798,0.5196,0.010366,-0.546768,0.803968,0.233609,0.0392,,0.1901,-0.2153,0.3004,0.3951,1.461960,-0.4175,-0.2743,-0.0553,-2.8120,-1.0896,1.4096,2.4960,0.0098,-0.0596,0.0193,0.0624,-18.4861,17.8406,24.2692,145.52,55.00
11.079,255,1,0.9470,0.563245,1.161610,0.000001,1.1636,0.3350,0.0106,0.5196,0.3350,0.0106,0.5196,0.012761,-0.576210,0.771623,0.269104,0.0383,,0.1247,-0.1522,0.3138,0.3362,1.393127,-0.4290,-0.2576,-0.0703,-2.8243,-0.5352,0.8782,1.6648,-0.2065,0.1860,-0.2456,-0.3037,17.6853,-18.0750,-23.3436,145.52,55.00
11.124,256,1,0.9743,0.510621,1.113576,0.000002,1.2884,0.3350,-0.0968,0.5196,0.3350,-0.0968,0.5196,0.005593,-0.567008,0.749549,0.341536,0.0400,,0.1953,-0.2128,0.2920,0.2912,1.425160,-0.4168,-0.2676,-0.0554,-2.8162,-1.0804,1.4725,2.4668,0.0110,-0.0578,0.0214,0.0725,-18.3910,17.9893,23.6757,145.52,55.00
11.182,257,1,0.9747,0.424466,1.142581,0.000001,1.2828,0.3350,-0.2224,0.5196,0.3350,-0.2224,0.5196,0.035757,-0.576645,0.757820,0.303168,0.0400,,0.1258,-0.1499,0.3077,0.3065,1.356159,-0.4282,-0.2510,-0.0702,-2.8283,-0.5167,0.9092,1.5852,-0.2137,0.1885,-0.2455,-0.3045,17.6360,-18.4821,-23.5875,145.52,55.00
11.230,258,1,0.9638,0.420094,1.145651,0.000001,1.2155,0.3350,-0.2450,0.5196,0.3350,-0.2450,0.5196,0.018295,-0.564931,0.772427,0.289610,0.0400,,0.1888,-0.2158,0.2966,0.2682,1.504869,-0.4159,-0.2606,-0.0538,-2.8197,-1.1156,1.4042,2.4511,0.0150,-0.0641,0.0262,0.0665,-18.2350,16.8872,24.1579,145.52,55.00
11.273,259,1,0.9636,0.382439,1.143099,0.000001,1.2085,0.3350,-0.2491,0.5196,0.3350,-0.2491,0.5196,0.006726,-0.558154,0.777975,0.288399,0.0400,,0.1168,-0.1545,0.3231,0.3085,1.482973,-0.4274,-0.2436,-0.0689,-2.8324,-0.5904,0.7851,1.6146,-0.2095,0.1808,-0.2467,-0.3287,17.4333,-18.4370,-23.3327,145.52,55.00
11.327,260,1,0.9470,0.377357,1.150428,0.000001,1.2212,0.3350,-0.2498,0.5196,0.3350,-0.2498,0.5196,0.010865,-0.566074,0.773144,0.285817,0.0400,,0.2187,-0.2279,0.2984,0.2509,1.526332,-0.4161,-0.2544,-0.0544,-2.7948,-1.2424,1.5445,2.4813,0.0046,-0.0646,0.0131,0.1207,-18.8784,18.6898,23.8619,145.52,55.00
11.372,261,1,0.9578,0.356227,1.146104,0.000001,1.1299,0.3350,-0.2500,0.5196,0.3350,-0.2500,0.5196,-0.538176,-0.468787,0.656883,0.243125,0.0367,,0.1438,-0.1757,0.3024,0.2987,0.940247,-0.4262,-0.2378,-0.0674,-2.8063,-0.6636,1.0303,1.6027,-0.2578,0.1872,-0.2491,-0.2293,17.8604,-18.3629,-23.6332,145.52,55.00
11.414,262,1,0.9568,0.327618,1.149766,0.000001,1.2545,0.3350,-0.2500,0.5196,0.3350,-0.2500,0.5196,0.457977,-0.503990,0.691181,0.241910,0.0400,,0.2149,-0.2207,0.2882,0.2623,2.360185,-0.4157,-0.2468,-0.0538,-2.8049,-1.1849,1.5667,2.4829,0.0113,-0.0642,0.0223,0.1107,-18.7424,17.6458,24.3506,145.52,55.00
11.460,263,1,0.9555,0.318811,1.155761,0.000001,1.1330,0.3350,-0.2500,0.5196,0.3350,-0.2500,0.5196,-0.475109,-0.493735,0.683550,0.251507,0.0368,,0.1363,-0.1661,0.3010,0.3071,0.944193,-0.4263,-0.2303,-0.0675,-2.8166,-0.6121,0.9893,1.6393,-0.2532,0.1896,-0.2484,-0.2470,17.7301,-18.5712,-23.4610,145.52,55.00
11.499,264,1,0.9645,0.296660,1.155471,0.000001,1.1135,0.3350,-0.2500,0.5196,0.3350,-0.2500,0.5196,0.464618,-0.489519,0.685677,0.272668,0.0359,,0.2037,-0.2187,0.2869,0.2690,2.415922,-0.4151,-0.2396,-0.0537,-2.8142,-1.1636,1.5063,2.5269,0.0109,-0.0631,0.0215,0.0953,-18.7880,17.5785,24.3430,145.52,55.00
11.540,265,1,0.9571,0.302896,1.145947,0.000001,1.0830,0.3350,-0.2500,0.5196,0.3350,-0.2500,0.5196,-0.477068,-0.495085,0.679007,0.257383,0.0345,,0.1282,-0.1612,0.3043,0.3115,0.936747,-0.4260,-0.2229,-0.0678,-2.8260,-0.6014,0.9273,1.6912,-0.2389,0.1889,-0.2479,-0.2593,17.7291,-18.4656,-23.3931,145.52,55.00
11.585,266,1,0.9574,0.297571,1.142683,0.000001,1.0925,0.3350,-0.2500,0.5196,0.3350,-0.2500,0.5196,-0.109502,-0.559317,0.769915,0.287064,0.0349,,0.1937,-0.2097,0.2853,0.2766,1.178214,-0.4141,-0.2332,-0.0530,-2.8068,-1.0415,1.4489,2.4310,0.0166,-0.0551,0.0273,0.0614,-17.5437,17.6317,23.0612,145.52,55.00
11.628,267,1,0.9581,0.297188,1.144461,0.000001,1.1312,0.3350,-0.2500,0.5196,0.3350,-0.2500,0.5196,-0.037685,-0.564973,0.773825,0.283868,0.0368,,0.1272,-0.1364,0.3030,0.3210,1.320524,-0.4261,-0.2163,-0.0684,-2.8195,-0.4174,0.8827,1.5342,-0.1920,0.1902,-0.2435,-0.3903,17.9057,-18.4141,-23.5501,145.52,55.00
11.670,268,1,0.9582,0.298574,1.145275,0.000001,1.0921,0.3350,-0.2500,0.5196,0.3350,-0.2500,0.5196,-0.037820,-0.563502,0.776422,0.279651,0.0349,,0.1678,-0.1902,0.2934,0.2876,1.292643,-0.4128,-0.2261,-0.0490,-2.7993,-0.8558,1.2425,2.3848,0.0451,-0.0595,0.0617,0.0128,-15.8000,14.9511,23.8454,145.52,55.00
11.713,269,1,0.9605,0.299074,1.148894,0.000001,1.1199,0.3350,-0.2500,0.5196,0.3350,-0.2500,0.5196,-0.023528,-0.560985,0.774948,0.290167,0.0362,,0.1194,-0.0992,0.3399,0.3186,1.518859,-0.4264,-0.2077,-0.0668,-2.8069,-0.2176,0.5668,1.5645,-0.0751,0.3190,-0.1912,1.9568,9.5443,-10.4950,-18.6775,145.52,55.00
11.755,270,1,0.9522,0.307528,1.151328,0.000001,1.1286,0.3350,-0.2500,0.5196,0.3350,-0.2500,0.5196,-0.017873,-0.560578,0.778289,0.282312,0.0366,,0.2399,-0.2300,0.2896,0.2497,1.476210,-0.4156,-0.2186,-0.0530,-2.7700,-1.2852,1.6519,2.7242,-0.0097,-0.0646,-0.0041,0.1709,-21.7868,19.9406,25.5559,145.52,55.00
11.797,271,1,0.9451,0.330219,1.142718,0.000001,1.1394,0.3350,-0.2500,0.5196,0.3350,-0.2500,0.5196,-0.015960,-0.562641,0.773294,0.291884,0.0371,,0.1743,-0.2092,0.2953,0.2790,1.434804,-0.4238,-0.2022,-0.0639,-2.7808,-0.8945,1.1974,1.5898,-0.1961,0.1746,-0.2480,-0.1489,17.0554,-18.1944,-25.1863,145.52,55.00
11.843,272,1,0.9419,0.344308,1.142781,0.000001,1.1715,0.3350,-0.2500,0.5196,0.3350,-0.2500,0.5196,-0.014857,-0.567665,0.768760,0.294183,0.0387,,0.2583,-0.2370,0.2906,0.2418,1.658007,-0.4154,-0.2108,-0.0535,-2.7784,-1.4984,1.7217,2.4036,0.0241,-0.0874,0.0379,0.2032,-19.5229,17.3412,24.2731,145.52,55.00
11.873,273,1,0.9499,0.338631,1.138556,0.000001,1.1821,0.3350,-0.2500,0.5196,0.3350,-0.2500,0.5196,-0.019496,-0.566438,0.771579,0.288850,0.0392,,0.1642,-0.2093,0.3003,0.2809,1.501118,-0.4234,-0.1938,-0.0641,-2.7909,-0.9185,1.1161,1.5343,-0.2423,0.1765,-0.2574,-0.1616,17.9123,-18.8234,-23.6429,145.52,55.00
11.918,274,1,0.9417,0.355434,1.131989,0.000001,1.1254,0.3350,-0.2500,0.5196,0.3350,-0.2500,0.5196,-0.016183,-0.573035,0.774158,0.268418,0.0365,,0.2371,-0.2391,0.2924,0.2476,1.634814,-0.4150,-0.2029,-0.0530,-2.7889,-1.4386,1.5854,2.4213,0.0168,-0.0801,0.0278,0.1614,-18.6813,17.1955,24.4106,145.52,55.00
11.961,275,1,0.9534,0.423307,1.126612,0.000001,1.1586,0.3350,-0.2500,0.5196,0.3350,-0.2500,0.5196,0.538443,-0.485604,0.642751,0.247263,0.0380,,0.1461,-0.1978,0.3077,0.2886,2.474463,-0.4239,-0.1855,-0.0648,-2.8011,-0.8551,0.9782,1.5802,-0.2477,0.1809,-0.2742,-0.2010,17.8431,-18.6354,-23.4345,145.52,55.00
12.008,276,1,0.9655,0.491233,1.115253,0.000001,1.2244,0.3350,-0.1786,0.5196,0.3350,-0.1786,0.5196,-0.447923,-0.528097,0.674699,0.255459,0.0400,,0.2196,-0.2345,0.2887,0.2641,0.784264,-0.4146,-0.1950,-0.0527,-2.7990,-1.3503,1.5101,2.4689,0.0115,-0.0720,0.0207,0.1329,-18.3302,17.8115,24.3466,145.52,55.00
12.052,277,1,0.9660,0.540456,1.080475,0.000001,1.2133,0.3350,-0.0770,0.5196,0.3350,-0.0770,0.5196,-0.085234,-0.587564,0.738968,0.318481,0.0400,,0.1394,-0.1852,0.3000,0.3134,1.303049,-0.4242,-0.1777,-0.0652,-2.8108,-0.7661,0.9772,1.6309,-0.2367,0.1836,-0.2578,-0.2162,17.8210,-18.1513,-23.4208,145.52,55.00
12.095,278,1,0.9654,0.541351,1.094585,0.000001,1.1998,0.3350,-0.0571,0.5196,0.3350,-0.0571,0.5196,-0.017421,-0.593161,0.741131,0.313976,0.0400,,0.2144,-0.2256,0.2763,0.3196,1.513218,-0.4142,-0.1869,-0.0523,-2.8087,-1.2715,1.5461,2.5210,0.0123,-0.0667,0.0221,0.1262,-18.5499,17.9581,24.3636,145.52,55.00
12.142,279,1,0.9430,0.580664,1.103690,0.000001,1.1877,0.3350,0.0174,0.5196,0.3350,0.0174,0.5196,-0.017822,-0.593362,0.750167,0.291298,0.0394,,0.1344,-0.1744,0.2933,0.3581,1.399358,-0.4242,-0.1698,-0.0653,-2.8202,-0.6946,0.9793,1.6815,-0.2392,0.1869,-0.2551,-0.2298,17.7448,-18.4976,-23.4366,145.52,55.00
12.186,280,1,0.9521,0.612005,1.111160,0.000001,1.1884,0.3350,0.0874,0.5196,0.3350,0.0874,0.5196,-0.016327,-0.602981,0.755804,0.254769,0.0395,,0.1926,-0.2133,0.2751,0.4128,1.415240,-0.4131,-0.1797,-0.0505,-2.8087,-1.0992,1.4344,2.4144,0.0186,-0.0581,0.0291,0.0712,-17.3116,17.2451,23.0350,145.52,55.00
12.228,281,1,0.9436,0.652382,1.136807,0.000001,1.1945,0.3350,0.1728,0.5196,0.3350,0.1728,0.5196,-0.009474,-0.593834,0.768361,0.238521,0.0397,,0.1228,-0.1402,0.2995,0.4376,1.504794,-0.4249,-0.1624,-0.0657,-2.8212,-0.4645,0.8448,1.5182,-0.1972,0.1908,-0.2449,-0.3664,17.9770,-18.4482,-23.5255,145.52,55.00
12.270,282,1,0.9347,0.644190,1.133827,0.000001,1.1319,0.3350,0.1734,0.5196,0.3350,0.1734,0.5196,-0.036074,-0.574443,0.783375,0.234599,0.0368,,0.2106,-0.2174,0.2649,0.4828,1.403804,-0.4127,-0.1713,-0.0512,-2.8139,-1.2040,1.5735,2.4254,0.0035,-0.0614,0.0117,0.1281,-20.0378,18.6505,24.5915,145.52,55.00
12.313,283,1,0.8698,0.694004,1.154040,0.000001,1.1606,0.3350,0.2362,0.5196,0.3350,0.2362,0.5196,-0.054557,-0.576884,0.788600,0.205762,0.0381,,0.1400,-0.1800,0.2826,0.5171,1.501092,-0.4225,-0.1547,-0.0639,-2.8245,-0.7377,1.0569,1.5947,-0.2117,0.1836,-0.2479,-0.2024,17.2059,-18.2733,-23.4654,145.52,55.00
12.356,284,1,0.8367,0.790308,1.166376,0.000001,1.2515,0.3350,0.2475,0.5196,0.3350,0.2475,0.5196,-0.030244,-0.576831,0.794742,0.186378,0.0400,,0.2179,-0.2229,0.2632,0.5484,1.481935,-0.4124,-0.1635,-0.0516,-2.8222,-1.3156,1.6046,2.4901,0.0160,-0.0715,0.0271,0.1499,-19.1710,17.6980,24.4597,145.52,55.00
12.397,285,1,0.8733,0.863862,1.162609,0.000001,1.1964,0.3350,0.2496,0.5196,0.3350,0.2496,0.5196,-0.069477,-0.576824,0.790081,0.195496,0.0398,,0.1351,-0.1786,0.2825,0.5287,1.511711,-0.4220,-0.1466,-0.0640,-2.8334,-0.7432,1.0321,1.6493,-0.2341,0.1839,-0.2491,-0.2088,17.8126,-18.5309,-23.4707,145.52,55.00
12.439,286,1,0.8638,0.886457,1.192359,0.000001,1.2333,0.3350,0.2499,0.5196,0.3350,0.2499,0.5196,-0.044336,-0.580072,0.790470,0.191592,0.0400,,0.2008,-0.2146,0.2632,0.5473,1.399140,-0.4116,-0.1565,-0.0498,-2.8163,-1.1592,1.5129,2.3737,0.0185,-0.0603,0.0292,0.0972,-17.5612,17.3750,22.9894,145.52,55.00
12.482,287,1,0.8699,0.890564,1.181067,0.000001,1.2320,0.3350,0.2500,0.5196,0.3350,0.2500,0.5196,-0.042605,-0.586959,0.788394,0.179161,0.0400,,0.1252,-0.1471,0.2859,0.5063,1.587120,-0.4227,-0.1394,-0.0641,-2.8280,-0.5138,0.9279,1.4638,-0.2209,0.1968,-0.2466,-0.2972,18.0197,-18.5804,-23.6239,145.52,55.00
12.513,288,1,0.9082,0.895495,1.178417,0.000002,1.1617,0.3350,0.2500,0.5196,0.3350,0.2500,0.5196,-0.089394,-0.547753,0.801175,0.223815,0.0382,,0.1610,-0.1909,0.2781,0.5319,1.338375,-0.4093,-0.1493,-0.0451,-2.8122,-0.9043,1.2169,2.3110,0.0447,-0.0605,0.0608,0.0209,-15.7547,14.8582,23.8291,145.52,55.00
12.553,289,1,0.9307,0.897143,1.176242,0.000002,1.1762,0.3350,0.2500,0.5196,0.3350,0.2500,0.5196,-0.093873,-0.537620,0.803937,0.236299,0.0389,,0.1186,-0.1144,0.3261,0.4659,1.657105,-0.4225,-0.1307,-0.0621,-2.8021,-0.3439,0.6092,1.5334,-0.0988,0.1646,-0.1353,2.6973,4.4156,-6.1527,-15.7210,145.52,55.00
12.597,290,1,0.9238,0.930545,1.192703,0.000002,1.1680,0.3350,0.2500,0.5196,0.3350,0.2500,0.5196,-0.096722,-0.541993,0.802647,0.229449,0.0385,,0.2994,-0.2289,0.2699,0.5413,1.561293,-0.4138,-0.1415,-0.0506,-2.7478,-1.7212,1.9529,2.8541,0.0538,-0.0835,0.0737,0.6055,-24.5066,20.8077,26.3899,145.52,55.00
12.643,291,1,0.9003,0.909366,1.181971,0.000002,1.1372,0.3350,0.2500,0.5196,0.3350,0.2500,0.5196,-0.137356,-0.524124,0.804061,0.244772,0.0370,,0.2389,-0.2397,0.2709,0.5575,1.777181,-0.4180,-0.1242,-0.0566,-2.7657,-1.3258,1.5330,1.4369,-0.1422,0.1463,-0.1801,-0.0213,17.9823,-18.2074,-26.4488,145.52,55.00
12.673,292,1,0.8913,0.902623,1.220164,0.000002,1.1433,0.3350,0.2500,0.5196,0.3350,0.2500,0.5196,-0.126102,-0.516073,0.820951,0.209303,0.0373,,0.3170,-0.2216,0.2671,0.5352,2.050426,-0.4128,-0.1331,-0.0496,-2.7570,-1.9945,2.0246,2.1975,0.0986,-0.1057,0.1287,0.4639,-20.6935,16.9439,24.2789,145.52,55.00
12.713,293,1,0.9074,0.890086,1.209433,0.000002,1.1426,0.3350,0.2500,0.5196,0.3350,0.2500,0.5196,-0.122846,-0.506822,0.823476,0.223444,0.0373,,0.2222,-0.2443,0.2779,0.5616,1.963705,-0.4180,-0.1145,-0.0567,-2.7822,-1.3584,1.3929,1.2873,-0.1591,0.1516,-0.2021,-0.0287,18.6702,-19.0578,-23.9830,145.52,55.00
12.756,294,1,0.9001,0.905197,1.215282,0.000001,1.1427,0.3350,0.2500,0.5196,0.3350,0.2500,0.5196,-0.100470,-0.511257,0.819472,0.238721,0.0373,,0.2973,-0.2341,0.2683,0.5468,2.041675,-0.4128,-0.1238,-0.0498,-2.7753,-1.9170,1.8629,2.1798,0.0721,-0.1054,0.0954,0.3362,-19.7030,17.0760,24.6857,145.52,55.00
12.797,295,1,0.9155,0.907219,1.214513,0.000002,1.1570,0.3350,0.2500,0.5196,0.3350,0.2500,0.5196,-0.099270,-0.532885,0.807294,0.233356,0.0380,,0.1978,-0.2411,0.2856,0.5611,1.884319,-0.4185,-0.1050,-0.0575,-2.7917,-1.2831,1.2314,1.3202,-0.1806,0.1616,-0.2302,-0.0702,18.3400,-19.0446,-23.6413,145.52,55.00
12.839,296,1,0.9287,0.876056,1.219263,0.000002,1.1341,0.3350,0.2500,0.5196,0.3350,0.2500,0.5196,-0.127947,-0.524398,0.805916,0.243179,0.0369,,0.2756,-0.2418,0.2692,0.5551,1.863668,-0.4127,-0.1146,-0.0499,-2.7864,-1.7999,1.7271,2.2198,0.0487,-0.1021,0.0658,0.2536,-19.0552,17.4146,24.6101,145.52,55.00
12.882,297,1,0.9033,0.852692,1.225438,0.000002,1.1707,0.3350,0.2500,0.5196,0.3350,0.2500,0.5196,-0.113882,-0.528972,0.810865,0.222973,0.0386,,0.1773,-0.2315,0.2868,0.5575,1.810895,-0.4191,-0.0959,-0.0585,-2.8008,-1.1794,1.1309,1.3717,-0.1927,0.1683,-0.2458,-0.1077,18.1351,-18.7483,-23.5323,145.52,55.00
12.924,298,1,0.8639,0.819661,1.233988,0.000002,1.1490,0.3350,0.2500,0.5196,0.3350,0.2500,0.5196,-0.125494,-0.528361,0.814195,0.205361,0.0376,,0.2538,-0.2413,0.2646,0.5595,1.725686,-0.4124,-0.1053,-0.0496,-2.7967,-1.6577,1.6456,2.2690,0.0331,-0.0906,0.0461,0.2168,-18.5094,17.5893,24.5191,145.52,55.00
12.983,299,1,0.8563,0.803398,1.230329,0.000001,1.1314,0.3350,0.2500,0.5196,0.3350,0.2500,0.5196,-0.111702,-0.521546,0.813012,0.233506,0.0368,,0.1583,-0.2150,0.2827,0.5510,1.722443,-0.4198,-0.0870,-0.0595,-2.8095,-1.0315,1.0695,1.4247,-0.2169,0.1752,-0.2506,-0.1455,18.0817,-18.5846,-23.4790,145.52,55.00
13.031,300,1,0.8228,0.796414,1.232252,0.000001,1.1492,0.3350,0.2500,0.5196,0.3350,0.2500,0.5196,-0.111825,-0.539688,0.811465,0.194313,0.0376,,0.2339,-0.2348,0.2563,0.5609,1.599346,-0.4118,-0.0961,-0.0489,-2.8062,-1.5055,1.6034,2.3200,0.0238,-0.0801,0.0342,0.1847,-18.4137,17.7484,24.4694,145.52,55.00
13.074,301,1,0.8454,0.767067,1.240330,0.000001,1.2088,0.3350,0.2500,0.5196,0.3350,0.2500,0.5196,-0.075776,-0.536069,0.817011,0.198446,0.0400,,0.1447,-0.1973,0.2760,0.5437,1.723091,-0.4202,-0.0783,-0.0600,-2.8180,-0.8906,1.0431,1.4773,-0.2158,0.1812,-0.2611,-0.1762,17.9779,-18.4736,-23.4624,145.52,55.00
13.117,302,1,0.8128,0.781815,1.253899,0.000001,1.1495,0.3350,0.2500,0.5196,0.3350,0.2500,0.5196,-0.079692,-0.543775,0.814501,0.185868,0.0376,,0.2201,-0.2270,0.2480,0.5608,1.555819,-0.4112,-0.0871,-0.0482,-2.8151,-1.3954,1.5869,2.3712,0.0194,-0.0732,0.0286,0.1640,-18.6753,17.7941,24.4512,145.52,55.00
13.157,303,1,0.9074,0.740710,1.253363,0.000001,1.2662,0.3350,0.2500,0.5196,0.3350,0.2500,0.5196,0.524840,-0.481821,0.687911,0.138459,0.0400,,0.1382,-0.1857,0.2687,0.5399,2.572321,-0.4203,-0.0696,-0.0601,-2.8262,-0.8084,1.0514,1.5292,-0.2104,0.1838,-0.2547,-0.1885,17.8266,-18.2577,-23.4762,145.52,55.00
13.195,304,1,0.9041,0.711029,1.255457,0.000001,1.2401,0.3350,0.2500,0.5196,0.3350,0.2500,0.5196,0.112761,-0.558573,0.803965,0.170064,0.0400,,0.2008,-0.2178,0.2467,0.5580,1.836248,-0.4102,-0.0790,-0.0463,-2.8146,-1.2321,1.5039,2.2533,0.0200,-0.0632,0.0289,0.1128,-17.6593,17.0869,23.0437,145.52,55.00
13.237,305,1,0.8892,0.635093,1.236279,0.000001,1.2232,0.3350,0.1709,0.5196,0.3350,0.1709,0.5196,0.030683,-0.568286,0.801774,0.182395,0.0400,,0.1224,-0.1561,0.2783,0.4586,1.822371,-0.4210,-0.0614,-0.0602,-2.8259,-0.5994,0.9024,1.3473,-0.2183,0.2018,-0.2548,-0.2600,17.9500,-18.6069,-23.5937,145.52,55.00
13.280,306,1,0.9234,0.631878,1.233327,0.000001,1.1938,0.3350,0.1508,0.5196,0.3350,0.1508,0.5196,-0.538510,-0.479994,0.675850,0.151129,0.0397,,0.2251,-0.2182,0.2332,0.4799,0.776247,-0.4108,-0.0708,-0.0471,-2.8143,-1.3535,1.6859,2.3274,0.0142,-0.0718,0.0219,0.1947,-20.5419,18.8238,25.0106,145.52,55.00
13.322,307,1,0.9036,0.608770,1.202192,0.000001,1.2022,0.3350,0.1055,0.5196,0.3350,0.1055,0.5196,-0.130448,-0.569025,0.791329,0.181638,0.0400,,0.1496,-0.1906,0.2524,0.4398,1.568886,-0.4193,-0.0539,-0.0581,-2.8246,-0.8457,1.1788,1.5097,-0.1946,0.1795,-0.2484,-0.1533,17.6256,-18.3730,-23.4623,145.52,55.00
13.385,308,1,0.9375,0.591293,1.185778,0.000001,1.2410,0.3350,0.0659,0.5196,0.3350,0.0659,0.5196,-0.049188,-0.571685,0.794409,0.199179,0.0400,,0.2290,-0.2193,0.2296,0.4203,1.548520,-0.4102,-0.0620,-0.0471,-2.8216,-1.4259,1.7063,2.4182,0.0282,-0.0788,0.0392,0.1974,-19.5246,17.4594,24.6096,145.52,55.00
13.430,309,1,0.8974,0.583611,1.208587,0.000001,1.1915,0.3350,0.0449,0.5196,0.3350,0.0449,0.5196,-0.048517,-0.571049,0.796368,0.193255,0.0396,,0.1432,-0.1931,0.2580,0.4023,1.695216,-0.4187,-0.0447,-0.0581,-2.8326,-0.8851,1.1143,1.5749,-0.1969,0.1794,-0.2517,-0.1593,17.5573,-18.6694,-23.5418,145.52,55.00
13.474,310,1,0.9261,0.577593,1.180938,0.000001,1.2070,0.3350,0.0302,0.5196,0.3350,0.0302,0.5196,-0.054162,-0.574522,0.792533,0.197188,0.0400,,0.2201,-0.2230,0.2326,0.3996,1.580509,-0.4099,-0.0532,-0.0467,-2.8294,-1.4432,1.6304,2.4702,0.0259,-0.0776,0.0358,0.1841,-19.1311,17.5654,24.4769,145.52,55.00
13.514,311,1,0.9209,0.574309,1.187165,0.000001,1.1747,0.3350,0.0217,0.5196,0.3350,0.0217,0.5196,-0.070375,-0.570042,0.793195,0.202340,0.0388,,0.1368,-0.1936,0.2633,0.3890,1.694932,-0.4185,-0.0356,-0.0579,-2.8404,-0.9068,1.0520,1.6279,-0.1964,0.1789,-0.2514,-0.1670,17.4849,-18.4792,-23.5036,145.52,55.00
13.554,312,1,0.9386,0.563255,1.179666,0.000001,1.1934,0.3350,0.0002,0.5196,0.3350,0.0002,0.5196,-0.061171,-0.571223,0.793529,0.200684,0.0397,,0.2065,-0.2242,0.2393,0.3813,1.603195,-0.4092,-0.0451,-0.0448,-2.8254,-1.3723,1.5189,2.3513,0.0218,-0.0711,0.0300,0.1442,-17.9718,17.2936,23.0296,145.52,55.00
13.594,313,1,0.9432,0.557013,1.189086,0.000001,1.1976,0.3350,-0.0149,0.5196,0.3350,-0.0149,0.5196,-0.045487,-0.571531,0.791506,0.211663,0.0399,,0.1240,-0.1750,0.2722,0.3624,1.764095,-0.4190,-0.0272,-0.0574,-2.8364,-0.7639,0.9329,1.4436,-0.2186,0.1886,-0.2597,-0.2192,17.8487,-18.4717,-23.6253,145.52,55.00
13.634,314,1,0.9404,0.558016,1.190994,0.000001,1.1669,0.3350,-0.0159,0.5196,0.3350,-0.0159,0.5196,-0.048892,-0.570410,0.792429,0.210469,0.0384,,0.2122,-0.2237,0.2397,0.3697,1.607903,-0.4089,-0.0373,-0.0430,-2.7992,-1.3163,1.5284,2.1945,0.0154,-0.0652,0.0214,0.1391,-18.3230,17.7427,23.1583,145.52,55.00
13.674,315,1,0.9394,0.559633,1.184332,0.000001,1.1709,0.3350,-0.0131,0.5196,0.3350,-0.0131,0.5196,-0.058106,-0.567681,0.789187,0.227036,0.0386,,0.1348,-0.1747,0.2648,0.3621,1.717277,-0.4187,-0.0195,-0.0557,-2.8100,-0.7215,0.9953,1.2907,-0.2075,0.1936,-0.2616,-0.2158,17.7827,-18.2569,-23.6433,145.52,55.00
13.715,316,1,0.9489,0.555055,1.194737,0.000001,1.1531,0.3350,-0.0209,0.5196,0.3350,-0.0209,0.5196,-0.049376,-0.568128,0.792935,0.214584,0.0378,,0.2074,-0.2145,0.2285,0.3721,1.547264,-0.4084,-0.0282,-0.0424,-2.8071,-1.2451,1.5726,2.1659,0.0152,-0.0607,0.0209,0.1382,-18.8508,17.9688,24.4072,145.52,55.00
13.757,317,1,0.9462,0.560339,1.192649,0.000001,1.1409,0.3350,-0.0127,0.5196,0.3350,-0.0127,0.5196,-0.057059,-0.566505,0.792238,0.219488,0.0372,,0.1315,-0.1673,0.2585,0.3653,1.704398,-0.4185,-0.0107,-0.0554,-2.8173,-0.6755,1.0134,1.3198,-0.2058,0.1954,-0.2612,-0.2206,17.6559,-18.5506,-23.4709,145.52,55.00
13.794,318,1,0.9427,0.554687,1.186357,0.000001,1.1723,0.3350,-0.0215,0.5196,0.3350,-0.0215,0.5196,-0.049751,-0.572378,0.791558,0.208194,0.0387,,0.2010,-0.2105,0.2244,0.3753,1.518902,-0.4080,-0.0193,-0.0418,-2.8145,-1.2145,1.5635,2.2092,0.0162,-0.0593,0.0218,0.1306,-18.9266,17.8169,24.4640,145.52,55.00
13.834,319,1,0.9441,0.558175,1.182984,0.000001,1.1640,0.3350,-0.0167,0.5196,0.3350,-0.0167,0.5196,-0.062881,-0.568838,0.791594,0.214123,0.0383,,0.1297,-0.1662,0.2539,0.3676,1.691573,-0.4181,-0.0019,-0.0549,-2.8245,-0.6783,1.0323,1.3682,-0.1954,0.1933,-0.2511,-0.2127,17.4293,-18.2292,-23.4727,145.52,55.00
13.890,320,1,0.9487,0.557093,1.184998,0.000001,1.1668,0.3350,-0.0178,0.5196,0.3350,-0.0178,0.5196,-0.053594,-0.568022,0.792427,0.215725,0.0384,,0.2118,-0.2119,0.2182,0.3791,1.539350,-0.4079,-0.0109,-0.0414,-2.8126,-1.2770,1.6337,2.1993,0.0186,-0.0643,0.0244,0.1594,-19.3201,17.8485,24.0085,145.52,55.00
13.937,321,1,0.9324,0.549692,1.202213,0.000001,1.1458,0.3350,-0.0314,0.5196,0.3350,-0.0314,0.5196,-0.057419,-0.567897,0.794255,0.208218,0.0374,,0.1349,-0.1691,0.2451,0.3665,1.712290,-0.4176,0.0063,-0.0539,-2.8225,-0.6950,1.0970,1.3163,-0.1999,0.1930,-0.2582,-0.1985,17.8391,-18.4252,-23.6815,145.52,55.00
13.968,322,1,0.9281,0.558853,1.175584,0.000001,1.1712,0.3350,-0.0173,0.5196,0.3350,-0.0173,0.5196,-0.065667,-0.569774,0.790280,0.215646,0.0386,,0.2069,-0.2069,0.2122,0.3832,1.492269,-0.4074,-0.0014,-0.0408,-2.8197,-1.2431,1.6432,2.1992,0.0209,-0.0627,0.0269,0.1544,-19.2394,17.6576,24.4933,145.52,55.00
14.007,323,1,0.9418,0.560994,1.178235,0.000001,1.1730,0.3350,-0.0109,0.5196,0.3350,-0.0109,0.5196,-0.064305,-0.566978,0.791848,0.217666,0.0387,,0.1305,-0.1680,0.2453,0.3765,1.703581,-0.4172,0.0157,-0.0534,-2.8295,-0.7025,1.0754,1.3513,-0.1958,0.1923,-0.2523,-0.1997,17.4615,-18.5660,-23.5267,145.52,55.00
14.047,324,1,0.9434,0.566173,1.180403,0.000001,1.1616,0.3350,-0.0004,0.5196,0.3350,-0.0004,0.5196,-0.054401,-0.565580,0.794532,0.214192,0.0382,,0.2090,-0.2100,0.2138,0.3916,1.566445,-0.4071,0.0066,-0.0398,-2.8115,-1.2604,1.6244,2.1292,0.0212,-0.0630,0.0269,0.1517,-18.8921,17.4947,23.5527,145.52,55.00
14.087,325,1,0.9349,0.576154,1.173059,0.000001,1.1549,0.3350,0.0195,0.5196,0.3350,0.0195,0.5196,-0.048579,-0.568825,0.791642,0.217672,0.0379,,0.1300,-0.1649,0.2476,0.3873,1.774608,-0.4171,0.0240,-0.0526,-2.8215,-0.6717,1.0447,1.2155,-0.1996,0.1971,-0.2630,-0.2147,17.7283,-18.6919,-23.7917,145.52,55.00
14.132,326,1,0.9362,0.572982,1.177306,0.000001,1.1514,0.3350,0.0173,0.5196,0.3350,0.0173,0.5196,-0.046219,-0.570873,0.791004,0.215129,0.0377,,0.1985,-0.2063,0.2123,0.4039,1.577362,-0.4066,0.0157,-0.0392,-2.8186,-1.2134,1.5846,2.0831,0.0189,-0.0590,0.0234,0.1375,-19.0501,17.7212,24.3979,145.52,55.00
14.175,327,1,0.9228,0.584925,1.157558,0.000001,1.1541,0.3350,0.0385,0.5196,0.3350,0.0385,0.5196,-0.045575,-0.569840,0.791646,0.215646,0.0378,,0.1273,-0.1637,0.2450,0.3993,1.785852,-0.4167,0.0330,-0.0522,-2.8283,-0.6759,1.0479,1.2335,-0.1933,0.1949,-0.2496,-0.2091,17.4111,-18.3071,-23.5209,145.52,55.00
14.223,328,1,0.9188,0.590237,1.137455,0.000001,1.1512,0.3350,0.0519,0.5196,0.3350,0.0519,0.5196,-0.039043,-0.568996,0.793701,0.211562,0.0377,,0.2201,-0.2083,0.2013,0.4268,1.642502,-0.4072,0.0242,-0.0392,-2.8192,-1.3619,1.7278,2.1376,0.0250,-0.0728,0.0308,0.2071,-20.2844,18.1998,24.6297,145.52,55.00
14.271,329,1,0.9050,0.610886,1.094283,0.000001,1.1786,0.3350,0.0915,0.5196,0.3350,0.0915,0.5196,-0.037258,-0.580199,0.788827,0.199332,0.0390,,0.1403,-0.1808,0.2315,0.4417,1.810419,-0.4160,0.0414,-0.0504,-2.8289,-0.8128,1.1736,1.2865,-0.1936,0.1857,-0.2505,-0.1569,17.7647,-18.7158,-23.5896,145.52,55.00
14.314,330,1,0.8763,0.622775,1.074028,0.000001,1.1522,0.3350,0.1201,0.5196,0.3350,0.1201,0.5196,-0.039046,-0.589139,0.782796,0.196520,0.0377,,0.2024,-0.2101,0.2091,0.4723,1.670457,-0.4063,0.0328,-0.0374,-2.8196,-1.2846,1.5893,2.0081,0.0270,-0.0652,0.0329,0.1457,-18.3190,16.7393,23.1480,145.52,55.00
14.357,331,1,0.8462,0.629288,1.048939,0.000001,1.1577,0.3350,0.1370,0.5196,0.3350,0.1370,0.5196,-0.050085,-0.594947,0.778946,0.191762,0.0380,,0.1206,-0.1607,0.2533,0.4534,1.911600,-0.4165,0.0506,-0.0506,-2.8299,-0.6689,0.9547,1.0976,-0.1937,0.2053,-0.2755,-0.2333,17.7850,-18.9038,-23.6508,145.52,55.00
